( pcb2gcode 2.5.0 )
( Software-independent Gcode )

G94 ( Millimeters per minute feed rate. )
G21 ( Units == Millimeters. )

G90 ( Absolute coordinates. )
G00 S10000 ( RPM spindle speed. )
G64 P0.01000 ( set maximum deviation from commanded toolpath )
G01 F120.00000 ( Feedrate. )


G00 Z10.00000 (Retract to tool change height)
M3 ( Spindle on clockwise. )
G04 P1.00000 (Wait for spindle to get up to speed)
G04 P0 ( dwell for no time -- G64 should not smooth over this point )
G00 Z5.00000 ( retract )

G00 X0.62700 Y-0.62700 ( rapid move to begin. )
G01 F60.00000
( Mill infeed pass 1/1 )
G01 Z-0.15000
G04 P0 ( dwell for no time -- G64 should not smooth over this point )
G01 F120.00000
G01 X0.62700 Y-0.62700
G01 X84.44700 Y-0.62700
G01 X84.44700 Y-42.53700
G01 X0.62700 Y-42.53700
G01 X0.62700 Y-0.62700
G01 X0.63607 Y-0.98768
G01 X0.64067 Y-0.93990
G01 X0.64829 Y-0.90076
G01 X0.65707 Y-0.86782
G01 X0.67026 Y-0.83637
G01 X0.68760 Y-0.80698
G01 X0.70993 Y-0.77450
G01 X0.73924 Y-0.73924
G01 X0.77450 Y-0.70993
G01 X0.80698 Y-0.68760
G01 X0.83637 Y-0.67026
G01 X0.86782 Y-0.65707
G01 X0.90076 Y-0.64829
G01 X0.93990 Y-0.64067
G01 X0.98768 Y-0.63607
G01 X84.08632 Y-0.63607
G01 X84.13415 Y-0.64069
G01 X84.17324 Y-0.64831
G01 X84.20616 Y-0.65710
G01 X84.23758 Y-0.67028
G01 X84.26691 Y-0.68760
G01 X84.29943 Y-0.70993
G01 X84.33460 Y-0.73914
G01 X84.36384 Y-0.77427
G01 X84.38622 Y-0.80678
G01 X84.40364 Y-0.83619
G01 X84.41688 Y-0.86772
G01 X84.42569 Y-0.90076
G01 X84.43331 Y-0.93990
G01 X84.43791 Y-0.98768
G01 X84.43791 Y-42.17632
G01 X84.43328 Y-42.22415
G01 X84.42566 Y-42.26324
G01 X84.41685 Y-42.29623
G01 X84.40362 Y-42.32773
G01 X84.38622 Y-42.35714
G01 X84.36384 Y-42.38965
G01 X84.33468 Y-42.42468
G01 X84.29965 Y-42.45384
G01 X84.26714 Y-42.47622
G01 X84.23773 Y-42.49362
G01 X84.20623 Y-42.50685
G01 X84.17324 Y-42.51566
G01 X84.13415 Y-42.52328
G01 X84.08632 Y-42.52791
G01 X0.98768 Y-42.52791
G01 X0.93990 Y-42.52331
G01 X0.90076 Y-42.51569
G01 X0.86772 Y-42.50688
G01 X0.83619 Y-42.49364
G01 X0.80678 Y-42.47622
G01 X0.77427 Y-42.45384
G01 X0.73914 Y-42.42460
G01 X0.70993 Y-42.38943
G01 X0.68760 Y-42.35691
G01 X0.67028 Y-42.32758
G01 X0.65710 Y-42.29616
G01 X0.64831 Y-42.26324
G01 X0.64069 Y-42.22415
G01 X0.63607 Y-42.17632
G01 X0.63607 Y-0.98768
G04 P0 ( dwell for no time -- G64 should not smooth over this point )
G00 Z5.00000 ( retract )

G00 X1.69713 Y-3.80197 ( rapid move to begin. )
G01 F60.00000
( Mill infeed pass 1/1 )
G01 Z-0.15000
G04 P0 ( dwell for no time -- G64 should not smooth over this point )
G01 F120.00000
G01 X1.69713 Y-3.80197
G01 X1.70576 Y-3.61320
G01 X1.73121 Y-3.42588
G01 X1.77297 Y-3.24211
G01 X1.83154 Y-3.06240
G01 X1.90561 Y-2.88874
G01 X1.99502 Y-2.72225
G01 X2.09880 Y-2.56494
G01 X2.21696 Y-2.41724
G01 X2.34732 Y-2.28051
G01 X2.48981 Y-2.15621
G01 X2.64231 Y-2.04541
G01 X2.80452 Y-1.94864
G01 X2.97480 Y-1.86644
G01 X3.15143 Y-1.80015
G01 X3.33340 Y-1.74981
G01 X3.51937 Y-1.71623
G01 X3.70749 Y-1.69941
G01 X3.89644 Y-1.69941
G01 X4.08455 Y-1.71623
G01 X4.27053 Y-1.74981
G01 X4.45249 Y-1.80015
G01 X4.62913 Y-1.86644
G01 X4.79941 Y-1.94864
G01 X4.96174 Y-2.04549
G01 X5.11465 Y-2.15623
G01 X5.25645 Y-2.28034
G01 X5.38696 Y-2.41724
G01 X5.50512 Y-2.56494
G01 X5.60891 Y-2.72217
G01 X5.69831 Y-2.88872
G01 X5.77246 Y-3.06243
G01 X5.83098 Y-3.24216
G01 X5.87271 Y-3.42598
G01 X5.89816 Y-3.61320
G01 X5.90680 Y-3.80197
G01 X5.89816 Y-3.99072
G01 X5.87271 Y-4.17795
G01 X5.83098 Y-4.36171
G01 X5.77246 Y-4.54150
G01 X5.69829 Y-4.71523
G01 X5.60891 Y-4.88178
G01 X5.50512 Y-5.03903
G01 X5.38696 Y-5.18673
G01 X5.25638 Y-5.32364
G01 X5.11460 Y-5.44779
G01 X4.96179 Y-5.55838
G01 X4.79941 Y-5.65529
G01 X4.62913 Y-5.73748
G01 X4.45254 Y-5.80375
G01 X4.27053 Y-5.85417
G01 X4.08463 Y-5.88770
G01 X3.89644 Y-5.90451
G01 X3.70749 Y-5.90451
G01 X3.51930 Y-5.88770
G01 X3.33340 Y-5.85417
G01 X3.15138 Y-5.80375
G01 X2.97480 Y-5.73748
G01 X2.80452 Y-5.65529
G01 X2.64229 Y-5.55849
G01 X2.48981 Y-5.44777
G01 X2.34737 Y-5.32346
G01 X2.21696 Y-5.18673
G01 X2.09885 Y-5.03911
G01 X1.99502 Y-4.88170
G01 X1.90561 Y-4.71518
G01 X1.83154 Y-4.54152
G01 X1.77297 Y-4.36177
G01 X1.73121 Y-4.17805
G01 X1.70576 Y-3.99072
G01 X1.69713 Y-3.80197
G01 X1.94714 Y-3.80197
G01 X1.95499 Y-3.63586
G01 X1.95443 Y-3.63578
G01 X1.95499 Y-3.63586
G01 X1.97744 Y-3.47056
G01 X2.01420 Y-3.30876
G01 X2.01323 Y-3.30843
G01 X2.01420 Y-3.30876
G01 X2.06581 Y-3.15036
G01 X2.13116 Y-2.99715
G01 X2.13025 Y-2.99672
G01 X2.13116 Y-2.99715
G01 X2.20995 Y-2.85039
G01 X2.30119 Y-2.71216
G01 X2.30035 Y-2.71158
G01 X2.30119 Y-2.71216
G01 X2.40546 Y-2.58183
G01 X2.52037 Y-2.46129
G01 X2.51966 Y-2.46058
G01 X2.52037 Y-2.46129
G01 X2.64574 Y-2.35194
G01 X2.78013 Y-2.25430
G01 X2.77960 Y-2.25346
G01 X2.78013 Y-2.25430
G01 X2.92313 Y-2.16898
G01 X3.07325 Y-2.09654
G01 X3.07299 Y-2.09601
G01 X3.07325 Y-2.09654
G01 X3.22887 Y-2.03812
G01 X3.22867 Y-2.03756
G01 X3.22887 Y-2.03812
G01 X3.38897 Y-1.99382
G01 X3.55288 Y-1.96423
G01 X3.55275 Y-1.96322
G01 X3.55288 Y-1.96423
G01 X3.71864 Y-1.94940
G01 X3.88529 Y-1.94940
G01 X3.88534 Y-1.94841
G01 X3.88529 Y-1.94940
G01 X4.05105 Y-1.96423
G01 X4.21493 Y-1.99382
G01 X4.21516 Y-1.99283
G01 X4.21493 Y-1.99382
G01 X4.37505 Y-2.03812
G01 X4.53068 Y-2.09654
G01 X4.53108 Y-2.09560
G01 X4.53068 Y-2.09654
G01 X4.68079 Y-2.16898
G01 X4.82412 Y-2.25450
G01 X4.82465 Y-2.25367
G01 X4.82412 Y-2.25450
G01 X4.95864 Y-2.35191
G01 X5.08330 Y-2.46103
G01 X5.08399 Y-2.46030
G01 X5.08330 Y-2.46103
G01 X5.19852 Y-2.58189
G01 X5.30278 Y-2.71221
G01 X5.30360 Y-2.71163
G01 X5.30278 Y-2.71221
G01 X5.39407 Y-2.85049
G01 X5.47276 Y-2.99715
G01 X5.47368 Y-2.99672
G01 X5.47276 Y-2.99715
G01 X5.53814 Y-3.15031
G01 X5.58968 Y-3.30861
G01 X5.59067 Y-3.30833
G01 X5.58968 Y-3.30861
G01 X5.62648 Y-3.47058
G01 X5.64894 Y-3.63578
G01 X5.64949 Y-3.63571
G01 X5.64894 Y-3.63578
G01 X5.65653 Y-3.80197
G01 X5.65678 Y-3.80197
G01 X5.65653 Y-3.80197
G01 X5.64894 Y-3.96814
G01 X5.64949 Y-3.96822
G01 X5.64894 Y-3.96814
G01 X5.62648 Y-4.13334
G01 X5.58968 Y-4.29532
G01 X5.59067 Y-4.29560
G01 X5.58968 Y-4.29532
G01 X5.53814 Y-4.45364
G01 X5.47276 Y-4.60680
G01 X5.47365 Y-4.60723
G01 X5.47276 Y-4.60680
G01 X5.39402 Y-4.75351
G01 X5.30276 Y-4.89179
G01 X5.30357 Y-4.89240
G01 X5.30276 Y-4.89179
G01 X5.19852 Y-5.02206
G01 X5.08328 Y-5.14294
G01 X5.08396 Y-5.14365
G01 X5.08328 Y-5.14294
G01 X4.95867 Y-5.25201
G01 X4.82417 Y-5.34939
G01 X4.82473 Y-5.35023
G01 X4.82417 Y-5.34939
G01 X4.68079 Y-5.43494
G01 X4.53060 Y-5.50743
G01 X4.53085 Y-5.50794
G01 X4.53060 Y-5.50743
G01 X4.37505 Y-5.56580
G01 X4.37523 Y-5.56633
G01 X4.37505 Y-5.56580
G01 X4.21485 Y-5.61018
G01 X4.05115 Y-5.63969
G01 X4.05128 Y-5.64071
G01 X4.05115 Y-5.63969
G01 X3.88529 Y-5.65452
G01 X3.71864 Y-5.65452
G01 X3.71859 Y-5.65551
G01 X3.71864 Y-5.65452
G01 X3.55278 Y-5.63969
G01 X3.38907 Y-5.61018
G01 X3.38884 Y-5.61117
G01 X3.38907 Y-5.61018
G01 X3.22887 Y-5.56580
G01 X3.07332 Y-5.50743
G01 X3.07292 Y-5.50835
G01 X3.07332 Y-5.50743
G01 X2.92313 Y-5.43494
G01 X2.78013 Y-5.34962
G01 X2.77957 Y-5.35046
G01 X2.78013 Y-5.34962
G01 X2.64577 Y-5.25206
G01 X2.52032 Y-5.14259
G01 X2.51963 Y-5.14332
G01 X2.52032 Y-5.14259
G01 X2.40541 Y-5.02206
G01 X2.30122 Y-4.89184
G01 X2.30038 Y-4.89245
G01 X2.30122 Y-4.89184
G01 X2.20995 Y-4.75353
G01 X2.13119 Y-4.60680
G01 X2.13027 Y-4.60723
G01 X2.13119 Y-4.60680
G01 X2.06583 Y-4.45359
G01 X2.01420 Y-4.29517
G01 X2.01323 Y-4.29545
G01 X2.01420 Y-4.29517
G01 X1.97744 Y-4.13337
G01 X1.95499 Y-3.96807
G01 X1.95443 Y-3.96814
G01 X1.95499 Y-3.96807
G01 X1.94714 Y-3.80197
G01 X2.19708 Y-3.80197
G01 X2.19766 Y-3.80197
G01 X2.20421 Y-3.94548
G01 X2.20365 Y-3.94554
G01 X2.20421 Y-3.94548
G01 X2.22367 Y-4.08872
G01 X2.25544 Y-4.22862
G01 X2.25448 Y-4.22890
G01 X2.25544 Y-4.22862
G01 X2.30012 Y-4.36568
G01 X2.35671 Y-4.49837
G01 X2.35583 Y-4.49880
G01 X2.35671 Y-4.49837
G01 X2.42489 Y-4.62532
G01 X2.50358 Y-4.74459
G01 X2.50274 Y-4.74520
G01 X2.50358 Y-4.74459
G01 X2.59380 Y-4.85737
G01 X2.69337 Y-4.96179
G01 X2.69265 Y-4.96253
G01 X2.69337 Y-4.96179
G01 X2.80172 Y-5.05633
G01 X2.91785 Y-5.14068
G01 X2.91729 Y-5.14152
G01 X2.91785 Y-5.14068
G01 X3.04170 Y-5.21457
G01 X3.17175 Y-5.27733
G01 X3.17152 Y-5.27787
G01 X3.17175 Y-5.27733
G01 X3.30627 Y-5.32785
G01 X3.30617 Y-5.32839
G01 X3.30627 Y-5.32785
G01 X3.44467 Y-5.36616
G01 X3.58615 Y-5.39168
G01 X3.58602 Y-5.39267
G01 X3.58615 Y-5.39168
G01 X3.72974 Y-5.40451
G01 X3.87419 Y-5.40451
G01 X3.87421 Y-5.40550
G01 X3.87419 Y-5.40451
G01 X4.01777 Y-5.39168
G01 X4.15925 Y-5.36616
G01 X4.15948 Y-5.36715
G01 X4.15925 Y-5.36616
G01 X4.29760 Y-5.32785
G01 X4.43217 Y-5.27733
G01 X4.43238 Y-5.27787
G01 X4.43217 Y-5.27733
G01 X4.56222 Y-5.21457
G01 X4.56250 Y-5.21505
G01 X4.56222 Y-5.21457
G01 X4.68653 Y-5.14038
G01 X4.80266 Y-5.05633
G01 X4.80332 Y-5.05717
G01 X4.80266 Y-5.05633
G01 X4.91015 Y-4.96222
G01 X5.01013 Y-4.85737
G01 X5.01086 Y-4.85803
G01 X5.01013 Y-4.85737
G01 X5.10037 Y-4.74459
G01 X5.17914 Y-4.62524
G01 X5.17962 Y-4.62554
G01 X5.17914 Y-4.62524
G01 X5.24718 Y-4.49842
G01 X5.24769 Y-4.49865
G01 X5.24718 Y-4.49842
G01 X5.30385 Y-4.36565
G01 X5.34845 Y-4.22875
G01 X5.34942 Y-4.22902
G01 X5.34845 Y-4.22875
G01 X5.38025 Y-4.08872
G01 X5.39971 Y-3.94548
G01 X5.40073 Y-3.94556
G01 X5.39971 Y-3.94548
G01 X5.40626 Y-3.80197
G01 X5.39971 Y-3.65844
G01 X5.40073 Y-3.65836
G01 X5.39971 Y-3.65844
G01 X5.38025 Y-3.51521
G01 X5.34845 Y-3.37518
G01 X5.34942 Y-3.37490
G01 X5.34845 Y-3.37518
G01 X5.30385 Y-3.23827
G01 X5.24718 Y-3.10551
G01 X5.24769 Y-3.10528
G01 X5.24718 Y-3.10551
G01 X5.17914 Y-2.97871
G01 X5.17965 Y-2.97838
G01 X5.17914 Y-2.97871
G01 X5.10042 Y-2.85946
G01 X5.01007 Y-2.74653
G01 X5.01081 Y-2.74587
G01 X5.01007 Y-2.74653
G01 X4.91015 Y-2.64170
G01 X4.80268 Y-2.54765
G01 X4.80306 Y-2.54719
G01 X4.80268 Y-2.54765
G01 X4.68653 Y-2.46352
G01 X4.68681 Y-2.46306
G01 X4.68653 Y-2.46352
G01 X4.56222 Y-2.38935
G01 X4.43217 Y-2.32659
G01 X4.43258 Y-2.32565
G01 X4.43217 Y-2.32659
G01 X4.29766 Y-2.27610
G01 X4.15920 Y-2.23779
G01 X4.15943 Y-2.23680
G01 X4.15920 Y-2.23779
G01 X4.01772 Y-2.21224
G01 X3.87419 Y-2.19941
G01 X3.87421 Y-2.19842
G01 X3.87419 Y-2.19941
G01 X3.72974 Y-2.19941
G01 X3.58620 Y-2.21224
G01 X3.58607 Y-2.21125
G01 X3.58620 Y-2.21224
G01 X3.44472 Y-2.23779
G01 X3.30622 Y-2.27610
G01 X3.30594 Y-2.27513
G01 X3.30622 Y-2.27610
G01 X3.17175 Y-2.32659
G01 X3.04170 Y-2.38935
G01 X3.04122 Y-2.38849
G01 X3.04170 Y-2.38935
G01 X2.91788 Y-2.46324
G01 X2.80175 Y-2.54760
G01 X2.80111 Y-2.54681
G01 X2.80175 Y-2.54760
G01 X2.69332 Y-2.64219
G01 X2.59385 Y-2.74653
G01 X2.59311 Y-2.74587
G01 X2.59385 Y-2.74653
G01 X2.50355 Y-2.85938
G01 X2.42484 Y-2.97871
G01 X2.42395 Y-2.97818
G01 X2.42484 Y-2.97871
G01 X2.35671 Y-3.10556
G01 X2.30012 Y-3.23825
G01 X2.29918 Y-3.23784
G01 X2.30012 Y-3.23825
G01 X2.25544 Y-3.37531
G01 X2.22367 Y-3.51521
G01 X2.22268 Y-3.51503
G01 X2.22367 Y-3.51521
G01 X2.20421 Y-3.65844
G01 X2.19766 Y-3.80197
G04 P0 ( dwell for no time -- G64 should not smooth over this point )
G00 Z5.00000 ( retract )

G00 X2.71313 Y-12.69197 ( rapid move to begin. )
G01 F60.00000
( Mill infeed pass 1/1 )
G01 Z-0.15000
G04 P0 ( dwell for no time -- G64 should not smooth over this point )
G01 F120.00000
G01 X2.71313 Y-12.69197
G01 X2.72176 Y-12.50320
G01 X2.74721 Y-12.31598
G01 X2.78897 Y-12.13216
G01 X2.84754 Y-11.95238
G01 X2.92159 Y-11.77882
G01 X3.01104 Y-11.61217
G01 X3.11483 Y-11.45489
G01 X3.23289 Y-11.30729
G01 X3.36332 Y-11.17051
G01 X3.50581 Y-11.04621
G01 X3.65831 Y-10.93541
G01 X3.82054 Y-10.83861
G01 X3.99080 Y-10.75644
G01 X4.16740 Y-10.69018
G01 X4.34940 Y-10.63981
G01 X4.53535 Y-10.60623
G01 X4.72349 Y-10.58941
G01 X4.91244 Y-10.58941
G01 X5.10058 Y-10.60623
G01 X5.28653 Y-10.63981
G01 X5.46849 Y-10.69015
G01 X5.64513 Y-10.75644
G01 X5.81538 Y-10.83861
G01 X5.97779 Y-10.93551
G01 X6.13065 Y-11.04623
G01 X6.27245 Y-11.17034
G01 X6.40296 Y-11.30724
G01 X6.52112 Y-11.45494
G01 X6.62488 Y-11.61217
G01 X6.71434 Y-11.77879
G01 X6.78841 Y-11.95235
G01 X6.84695 Y-12.13213
G01 X6.88871 Y-12.31598
G01 X6.91416 Y-12.50320
G01 X6.92280 Y-12.69197
G01 X6.91416 Y-12.88072
G01 X6.88871 Y-13.06792
G01 X6.84695 Y-13.25179
G01 X6.78841 Y-13.43157
G01 X6.71431 Y-13.60516
G01 X6.62488 Y-13.77178
G01 X6.52112 Y-13.92903
G01 X6.40296 Y-14.07673
G01 X6.27243 Y-14.21361
G01 X6.13060 Y-14.33779
G01 X5.97779 Y-14.44838
G01 X5.81538 Y-14.54531
G01 X5.64513 Y-14.62748
G01 X5.46854 Y-14.69375
G01 X5.28650 Y-14.74417
G01 X5.10063 Y-14.77770
G01 X4.91244 Y-14.79451
G01 X4.72349 Y-14.79451
G01 X4.53530 Y-14.77770
G01 X4.34942 Y-14.74417
G01 X4.16738 Y-14.69375
G01 X3.99080 Y-14.62748
G01 X3.82054 Y-14.54531
G01 X3.65826 Y-14.44846
G01 X3.50581 Y-14.33777
G01 X3.36337 Y-14.21346
G01 X3.23291 Y-14.07673
G01 X3.11485 Y-13.92911
G01 X3.01107 Y-13.77178
G01 X2.92159 Y-13.60510
G01 X2.84754 Y-13.43155
G01 X2.78897 Y-13.25177
G01 X2.74721 Y-13.06792
G01 X2.72176 Y-12.88072
G01 X2.71313 Y-12.69197
G01 X2.96281 Y-12.69197
G01 X2.96339 Y-12.69197
G01 X2.97099 Y-12.52576
G01 X2.99344 Y-12.36058
G01 X2.99245 Y-12.36040
G01 X2.99344 Y-12.36058
G01 X3.03020 Y-12.19876
G01 X3.08181 Y-12.04036
G01 X3.08087 Y-12.04001
G01 X3.08181 Y-12.04036
G01 X3.14714 Y-11.88723
G01 X3.22588 Y-11.74044
G01 X3.22542 Y-11.74016
G01 X3.22588 Y-11.74044
G01 X3.31719 Y-11.60216
G01 X3.31673 Y-11.60181
G01 X3.31719 Y-11.60216
G01 X3.42138 Y-11.47191
G01 X3.53634 Y-11.35134
G01 X3.53563 Y-11.35060
G01 X3.53634 Y-11.35134
G01 X3.66177 Y-11.24191
G01 X3.79613 Y-11.14430
G01 X3.79560 Y-11.14346
G01 X3.79613 Y-11.14430
G01 X3.93906 Y-11.05903
G01 X4.08935 Y-10.98649
G01 X4.08894 Y-10.98555
G01 X4.08935 Y-10.98649
G01 X4.24485 Y-10.92812
G01 X4.40507 Y-10.88380
G01 X4.40484 Y-10.88281
G01 X4.40507 Y-10.88380
G01 X4.56878 Y-10.85423
G01 X4.73464 Y-10.83940
G01 X4.73459 Y-10.83841
G01 X4.73464 Y-10.83940
G01 X4.90129 Y-10.83940
G01 X5.06712 Y-10.85423
G01 X5.06720 Y-10.85367
G01 X5.06712 Y-10.85423
G01 X5.23085 Y-10.88380
G01 X5.23100 Y-10.88324
G01 X5.23085 Y-10.88380
G01 X5.39107 Y-10.92812
G01 X5.54657 Y-10.98649
G01 X5.54698 Y-10.98555
G01 X5.54657 Y-10.98649
G01 X5.69687 Y-11.05903
G01 X5.84010 Y-11.14450
G01 X5.84065 Y-11.14367
G01 X5.84010 Y-11.14450
G01 X5.97469 Y-11.24196
G01 X6.09933 Y-11.35106
G01 X6.10001 Y-11.35032
G01 X6.09933 Y-11.35106
G01 X6.21454 Y-11.47191
G01 X6.31876 Y-11.60216
G01 X6.31957 Y-11.60158
G01 X6.31876 Y-11.60216
G01 X6.41002 Y-11.74041
G01 X6.48876 Y-11.88723
G01 X6.48970 Y-11.88679
G01 X6.48876 Y-11.88723
G01 X6.55414 Y-12.04031
G01 X6.60570 Y-12.19868
G01 X6.60669 Y-12.19840
G01 X6.60570 Y-12.19868
G01 X6.64243 Y-12.36050
G01 X6.66494 Y-12.52578
G01 X6.66549 Y-12.52571
G01 X6.66494 Y-12.52578
G01 X6.67253 Y-12.69197
G01 X6.67311 Y-12.69200
G01 X6.67253 Y-12.69197
G01 X6.66494 Y-12.85814
G01 X6.64243 Y-13.02344
G01 X6.64345 Y-13.02360
G01 X6.64243 Y-13.02344
G01 X6.60570 Y-13.18522
G01 X6.55412 Y-13.34364
G01 X6.55506 Y-13.34399
G01 X6.55412 Y-13.34364
G01 X6.48876 Y-13.49672
G01 X6.41002 Y-13.64351
G01 X6.41050 Y-13.64379
G01 X6.41002 Y-13.64351
G01 X6.31873 Y-13.78184
G01 X6.31917 Y-13.78219
G01 X6.31873 Y-13.78184
G01 X6.21452 Y-13.91206
G01 X6.09925 Y-14.03294
G01 X6.09996 Y-14.03368
G01 X6.09925 Y-14.03294
G01 X5.97461 Y-14.14206
G01 X5.84020 Y-14.23937
G01 X5.84073 Y-14.24021
G01 X5.84020 Y-14.23937
G01 X5.69679 Y-14.32494
G01 X5.54657 Y-14.39743
G01 X5.54698 Y-14.39837
G01 X5.54657 Y-14.39743
G01 X5.39107 Y-14.45580
G01 X5.23093 Y-14.50015
G01 X5.23116 Y-14.50114
G01 X5.23093 Y-14.50015
G01 X5.06715 Y-14.52969
G01 X4.90129 Y-14.54452
G01 X4.90134 Y-14.54551
G01 X4.90129 Y-14.54452
G01 X4.73464 Y-14.54452
G01 X4.56878 Y-14.52969
G01 X4.56870 Y-14.53025
G01 X4.56878 Y-14.52969
G01 X4.40500 Y-14.50015
G01 X4.40487 Y-14.50071
G01 X4.40500 Y-14.50015
G01 X4.24485 Y-14.45580
G01 X4.08935 Y-14.39743
G01 X4.08894 Y-14.39835
G01 X4.08935 Y-14.39743
G01 X3.93913 Y-14.32494
G01 X3.79613 Y-14.23962
G01 X3.79557 Y-14.24046
G01 X3.79613 Y-14.23962
G01 X3.66172 Y-14.14204
G01 X3.53632 Y-14.03259
G01 X3.53563 Y-14.03332
G01 X3.53632 Y-14.03259
G01 X3.42141 Y-13.91206
G01 X3.31722 Y-13.78184
G01 X3.31638 Y-13.78245
G01 X3.31722 Y-13.78184
G01 X3.22593 Y-13.64353
G01 X3.14714 Y-13.49672
G01 X3.14625 Y-13.49715
G01 X3.14714 Y-13.49672
G01 X3.08183 Y-13.34359
G01 X3.03020 Y-13.18517
G01 X3.02923 Y-13.18545
G01 X3.03020 Y-13.18517
G01 X2.99344 Y-13.02337
G01 X2.97099 Y-12.85817
G01 X2.97043 Y-12.85822
G01 X2.97099 Y-12.85817
G01 X2.96339 Y-12.69197
G01 X3.21308 Y-12.69200
G01 X3.21366 Y-12.69197
G01 X3.22021 Y-12.54836
G01 X3.21960 Y-12.54831
G01 X3.22021 Y-12.54836
G01 X3.23967 Y-12.40521
G01 X3.27144 Y-12.26531
G01 X3.27048 Y-12.26503
G01 X3.27144 Y-12.26531
G01 X3.31607 Y-12.12830
G01 X3.37271 Y-11.99556
G01 X3.37180 Y-11.99513
G01 X3.37271 Y-11.99556
G01 X3.44084 Y-11.86871
G01 X3.51958 Y-11.74938
G01 X3.51874 Y-11.74877
G01 X3.51958 Y-11.74938
G01 X3.60982 Y-11.63655
G01 X3.70937 Y-11.53216
G01 X3.70866 Y-11.53142
G01 X3.70937 Y-11.53216
G01 X3.81770 Y-11.43765
G01 X3.93395 Y-11.35319
G01 X3.93339 Y-11.35235
G01 X3.93395 Y-11.35319
G01 X4.05775 Y-11.27933
G01 X4.18778 Y-11.21656
G01 X4.18739 Y-11.21565
G01 X4.18778 Y-11.21656
G01 X4.32227 Y-11.16610
G01 X4.46072 Y-11.12779
G01 X4.46049 Y-11.12680
G01 X4.46072 Y-11.12779
G01 X4.60220 Y-11.10224
G01 X4.74576 Y-11.08941
G01 X4.74571 Y-11.08842
G01 X4.74576 Y-11.08941
G01 X4.89016 Y-11.08941
G01 X5.03372 Y-11.10224
G01 X5.03377 Y-11.10168
G01 X5.03372 Y-11.10224
G01 X5.17520 Y-11.12779
G01 X5.17535 Y-11.12723
G01 X5.17520 Y-11.12779
G01 X5.31368 Y-11.16610
G01 X5.44810 Y-11.21656
G01 X5.44850 Y-11.21562
G01 X5.44810 Y-11.21656
G01 X5.57817 Y-11.27933
G01 X5.70248 Y-11.35350
G01 X5.70304 Y-11.35266
G01 X5.70248 Y-11.35350
G01 X5.81863 Y-11.43762
G01 X5.92610 Y-11.53168
G01 X5.92681 Y-11.53094
G01 X5.92610 Y-11.53168
G01 X6.02607 Y-11.63653
G01 X6.11645 Y-11.74951
G01 X6.11691 Y-11.74915
G01 X6.11645 Y-11.74951
G01 X6.19511 Y-11.86866
G01 X6.19562 Y-11.86838
G01 X6.19511 Y-11.86866
G01 X6.26321 Y-11.99553
G01 X6.31988 Y-12.12830
G01 X6.32082 Y-12.12797
G01 X6.31988 Y-12.12830
G01 X6.36445 Y-12.26520
G01 X6.39623 Y-12.40511
G01 X6.39722 Y-12.40493
G01 X6.39623 Y-12.40511
G01 X6.41571 Y-12.54836
G01 X6.42226 Y-12.69197
G01 X6.42285 Y-12.69197
G01 X6.42226 Y-12.69197
G01 X6.41571 Y-12.83556
G01 X6.41624 Y-12.83561
G01 X6.41571 Y-12.83556
G01 X6.39623 Y-12.97879
G01 X6.36445 Y-13.11872
G01 X6.36539 Y-13.11900
G01 X6.36445 Y-13.11872
G01 X6.31988 Y-13.25560
G01 X6.26318 Y-13.38842
G01 X6.26410 Y-13.38885
G01 X6.26318 Y-13.38842
G01 X6.19511 Y-13.51526
G01 X6.11640 Y-13.63454
G01 X6.11724 Y-13.63513
G01 X6.11640 Y-13.63454
G01 X6.02607 Y-13.74742
G01 X5.92610 Y-13.85227
G01 X5.92681 Y-13.85301
G01 X5.92610 Y-13.85227
G01 X5.81871 Y-13.94630
G01 X5.70261 Y-14.03035
G01 X5.70314 Y-14.03119
G01 X5.70261 Y-14.03035
G01 X5.57822 Y-14.10457
G01 X5.44810 Y-14.16736
G01 X5.44848 Y-14.16830
G01 X5.44810 Y-14.16736
G01 X5.31363 Y-14.21783
G01 X5.17528 Y-14.25616
G01 X5.17551 Y-14.25715
G01 X5.17528 Y-14.25616
G01 X5.03375 Y-14.28168
G01 X4.89026 Y-14.29451
G01 X4.89029 Y-14.29507
G01 X4.89026 Y-14.29451
G01 X4.74566 Y-14.29451
G01 X4.74564 Y-14.29507
G01 X4.74566 Y-14.29451
G01 X4.60215 Y-14.28168
G01 X4.46067 Y-14.25616
G01 X4.46044 Y-14.25715
G01 X4.46067 Y-14.25616
G01 X4.32229 Y-14.21783
G01 X4.18780 Y-14.16736
G01 X4.18739 Y-14.16827
G01 X4.18780 Y-14.16736
G01 X4.05770 Y-14.10457
G01 X3.93383 Y-14.03066
G01 X3.93329 Y-14.03149
G01 X3.93383 Y-14.03066
G01 X3.81767 Y-13.94630
G01 X3.70934 Y-13.85176
G01 X3.70866 Y-13.85250
G01 X3.70934 Y-13.85176
G01 X3.60985 Y-13.74742
G01 X3.51958 Y-13.63459
G01 X3.51912 Y-13.63495
G01 X3.51958 Y-13.63459
G01 X3.44089 Y-13.51532
G01 X3.44038 Y-13.51559
G01 X3.44089 Y-13.51532
G01 X3.37271 Y-13.38834
G01 X3.31607 Y-13.25560
G01 X3.31516 Y-13.25596
G01 X3.31607 Y-13.25560
G01 X3.27144 Y-13.11862
G01 X3.23967 Y-12.97869
G01 X3.23863 Y-12.97889
G01 X3.23967 Y-12.97869
G01 X3.22021 Y-12.83556
G01 X3.21366 Y-12.69197
G04 P0 ( dwell for no time -- G64 should not smooth over this point )
G00 Z5.00000 ( retract )

G00 X2.71313 Y-30.47197 ( rapid move to begin. )
G01 F60.00000
( Mill infeed pass 1/1 )
G01 Z-0.15000
G04 P0 ( dwell for no time -- G64 should not smooth over this point )
G01 F120.00000
G01 X2.71313 Y-30.47197
G01 X2.72176 Y-30.28320
G01 X2.74721 Y-30.09598
G01 X2.78897 Y-29.91216
G01 X2.84754 Y-29.73238
G01 X2.92159 Y-29.55882
G01 X3.01104 Y-29.39217
G01 X3.11483 Y-29.23489
G01 X3.23289 Y-29.08729
G01 X3.36332 Y-28.95051
G01 X3.50581 Y-28.82621
G01 X3.65831 Y-28.71541
G01 X3.82054 Y-28.61861
G01 X3.99080 Y-28.53644
G01 X4.16740 Y-28.47018
G01 X4.34940 Y-28.41981
G01 X4.53535 Y-28.38623
G01 X4.72349 Y-28.36941
G01 X4.91244 Y-28.36941
G01 X5.10058 Y-28.38623
G01 X5.28653 Y-28.41981
G01 X5.46849 Y-28.47015
G01 X5.64513 Y-28.53644
G01 X5.81538 Y-28.61861
G01 X5.97779 Y-28.71551
G01 X6.13065 Y-28.82623
G01 X6.27245 Y-28.95034
G01 X6.40296 Y-29.08724
G01 X6.52112 Y-29.23494
G01 X6.62488 Y-29.39217
G01 X6.71434 Y-29.55879
G01 X6.78841 Y-29.73235
G01 X6.84695 Y-29.91213
G01 X6.88871 Y-30.09598
G01 X6.91416 Y-30.28320
G01 X6.92280 Y-30.47197
G01 X6.91416 Y-30.66072
G01 X6.88871 Y-30.84795
G01 X6.84695 Y-31.03179
G01 X6.78841 Y-31.21157
G01 X6.71431 Y-31.38516
G01 X6.62488 Y-31.55178
G01 X6.52112 Y-31.70903
G01 X6.40296 Y-31.85673
G01 X6.27243 Y-31.99361
G01 X6.13060 Y-32.11779
G01 X5.97779 Y-32.22838
G01 X5.81538 Y-32.32531
G01 X5.64513 Y-32.40748
G01 X5.46854 Y-32.47375
G01 X5.28655 Y-32.52412
G01 X5.10055 Y-32.55770
G01 X4.91244 Y-32.57451
G01 X4.72349 Y-32.57451
G01 X4.53537 Y-32.55770
G01 X4.34934 Y-32.52412
G01 X4.16735 Y-32.47375
G01 X3.99080 Y-32.40748
G01 X3.82054 Y-32.32531
G01 X3.65826 Y-32.22846
G01 X3.50581 Y-32.11777
G01 X3.36337 Y-31.99346
G01 X3.23291 Y-31.85673
G01 X3.11485 Y-31.70911
G01 X3.01107 Y-31.55178
G01 X2.92159 Y-31.38510
G01 X2.84754 Y-31.21155
G01 X2.78897 Y-31.03177
G01 X2.74721 Y-30.84795
G01 X2.72176 Y-30.66072
G01 X2.71313 Y-30.47197
G01 X2.96281 Y-30.47197
G01 X2.96339 Y-30.47197
G01 X2.97099 Y-30.30576
G01 X2.99344 Y-30.14058
G01 X2.99245 Y-30.14040
G01 X2.99344 Y-30.14058
G01 X3.03020 Y-29.97876
G01 X3.08181 Y-29.82036
G01 X3.08087 Y-29.82001
G01 X3.08181 Y-29.82036
G01 X3.14714 Y-29.66723
G01 X3.22590 Y-29.52041
G01 X3.22545 Y-29.52013
G01 X3.22590 Y-29.52041
G01 X3.31719 Y-29.38216
G01 X3.31673 Y-29.38181
G01 X3.31719 Y-29.38216
G01 X3.42138 Y-29.25191
G01 X3.53634 Y-29.13134
G01 X3.53563 Y-29.13060
G01 X3.53634 Y-29.13134
G01 X3.66172 Y-29.02196
G01 X3.79608 Y-28.92433
G01 X3.79555 Y-28.92349
G01 X3.79608 Y-28.92433
G01 X3.93908 Y-28.83903
G01 X4.08935 Y-28.76649
G01 X4.08894 Y-28.76555
G01 X4.08935 Y-28.76649
G01 X4.24485 Y-28.70812
G01 X4.40507 Y-28.66380
G01 X4.40484 Y-28.66281
G01 X4.40507 Y-28.66380
G01 X4.56878 Y-28.63423
G01 X4.73464 Y-28.61940
G01 X4.73459 Y-28.61841
G01 X4.73464 Y-28.61940
G01 X4.90129 Y-28.61940
G01 X5.06712 Y-28.63423
G01 X5.06720 Y-28.63368
G01 X5.06712 Y-28.63423
G01 X5.23085 Y-28.66380
G01 X5.23100 Y-28.66324
G01 X5.23085 Y-28.66380
G01 X5.39107 Y-28.70812
G01 X5.54657 Y-28.76649
G01 X5.54698 Y-28.76555
G01 X5.54657 Y-28.76649
G01 X5.69684 Y-28.83901
G01 X5.84017 Y-28.92453
G01 X5.84073 Y-28.92369
G01 X5.84017 Y-28.92453
G01 X5.97464 Y-29.02191
G01 X6.09933 Y-29.13106
G01 X6.10004 Y-29.13032
G01 X6.09933 Y-29.13106
G01 X6.21454 Y-29.25191
G01 X6.31876 Y-29.38216
G01 X6.31957 Y-29.38158
G01 X6.31876 Y-29.38216
G01 X6.40997 Y-29.52039
G01 X6.48876 Y-29.66720
G01 X6.48968 Y-29.66677
G01 X6.48876 Y-29.66720
G01 X6.55414 Y-29.82029
G01 X6.60570 Y-29.97868
G01 X6.60669 Y-29.97843
G01 X6.60570 Y-29.97868
G01 X6.64243 Y-30.14050
G01 X6.66494 Y-30.30578
G01 X6.66549 Y-30.30571
G01 X6.66494 Y-30.30578
G01 X6.67253 Y-30.47197
G01 X6.67311 Y-30.47200
G01 X6.67253 Y-30.47197
G01 X6.66494 Y-30.63814
G01 X6.64243 Y-30.80344
G01 X6.64345 Y-30.80362
G01 X6.64243 Y-30.80344
G01 X6.60570 Y-30.96524
G01 X6.55412 Y-31.12364
G01 X6.55506 Y-31.12399
G01 X6.55412 Y-31.12364
G01 X6.48876 Y-31.27672
G01 X6.41002 Y-31.42351
G01 X6.41050 Y-31.42379
G01 X6.41002 Y-31.42351
G01 X6.31873 Y-31.56184
G01 X6.31917 Y-31.56219
G01 X6.31873 Y-31.56184
G01 X6.21452 Y-31.69206
G01 X6.09925 Y-31.81294
G01 X6.09996 Y-31.81368
G01 X6.09925 Y-31.81294
G01 X5.97461 Y-31.92206
G01 X5.84020 Y-32.01937
G01 X5.84073 Y-32.02021
G01 X5.84020 Y-32.01937
G01 X5.69679 Y-32.10494
G01 X5.54657 Y-32.17743
G01 X5.54698 Y-32.17837
G01 X5.54657 Y-32.17743
G01 X5.39110 Y-32.23578
G01 X5.23093 Y-32.28012
G01 X5.23116 Y-32.28111
G01 X5.23093 Y-32.28012
G01 X5.06717 Y-32.30969
G01 X4.90136 Y-32.32450
G01 X4.90141 Y-32.32551
G01 X4.90136 Y-32.32450
G01 X4.73456 Y-32.32450
G01 X4.56875 Y-32.30969
G01 X4.56870 Y-32.31025
G01 X4.56875 Y-32.30969
G01 X4.40500 Y-32.28012
G01 X4.40484 Y-32.28068
G01 X4.40500 Y-32.28012
G01 X4.24482 Y-32.23578
G01 X4.08935 Y-32.17743
G01 X4.08894 Y-32.17837
G01 X4.08935 Y-32.17743
G01 X3.93913 Y-32.10494
G01 X3.79606 Y-32.01957
G01 X3.79552 Y-32.02041
G01 X3.79606 Y-32.01957
G01 X3.66174 Y-31.92204
G01 X3.53632 Y-31.81259
G01 X3.53563 Y-31.81332
G01 X3.53632 Y-31.81259
G01 X3.42141 Y-31.69206
G01 X3.31722 Y-31.56184
G01 X3.31638 Y-31.56245
G01 X3.31722 Y-31.56184
G01 X3.22593 Y-31.42353
G01 X3.14714 Y-31.27672
G01 X3.14625 Y-31.27715
G01 X3.14714 Y-31.27672
G01 X3.08183 Y-31.12359
G01 X3.03020 Y-30.96517
G01 X3.02923 Y-30.96545
G01 X3.03020 Y-30.96517
G01 X2.99344 Y-30.80337
G01 X2.97099 Y-30.63817
G01 X2.97043 Y-30.63822
G01 X2.97099 Y-30.63817
G01 X2.96339 Y-30.47197
G01 X3.21308 Y-30.47200
G01 X3.21366 Y-30.47197
G01 X3.22021 Y-30.32836
G01 X3.21960 Y-30.32831
G01 X3.22021 Y-30.32836
G01 X3.23967 Y-30.18521
G01 X3.27144 Y-30.04528
G01 X3.27048 Y-30.04503
G01 X3.27144 Y-30.04528
G01 X3.31607 Y-29.90830
G01 X3.37271 Y-29.77558
G01 X3.37180 Y-29.77513
G01 X3.37271 Y-29.77558
G01 X3.44084 Y-29.64871
G01 X3.51958 Y-29.52938
G01 X3.51874 Y-29.52877
G01 X3.51958 Y-29.52938
G01 X3.60982 Y-29.41655
G01 X3.70937 Y-29.31216
G01 X3.70866 Y-29.31142
G01 X3.70937 Y-29.31216
G01 X3.81770 Y-29.21765
G01 X3.93390 Y-29.13322
G01 X3.93337 Y-29.13238
G01 X3.93390 Y-29.13322
G01 X4.05770 Y-29.05935
G01 X4.18772 Y-28.99659
G01 X4.18732 Y-28.99568
G01 X4.18772 Y-28.99659
G01 X4.32227 Y-28.94609
G01 X4.46072 Y-28.90779
G01 X4.46049 Y-28.90680
G01 X4.46072 Y-28.90779
G01 X4.60220 Y-28.88224
G01 X4.74574 Y-28.86941
G01 X4.74571 Y-28.86885
G01 X4.74574 Y-28.86941
G01 X4.89019 Y-28.86941
G01 X4.89021 Y-28.86885
G01 X4.89019 Y-28.86941
G01 X5.03372 Y-28.88224
G01 X5.17520 Y-28.90779
G01 X5.17543 Y-28.90680
G01 X5.17520 Y-28.90779
G01 X5.31368 Y-28.94609
G01 X5.44817 Y-28.99659
G01 X5.44858 Y-28.99565
G01 X5.44817 Y-28.99659
G01 X5.57822 Y-29.05935
G01 X5.70253 Y-29.13352
G01 X5.70309 Y-29.13268
G01 X5.70253 Y-29.13352
G01 X5.81868 Y-29.21765
G01 X5.92610 Y-29.31165
G01 X5.92681 Y-29.31094
G01 X5.92610 Y-29.31165
G01 X6.02607 Y-29.41653
G01 X6.11645 Y-29.52951
G01 X6.11691 Y-29.52915
G01 X6.11645 Y-29.52951
G01 X6.19511 Y-29.64866
G01 X6.19562 Y-29.64838
G01 X6.19511 Y-29.64866
G01 X6.26318 Y-29.77551
G01 X6.31988 Y-29.90832
G01 X6.32082 Y-29.90797
G01 X6.31988 Y-29.90832
G01 X6.36445 Y-30.04518
G01 X6.39623 Y-30.18513
G01 X6.39722 Y-30.18495
G01 X6.39623 Y-30.18513
G01 X6.41571 Y-30.32836
G01 X6.42226 Y-30.47197
G01 X6.42285 Y-30.47197
G01 X6.42226 Y-30.47197
G01 X6.41571 Y-30.61556
G01 X6.41624 Y-30.61564
G01 X6.41571 Y-30.61556
G01 X6.39623 Y-30.75879
G01 X6.36445 Y-30.89872
G01 X6.36539 Y-30.89900
G01 X6.36445 Y-30.89872
G01 X6.31988 Y-31.03560
G01 X6.26318 Y-31.16842
G01 X6.26410 Y-31.16885
G01 X6.26318 Y-31.16842
G01 X6.19511 Y-31.29526
G01 X6.11640 Y-31.41454
G01 X6.11724 Y-31.41513
G01 X6.11640 Y-31.41454
G01 X6.02613 Y-31.52737
G01 X5.92610 Y-31.63227
G01 X5.92651 Y-31.63265
G01 X5.92610 Y-31.63227
G01 X5.81866 Y-31.72633
G01 X5.81901 Y-31.72681
G01 X5.81866 Y-31.72633
G01 X5.70253 Y-31.81038
G01 X5.57822 Y-31.88457
G01 X5.57868 Y-31.88543
G01 X5.57822 Y-31.88457
G01 X5.44817 Y-31.94733
G01 X5.31360 Y-31.99785
G01 X5.31393 Y-31.99882
G01 X5.31360 Y-31.99785
G01 X5.17523 Y-32.03616
G01 X5.03375 Y-32.06168
G01 X5.03387 Y-32.06267
G01 X5.03375 Y-32.06168
G01 X4.89019 Y-32.07451
G01 X4.74574 Y-32.07451
G01 X4.74571 Y-32.07550
G01 X4.74574 Y-32.07451
G01 X4.60218 Y-32.06168
G01 X4.46070 Y-32.03613
G01 X4.46047 Y-32.03715
G01 X4.46070 Y-32.03613
G01 X4.32232 Y-31.99785
G01 X4.18772 Y-31.94733
G01 X4.18732 Y-31.94825
G01 X4.18772 Y-31.94733
G01 X4.05770 Y-31.88457
G01 X3.93390 Y-31.81071
G01 X3.93334 Y-31.81155
G01 X3.93390 Y-31.81071
G01 X3.81767 Y-31.72630
G01 X3.70939 Y-31.63181
G01 X3.70871 Y-31.63255
G01 X3.70939 Y-31.63181
G01 X3.60980 Y-31.52737
G01 X3.51958 Y-31.41459
G01 X3.51912 Y-31.41495
G01 X3.51958 Y-31.41459
G01 X3.44089 Y-31.29532
G01 X3.44038 Y-31.29559
G01 X3.44089 Y-31.29532
G01 X3.37271 Y-31.16837
G01 X3.31607 Y-31.03563
G01 X3.31516 Y-31.03596
G01 X3.31607 Y-31.03563
G01 X3.27144 Y-30.89862
G01 X3.23967 Y-30.75872
G01 X3.23863 Y-30.75889
G01 X3.23967 Y-30.75872
G01 X3.22021 Y-30.61556
G01 X3.21366 Y-30.47197
G04 P0 ( dwell for no time -- G64 should not smooth over this point )
G00 Z5.00000 ( retract )

G00 X1.69713 Y-39.36197 ( rapid move to begin. )
G01 F60.00000
( Mill infeed pass 1/1 )
G01 Z-0.15000
G04 P0 ( dwell for no time -- G64 should not smooth over this point )
G01 F120.00000
G01 X1.69713 Y-39.36197
G01 X1.70576 Y-39.17320
G01 X1.73121 Y-38.98588
G01 X1.77297 Y-38.80216
G01 X1.83154 Y-38.62240
G01 X1.90561 Y-38.44874
G01 X1.99502 Y-38.28225
G01 X2.09880 Y-38.12494
G01 X2.21696 Y-37.97724
G01 X2.34732 Y-37.84051
G01 X2.48981 Y-37.71621
G01 X2.64231 Y-37.60541
G01 X2.80452 Y-37.50864
G01 X2.97480 Y-37.42644
G01 X3.15143 Y-37.36015
G01 X3.33340 Y-37.30981
G01 X3.51937 Y-37.27623
G01 X3.70749 Y-37.25941
G01 X3.89644 Y-37.25941
G01 X4.08455 Y-37.27623
G01 X4.27053 Y-37.30981
G01 X4.45249 Y-37.36015
G01 X4.62913 Y-37.42644
G01 X4.79941 Y-37.50864
G01 X4.96174 Y-37.60549
G01 X5.11465 Y-37.71623
G01 X5.25645 Y-37.84034
G01 X5.38696 Y-37.97724
G01 X5.50512 Y-38.12494
G01 X5.60891 Y-38.28217
G01 X5.69831 Y-38.44872
G01 X5.77246 Y-38.62243
G01 X5.83098 Y-38.80221
G01 X5.87271 Y-38.98598
G01 X5.89816 Y-39.17320
G01 X5.90680 Y-39.36197
G01 X5.89816 Y-39.55072
G01 X5.87271 Y-39.73795
G01 X5.83098 Y-39.92171
G01 X5.77246 Y-40.10150
G01 X5.69829 Y-40.27523
G01 X5.60891 Y-40.44178
G01 X5.50510 Y-40.59903
G01 X5.38699 Y-40.74671
G01 X5.25638 Y-40.88364
G01 X5.11460 Y-41.00779
G01 X4.96179 Y-41.11838
G01 X4.79941 Y-41.21529
G01 X4.62913 Y-41.29748
G01 X4.45257 Y-41.36375
G01 X4.27055 Y-41.41412
G01 X4.08455 Y-41.44770
G01 X3.89644 Y-41.46451
G01 X3.70749 Y-41.46451
G01 X3.51937 Y-41.44770
G01 X3.33337 Y-41.41412
G01 X3.15135 Y-41.36375
G01 X2.97480 Y-41.29748
G01 X2.80452 Y-41.21529
G01 X2.64229 Y-41.11849
G01 X2.48981 Y-41.00777
G01 X2.34737 Y-40.88346
G01 X2.21694 Y-40.74671
G01 X2.09883 Y-40.59903
G01 X1.99502 Y-40.44170
G01 X1.90561 Y-40.27518
G01 X1.83154 Y-40.10152
G01 X1.77297 Y-39.92177
G01 X1.73121 Y-39.73805
G01 X1.70576 Y-39.55072
G01 X1.69713 Y-39.36197
G01 X1.94714 Y-39.36197
G01 X1.95499 Y-39.19586
G01 X1.95443 Y-39.19581
G01 X1.95499 Y-39.19586
G01 X1.97744 Y-39.03056
G01 X2.01420 Y-38.86876
G01 X2.01323 Y-38.86848
G01 X2.01420 Y-38.86876
G01 X2.06583 Y-38.71034
G01 X2.13119 Y-38.55712
G01 X2.13027 Y-38.55669
G01 X2.13119 Y-38.55712
G01 X2.20998 Y-38.41036
G01 X2.30119 Y-38.27216
G01 X2.30035 Y-38.27158
G01 X2.30119 Y-38.27216
G01 X2.40543 Y-38.14186
G01 X2.52034 Y-38.02134
G01 X2.51963 Y-38.02060
G01 X2.52034 Y-38.02134
G01 X2.64572 Y-37.91196
G01 X2.78008 Y-37.81433
G01 X2.77955 Y-37.81349
G01 X2.78008 Y-37.81433
G01 X2.92308 Y-37.72901
G01 X3.07332 Y-37.65649
G01 X3.07292 Y-37.65558
G01 X3.07332 Y-37.65649
G01 X3.22885 Y-37.59812
G01 X3.38905 Y-37.55380
G01 X3.38882 Y-37.55281
G01 X3.38905 Y-37.55380
G01 X3.55280 Y-37.52423
G01 X3.71856 Y-37.50943
G01 X3.71851 Y-37.50841
G01 X3.71856 Y-37.50943
G01 X3.88536 Y-37.50943
G01 X4.05112 Y-37.52423
G01 X4.05128 Y-37.52322
G01 X4.05112 Y-37.52423
G01 X4.21485 Y-37.55380
G01 X4.37507 Y-37.59812
G01 X4.37523 Y-37.59759
G01 X4.37507 Y-37.59812
G01 X4.53060 Y-37.65649
G01 X4.53085 Y-37.65598
G01 X4.53060 Y-37.65649
G01 X4.68084 Y-37.72901
G01 X4.82417 Y-37.81453
G01 X4.82473 Y-37.81369
G01 X4.82417 Y-37.81453
G01 X4.95859 Y-37.91189
G01 X5.08330 Y-38.02103
G01 X5.08399 Y-38.02030
G01 X5.08330 Y-38.02103
G01 X5.19854 Y-38.14191
G01 X5.30278 Y-38.27221
G01 X5.30360 Y-38.27163
G01 X5.30278 Y-38.27221
G01 X5.39405 Y-38.41044
G01 X5.47276 Y-38.55712
G01 X5.47365 Y-38.55669
G01 X5.47276 Y-38.55712
G01 X5.53814 Y-38.71031
G01 X5.58968 Y-38.86860
G01 X5.59067 Y-38.86833
G01 X5.58968 Y-38.86860
G01 X5.62648 Y-39.03058
G01 X5.64894 Y-39.19578
G01 X5.64949 Y-39.19571
G01 X5.64894 Y-39.19578
G01 X5.65653 Y-39.36197
G01 X5.65678 Y-39.36197
G01 X5.65653 Y-39.36197
G01 X5.64894 Y-39.52814
G01 X5.64949 Y-39.52822
G01 X5.64894 Y-39.52814
G01 X5.62648 Y-39.69334
G01 X5.58968 Y-39.85532
G01 X5.59067 Y-39.85560
G01 X5.58968 Y-39.85532
G01 X5.53814 Y-40.01364
G01 X5.47276 Y-40.16680
G01 X5.47365 Y-40.16723
G01 X5.47276 Y-40.16680
G01 X5.39402 Y-40.31348
G01 X5.30278 Y-40.45174
G01 X5.30360 Y-40.45232
G01 X5.30278 Y-40.45174
G01 X5.19852 Y-40.58209
G01 X5.08328 Y-40.70294
G01 X5.08396 Y-40.70365
G01 X5.08328 Y-40.70294
G01 X4.95861 Y-40.81206
G01 X4.82420 Y-40.90937
G01 X4.82473 Y-40.91021
G01 X4.82420 Y-40.90937
G01 X4.68079 Y-40.99494
G01 X4.53060 Y-41.06743
G01 X4.53101 Y-41.06835
G01 X4.53060 Y-41.06743
G01 X4.37507 Y-41.12580
G01 X4.21493 Y-41.17012
G01 X4.21516 Y-41.17111
G01 X4.21493 Y-41.17012
G01 X4.05117 Y-41.19969
G01 X3.88536 Y-41.21450
G01 X3.88541 Y-41.21551
G01 X3.88536 Y-41.21450
G01 X3.71856 Y-41.21450
G01 X3.55275 Y-41.19969
G01 X3.55262 Y-41.20068
G01 X3.55275 Y-41.19969
G01 X3.38900 Y-41.17012
G01 X3.22877 Y-41.12578
G01 X3.22865 Y-41.12633
G01 X3.22877 Y-41.12578
G01 X3.07332 Y-41.06743
G01 X3.07307 Y-41.06794
G01 X3.07332 Y-41.06743
G01 X2.92313 Y-40.99494
G01 X2.78006 Y-40.90957
G01 X2.77952 Y-40.91041
G01 X2.78006 Y-40.90957
G01 X2.64577 Y-40.81206
G01 X2.52032 Y-40.70259
G01 X2.51963 Y-40.70332
G01 X2.52032 Y-40.70259
G01 X2.40536 Y-40.58204
G01 X2.30119 Y-40.45179
G01 X2.30038 Y-40.45240
G01 X2.30119 Y-40.45179
G01 X2.20995 Y-40.31351
G01 X2.13119 Y-40.16680
G01 X2.13027 Y-40.16723
G01 X2.13119 Y-40.16680
G01 X2.06583 Y-40.01359
G01 X2.01420 Y-39.85517
G01 X2.01323 Y-39.85545
G01 X2.01420 Y-39.85517
G01 X1.97744 Y-39.69337
G01 X1.95499 Y-39.52807
G01 X1.95443 Y-39.52814
G01 X1.95499 Y-39.52807
G01 X1.94714 Y-39.36197
G01 X2.19708 Y-39.36200
G01 X2.19766 Y-39.36197
G01 X2.20421 Y-39.21844
G01 X2.20365 Y-39.21839
G01 X2.20421 Y-39.21844
G01 X2.22367 Y-39.07518
G01 X2.25544 Y-38.93531
G01 X2.25448 Y-38.93503
G01 X2.25544 Y-38.93531
G01 X2.30012 Y-38.79825
G01 X2.35671 Y-38.66556
G01 X2.35580 Y-38.66513
G01 X2.35671 Y-38.66556
G01 X2.42484 Y-38.53871
G01 X2.50355 Y-38.41938
G01 X2.50274 Y-38.41880
G01 X2.50355 Y-38.41938
G01 X2.59385 Y-38.30653
G01 X2.69332 Y-38.20219
G01 X2.69260 Y-38.20147
G01 X2.69332 Y-38.20219
G01 X2.80175 Y-38.10762
G01 X2.91793 Y-38.02322
G01 X2.91737 Y-38.02238
G01 X2.91793 Y-38.02322
G01 X3.04170 Y-37.94935
G01 X3.17175 Y-37.88659
G01 X3.17134 Y-37.88565
G01 X3.17175 Y-37.88659
G01 X3.30622 Y-37.83609
G01 X3.44472 Y-37.79779
G01 X3.44460 Y-37.79723
G01 X3.44472 Y-37.79779
G01 X3.58620 Y-37.77224
G01 X3.58615 Y-37.77168
G01 X3.58620 Y-37.77224
G01 X3.72974 Y-37.75941
G01 X3.87419 Y-37.75941
G01 X3.87421 Y-37.75842
G01 X3.87419 Y-37.75941
G01 X4.01772 Y-37.77224
G01 X4.15920 Y-37.79779
G01 X4.15943 Y-37.79680
G01 X4.15920 Y-37.79779
G01 X4.29766 Y-37.83609
G01 X4.43217 Y-37.88659
G01 X4.43258 Y-37.88565
G01 X4.43217 Y-37.88659
G01 X4.56222 Y-37.94935
G01 X4.68648 Y-38.02350
G01 X4.68676 Y-38.02301
G01 X4.68648 Y-38.02350
G01 X4.80268 Y-38.10765
G01 X4.80306 Y-38.10721
G01 X4.80268 Y-38.10765
G01 X4.91015 Y-38.20170
G01 X5.01007 Y-38.30653
G01 X5.01081 Y-38.30587
G01 X5.01007 Y-38.30653
G01 X5.10042 Y-38.41946
G01 X5.17911 Y-38.53866
G01 X5.17962 Y-38.53835
G01 X5.17911 Y-38.53866
G01 X5.24721 Y-38.66556
G01 X5.24772 Y-38.66533
G01 X5.24721 Y-38.66556
G01 X5.30385 Y-38.79825
G01 X5.34845 Y-38.93520
G01 X5.34942 Y-38.93495
G01 X5.34845 Y-38.93520
G01 X5.38025 Y-39.07518
G01 X5.39971 Y-39.21844
G01 X5.40073 Y-39.21836
G01 X5.39971 Y-39.21844
G01 X5.40626 Y-39.36197
G01 X5.39971 Y-39.50548
G01 X5.40073 Y-39.50556
G01 X5.39971 Y-39.50548
G01 X5.38025 Y-39.64872
G01 X5.34845 Y-39.78875
G01 X5.34942 Y-39.78902
G01 X5.34845 Y-39.78875
G01 X5.30385 Y-39.92568
G01 X5.24721 Y-40.05839
G01 X5.24810 Y-40.05882
G01 X5.24721 Y-40.05839
G01 X5.17909 Y-40.18529
G01 X5.10042 Y-40.30447
G01 X5.10126 Y-40.30508
G01 X5.10042 Y-40.30447
G01 X5.01010 Y-40.41742
G01 X4.91015 Y-40.52222
G01 X4.91084 Y-40.52296
G01 X4.91015 Y-40.52222
G01 X4.80266 Y-40.61633
G01 X4.68661 Y-40.70035
G01 X4.68714 Y-40.70119
G01 X4.68661 Y-40.70035
G01 X4.56222 Y-40.77457
G01 X4.43217 Y-40.83733
G01 X4.43258 Y-40.83827
G01 X4.43217 Y-40.83733
G01 X4.29760 Y-40.88785
G01 X4.15923 Y-40.92613
G01 X4.15945 Y-40.92715
G01 X4.15923 Y-40.92613
G01 X4.01775 Y-40.95168
G01 X3.87419 Y-40.96451
G01 X3.87421 Y-40.96507
G01 X3.87419 Y-40.96451
G01 X3.72974 Y-40.96451
G01 X3.72971 Y-40.96507
G01 X3.72974 Y-40.96451
G01 X3.58618 Y-40.95168
G01 X3.44470 Y-40.92613
G01 X3.44447 Y-40.92715
G01 X3.44470 Y-40.92613
G01 X3.30627 Y-40.88785
G01 X3.17175 Y-40.83733
G01 X3.17134 Y-40.83827
G01 X3.17175 Y-40.83733
G01 X3.04170 Y-40.77457
G01 X2.91780 Y-40.70063
G01 X2.91724 Y-40.70147
G01 X2.91780 Y-40.70063
G01 X2.80172 Y-40.61635
G01 X2.69332 Y-40.52174
G01 X2.69263 Y-40.52248
G01 X2.69332 Y-40.52174
G01 X2.59382 Y-40.41742
G01 X2.50355 Y-40.30454
G01 X2.50271 Y-40.30513
G01 X2.50355 Y-40.30454
G01 X2.42486 Y-40.18526
G01 X2.35671 Y-40.05834
G01 X2.35580 Y-40.05880
G01 X2.35671 Y-40.05834
G01 X2.30012 Y-39.92568
G01 X2.25544 Y-39.78864
G01 X2.25491 Y-39.78880
G01 X2.25544 Y-39.78864
G01 X2.22367 Y-39.64872
G01 X2.22314 Y-39.64882
G01 X2.22367 Y-39.64872
G01 X2.20421 Y-39.50548
G01 X2.19766 Y-39.36197
G04 P0 ( dwell for no time -- G64 should not smooth over this point )
G00 Z5.00000 ( retract )

G00 X17.90802 Y-26.78697 ( rapid move to begin. )
G01 F60.00000
( Mill infeed pass 1/1 )
G01 Z-0.15000
G04 P0 ( dwell for no time -- G64 should not smooth over this point )
G01 F120.00000
G01 X17.90802 Y-26.78697
G01 X17.90644 Y-26.78763
G01 X17.73357 Y-26.88003
G01 X17.71251 Y-26.89266
G01 X17.69283 Y-26.90726
G01 X17.54129 Y-27.03162
G01 X17.52311 Y-27.04811
G01 X17.50662 Y-27.06629
G01 X17.38226 Y-27.21783
G01 X17.36616 Y-27.24193
G01 X16.51699 Y-26.39276
G01 X16.51699 Y-25.82144
G01 X16.54040 Y-25.80894
G01 X16.58115 Y-25.78171
G01 X16.73268 Y-25.65735
G01 X16.75087 Y-25.64087
G01 X16.76735 Y-25.62268
G01 X16.89171 Y-25.47112
G01 X16.90632 Y-25.45144
G01 X16.91894 Y-25.43040
G01 X16.91909 Y-25.43010
G01 X17.01135 Y-25.25753
G01 X17.02184 Y-25.23533
G01 X17.03009 Y-25.21224
G01 X17.08701 Y-25.02464
G01 X17.09656 Y-24.97658
G01 X17.11579 Y-24.78149
G01 X17.11698 Y-24.75700
G01 X17.11579 Y-24.73249
G01 X17.10964 Y-24.67011
G01 X17.09656 Y-24.53739
G01 X17.08701 Y-24.48933
G01 X17.03009 Y-24.30173
G01 X17.02184 Y-24.27864
G01 X17.01135 Y-24.25644
G01 X16.91894 Y-24.08357
G01 X16.89171 Y-24.04283
G01 X16.76735 Y-23.89129
G01 X16.73268 Y-23.85662
G01 X16.58115 Y-23.73226
G01 X16.54040 Y-23.70503
G01 X16.36753 Y-23.61263
G01 X16.34533 Y-23.60214
G01 X16.32224 Y-23.59388
G01 X16.13464 Y-23.53696
G01 X16.08658 Y-23.52741
G01 X15.89149 Y-23.50818
G01 X15.86700 Y-23.50699
G01 X15.84249 Y-23.50818
G01 X15.64739 Y-23.52741
G01 X15.59933 Y-23.53696
G01 X15.41173 Y-23.59388
G01 X15.38864 Y-23.60214
G01 X15.36644 Y-23.61263
G01 X15.19357 Y-23.70503
G01 X15.15283 Y-23.73226
G01 X15.00129 Y-23.85662
G01 X14.96662 Y-23.89129
G01 X14.84226 Y-24.04283
G01 X14.81503 Y-24.08357
G01 X14.72263 Y-24.25644
G01 X14.71214 Y-24.27864
G01 X14.70388 Y-24.30173
G01 X14.64696 Y-24.48933
G01 X14.63741 Y-24.53739
G01 X14.61818 Y-24.73249
G01 X14.61699 Y-24.75700
G01 X14.61818 Y-24.78149
G01 X14.63741 Y-24.97658
G01 X14.64696 Y-25.02464
G01 X14.70388 Y-25.21224
G01 X14.71214 Y-25.23533
G01 X14.72263 Y-25.25753
G01 X14.81503 Y-25.43040
G01 X14.82766 Y-25.45144
G01 X14.84226 Y-25.47112
G01 X14.96662 Y-25.62268
G01 X14.98311 Y-25.64087
G01 X15.00129 Y-25.65735
G01 X15.15283 Y-25.78171
G01 X15.19357 Y-25.80894
G01 X15.21699 Y-25.82144
G01 X15.21699 Y-26.49789
G01 X15.21699 Y-26.66200
G01 X15.21818 Y-26.68649
G01 X15.22588 Y-26.76454
G01 X15.23543 Y-26.81260
G01 X15.25821 Y-26.88763
G01 X15.26647 Y-26.91074
G01 X15.27696 Y-26.93292
G01 X15.31391 Y-27.00206
G01 X15.34114 Y-27.04282
G01 X15.39090 Y-27.10343
G01 X15.40736 Y-27.12161
G01 X15.43540 Y-27.14963
G01 X15.43708 Y-27.15344
G01 X15.46167 Y-27.20543
G01 X15.46421 Y-27.21115
G01 X15.49702 Y-27.29062
G01 X15.49918 Y-27.29624
G01 X15.54998 Y-27.43820
G01 X16.58950 Y-28.47772
G01 X16.61594 Y-28.50314
G01 X16.65933 Y-28.54325
G01 X16.71602 Y-28.59166
G01 X16.76179 Y-28.62773
G01 X16.82478 Y-28.67348
G01 X16.87391 Y-28.70629
G01 X16.94556 Y-28.75018
G01 X16.99816 Y-28.77965
G01 X17.08109 Y-28.82186
G01 X17.09992 Y-28.83052
G01 X17.13697 Y-28.83200
G01 X17.21137 Y-28.83200
G01 X17.22250 Y-28.80883
G01 X17.21137 Y-28.83200
G01 X17.31338 Y-28.95628
G01 X17.38269 Y-29.02560
G01 X17.44528 Y-29.07698
G01 X17.40451 Y-29.07698
G01 X17.37459 Y-29.04985
G01 X17.28910 Y-28.96436
G01 X17.23164 Y-28.90098
G01 X17.21891 Y-28.88879
G01 X17.20461 Y-28.87853
G01 X17.20632 Y-28.87619
G01 X17.20461 Y-28.87853
G01 X17.18902 Y-28.87035
G01 X17.13850 Y-28.84833
G01 X17.09992 Y-28.83052
G01 X17.13850 Y-28.84833
G01 X17.18902 Y-28.87035
G01 X17.20461 Y-28.87853
G01 X17.21891 Y-28.88879
G01 X17.23164 Y-28.90098
G01 X17.28910 Y-28.96436
G01 X17.37459 Y-29.04985
G01 X17.40451 Y-29.07698
G01 X17.44528 Y-29.07698
G01 X17.90797 Y-29.07698
G01 X17.95173 Y-29.09509
G01 X18.13933 Y-29.15201
G01 X18.18739 Y-29.16156
G01 X18.38249 Y-29.18079
G01 X18.40700 Y-29.18198
G01 X18.43149 Y-29.18079
G01 X18.62658 Y-29.16156
G01 X18.67464 Y-29.15201
G01 X18.86224 Y-29.09509
G01 X18.90753 Y-29.07635
G01 X19.08040 Y-28.98394
G01 X19.10146 Y-28.97132
G01 X19.12115 Y-28.95671
G01 X19.27268 Y-28.83235
G01 X19.29087 Y-28.81587
G01 X19.30735 Y-28.79768
G01 X19.43171 Y-28.64615
G01 X19.45894 Y-28.60540
G01 X19.55135 Y-28.43253
G01 X19.56184 Y-28.41033
G01 X19.57009 Y-28.38724
G01 X19.62701 Y-28.19964
G01 X19.63656 Y-28.15158
G01 X19.65579 Y-27.95649
G01 X19.65698 Y-27.93200
G01 X19.65579 Y-27.90749
G01 X19.63656 Y-27.71239
G01 X19.62701 Y-27.66433
G01 X19.57009 Y-27.47673
G01 X19.56184 Y-27.45364
G01 X19.55135 Y-27.43144
G01 X19.45894 Y-27.25857
G01 X19.43171 Y-27.21783
G01 X19.30735 Y-27.06629
G01 X19.29087 Y-27.04811
G01 X19.27268 Y-27.03162
G01 X19.12115 Y-26.90726
G01 X19.10146 Y-26.89266
G01 X19.08040 Y-26.88003
G01 X18.90753 Y-26.78763
G01 X18.90593 Y-26.78697
G01 X18.86224 Y-26.76888
G01 X18.67464 Y-26.71196
G01 X18.62658 Y-26.70241
G01 X18.43149 Y-26.68318
G01 X18.40700 Y-26.68199
G01 X18.38249 Y-26.68318
G01 X18.18739 Y-26.70241
G01 X18.13933 Y-26.71196
G01 X17.95173 Y-26.76888
G01 X17.90802 Y-26.78697
G01 X17.44531 Y-26.78697
G01 X17.38269 Y-26.83838
G01 X17.34942 Y-26.87163
G01 X17.34652 Y-26.96464
G01 X17.34942 Y-26.87163
G01 X17.09763 Y-26.61986
G01 X17.17706 Y-26.67475
G01 X17.18828 Y-26.68166
G01 X17.19763 Y-26.68676
G01 X17.20357 Y-26.69225
G01 X17.20441 Y-26.69301
G01 X17.27233 Y-26.75458
G01 X17.29072 Y-26.76840
G01 X17.28869 Y-26.77175
G01 X17.29072 Y-26.76840
G01 X17.31129 Y-26.77859
G01 X17.33342 Y-26.78486
G01 X17.33263 Y-26.78900
G01 X17.33342 Y-26.78486
G01 X17.35630 Y-26.78697
G01 X17.44531 Y-26.78697
G01 X17.35630 Y-26.78697
G01 X17.33342 Y-26.78486
G01 X17.31129 Y-26.77859
G01 X17.29072 Y-26.76840
G01 X17.27233 Y-26.75458
G01 X17.20441 Y-26.69301
G01 X17.20357 Y-26.69225
G01 X17.19763 Y-26.68676
G01 X17.18828 Y-26.68166
G01 X17.17706 Y-26.67475
G01 X17.09763 Y-26.61986
G01 X16.95737 Y-26.52288
G01 X16.94655 Y-26.51448
G01 X16.91384 Y-26.48610
G01 X16.91323 Y-26.48684
G01 X16.91384 Y-26.48610
G01 X16.90624 Y-26.47897
G01 X16.76923 Y-26.33843
G01 X16.75605 Y-26.32245
G01 X16.75049 Y-26.32581
G01 X16.75605 Y-26.32245
G01 X16.74569 Y-26.30449
G01 X16.73842 Y-26.28509
G01 X16.72400 Y-26.23401
G01 X16.72328 Y-26.23134
G01 X16.71218 Y-26.18839
G01 X16.71145 Y-26.18857
G01 X16.71218 Y-26.18839
G01 X16.70998 Y-26.17800
G01 X16.67800 Y-25.98971
G01 X16.67624 Y-25.96683
G01 X16.66740 Y-25.96589
G01 X16.67624 Y-25.96683
G01 X16.67871 Y-25.94402
G01 X16.68529 Y-25.92202
G01 X16.70558 Y-25.87173
G01 X16.70670 Y-25.86901
G01 X16.72598 Y-25.82426
G01 X16.72740 Y-25.82108
G01 X16.75252 Y-25.76698
G01 X16.75186 Y-25.76668
G01 X16.75252 Y-25.76698
G01 X16.75407 Y-25.76373
G01 X16.79519 Y-25.68148
G01 X16.79679 Y-25.67836
G01 X16.81988 Y-25.63523
G01 X16.82158 Y-25.63213
G01 X16.84315 Y-25.59449
G01 X16.84660 Y-25.58880
G01 X16.89428 Y-25.51486
G01 X16.89776 Y-25.50978
G01 X16.90324 Y-25.50211
G01 X16.91213 Y-25.46520
G01 X16.91909 Y-25.43010
G01 X17.01135 Y-25.25753
G01 X17.02184 Y-25.23533
G01 X17.03009 Y-25.21224
G01 X17.08701 Y-25.02464
G01 X17.09656 Y-24.97658
G01 X17.11579 Y-24.78149
G01 X17.11698 Y-24.75700
G01 X17.11579 Y-24.73249
G01 X17.10964 Y-24.67011
G01 X17.11711 Y-24.63254
G01 X17.11848 Y-24.62644
G01 X17.13852 Y-24.54676
G01 X17.14012 Y-24.54095
G01 X17.15671 Y-24.48626
G01 X17.17894 Y-24.39711
G01 X17.18396 Y-24.37191
G01 X17.16359 Y-24.35068
G01 X17.15999 Y-24.34679
G01 X17.13245 Y-24.31555
G01 X17.07782 Y-24.25474
G01 X17.07350 Y-24.24969
G01 X17.01556 Y-24.17821
G01 X17.01163 Y-24.17267
G01 X16.98854 Y-24.14064
G01 X16.98562 Y-24.13643
G01 X16.94884 Y-24.08072
G01 X16.94609 Y-24.07636
G01 X16.94193 Y-24.06947
G01 X16.90835 Y-24.01883
G01 X16.82326 Y-23.91324
G01 X16.79382 Y-23.88032
G01 X16.74277 Y-23.82855
G01 X16.73665 Y-23.82294
G01 X16.63088 Y-23.73549
G01 X16.60563 Y-23.71674
G01 X16.54518 Y-23.67626
G01 X16.52656 Y-23.66505
G01 X16.40462 Y-23.60000
G01 X16.38902 Y-23.59269
G01 X16.32174 Y-23.56505
G01 X16.28821 Y-23.55317
G01 X16.15610 Y-23.51395
G01 X16.15245 Y-23.51306
G01 X16.08105 Y-23.49942
G01 X16.03238 Y-23.49256
G01 X15.89817 Y-23.48083
G01 X15.83230 Y-23.48179
G01 X15.76974 Y-23.48563
G01 X15.64719 Y-23.49960
G01 X15.63733 Y-23.50084
G01 X15.58536 Y-23.51270
G01 X15.51176 Y-23.53252
G01 X15.40741 Y-23.56658
G01 X15.38575 Y-23.57410
G01 X15.34907 Y-23.59111
G01 X15.26764 Y-23.63191
G01 X15.18491 Y-23.67874
G01 X15.15410 Y-23.69731
G01 X15.13241 Y-23.71364
G01 X15.04996 Y-23.77849
G01 X14.98854 Y-23.83193
G01 X14.95273 Y-23.86543
G01 X14.94356 Y-23.87598
G01 X14.86675 Y-23.96650
G01 X14.82575 Y-24.02012
G01 X14.79047 Y-24.07074
G01 X14.72575 Y-24.18829
G01 X14.70233 Y-24.23655
G01 X14.67394 Y-24.30331
G01 X14.63312 Y-24.43447
G01 X14.62321 Y-24.47321
G01 X14.60868 Y-24.54440
G01 X14.60668 Y-24.55738
G01 X14.59278 Y-24.69441
G01 X14.59149 Y-24.72060
G01 X14.61699 Y-24.75700
G01 X14.59149 Y-24.72060
G01 X14.59149 Y-24.79340
G01 X14.59278 Y-24.81951
G01 X14.60668 Y-24.95654
G01 X14.60868 Y-24.96955
G01 X14.62321 Y-25.04074
G01 X14.63309 Y-25.07940
G01 X14.67211 Y-25.20460
G01 X14.67272 Y-25.20668
G01 X14.69449 Y-25.28113
G01 X14.70602 Y-25.31852
G01 X14.70904 Y-25.33033
G01 X14.74536 Y-25.50808
G01 X14.74691 Y-25.51750
G01 X14.74719 Y-25.51745
G01 X14.74691 Y-25.51750
G01 X14.75245 Y-25.56162
G01 X14.76121 Y-25.62088
G01 X14.76220 Y-25.62974
G01 X14.77246 Y-25.76561
G01 X14.85202 Y-25.82466
G01 X14.86820 Y-25.83548
G01 X14.87231 Y-25.83830
G01 X14.94955 Y-25.89456
G01 X14.96502 Y-25.90790
G01 X14.97813 Y-25.92357
G01 X14.98351 Y-25.91918
G01 X14.97813 Y-25.92357
G01 X14.98849 Y-25.94115
G01 X14.99860 Y-25.96205
G01 X14.99908 Y-25.96307
G01 X15.09179 Y-26.15908
G01 X15.09207 Y-26.15900
G01 X15.09179 Y-26.15908
G01 X15.09423 Y-26.16457
G01 X15.13236 Y-26.25636
G01 X15.13462 Y-26.26223
G01 X15.20477 Y-26.45827
G01 X15.20668 Y-26.46403
G01 X15.21699 Y-26.49789
G01 X15.21699 Y-26.66200
G01 X15.21818 Y-26.68649
G01 X15.22588 Y-26.76454
G01 X15.23543 Y-26.81260
G01 X15.25821 Y-26.88763
G01 X15.26647 Y-26.91074
G01 X15.27696 Y-26.93292
G01 X15.31391 Y-27.00206
G01 X15.34114 Y-27.04282
G01 X15.39090 Y-27.10343
G01 X15.40736 Y-27.12161
G01 X15.43540 Y-27.14963
G01 X16.67736 Y-28.39161
G01 X16.69179 Y-28.40492
G01 X16.73952 Y-28.44569
G01 X16.77124 Y-28.46875
G01 X16.82476 Y-28.50154
G01 X16.85971 Y-28.51935
G01 X16.91772 Y-28.54338
G01 X16.95501 Y-28.55549
G01 X17.01605 Y-28.57015
G01 X17.05481 Y-28.57630
G01 X17.11737 Y-28.58122
G01 X17.13697 Y-28.58199
G01 X17.34251 Y-28.58199
G01 X17.35503 Y-28.60540
G01 X17.38226 Y-28.64615
G01 X17.50662 Y-28.79768
G01 X17.52311 Y-28.81587
G01 X17.54129 Y-28.83235
G01 X17.69283 Y-28.95671
G01 X17.71251 Y-28.97132
G01 X17.73357 Y-28.98394
G01 X17.90644 Y-29.07635
G01 X17.90797 Y-29.07698
G01 X17.95173 Y-29.09509
G01 X18.13933 Y-29.15201
G01 X18.18739 Y-29.16156
G01 X18.38249 Y-29.18079
G01 X18.40700 Y-29.18198
G01 X18.43149 Y-29.18079
G01 X18.62658 Y-29.16156
G01 X18.67464 Y-29.15201
G01 X18.86224 Y-29.09509
G01 X18.90601 Y-29.07698
G01 X19.14644 Y-29.07698
G01 X19.15305 Y-29.06545
G01 X19.15366 Y-29.06438
G01 X19.16349 Y-29.04764
G01 X19.16412 Y-29.04658
G01 X19.18536 Y-29.01120
G01 X19.19077 Y-29.00294
G01 X19.27416 Y-28.88559
G01 X19.28068 Y-28.87759
G01 X19.30519 Y-28.84864
G01 X19.32930 Y-28.81864
G01 X19.34690 Y-28.79603
G01 X19.34822 Y-28.79436
G01 X19.44779 Y-28.67081
G01 X19.48658 Y-28.61135
G01 X19.51576 Y-28.56131
G01 X19.57748 Y-28.44193
G01 X19.59803 Y-28.38874
G01 X19.62120 Y-28.32042
G01 X19.65226 Y-28.21074
G01 X19.65698 Y-28.19304
G01 X19.66410 Y-28.14874
G01 X19.67489 Y-28.06332
G01 X19.68241 Y-27.96357
G01 X19.68401 Y-27.93200
G01 X19.68241 Y-27.90040
G01 X19.67489 Y-27.80066
G01 X19.66410 Y-27.71521
G01 X19.65696 Y-27.67076
G01 X19.65229 Y-27.65321
G01 X19.62115 Y-27.54310
G01 X19.59808 Y-27.47526
G01 X19.57758 Y-27.42220
G01 X19.51579 Y-27.30266
G01 X19.48655 Y-27.25255
G01 X19.44858 Y-27.19426
G01 X19.34817 Y-27.06952
G01 X19.34690 Y-27.06792
G01 X19.32930 Y-27.04531
G01 X19.30535 Y-27.01552
G01 X19.28068 Y-26.98636
G01 X19.27416 Y-26.97836
G01 X19.19077 Y-26.86103
G01 X19.18536 Y-26.85275
G01 X19.16412 Y-26.81740
G01 X19.16351 Y-26.81633
G01 X19.15366 Y-26.79957
G01 X19.15305 Y-26.79850
G01 X19.14644 Y-26.78697
G01 X18.90593 Y-26.78697
G04 P0 ( dwell for no time -- G64 should not smooth over this point )
G00 Z5.00000 ( retract )

G00 X24.95835 Y-34.08162 ( rapid move to begin. )
G01 F60.00000
( Mill infeed pass 1/1 )
G01 Z-0.15000
G04 P0 ( dwell for no time -- G64 should not smooth over this point )
G01 F120.00000
G01 X24.95835 Y-34.08162
G01 X24.96358 Y-34.08083
G01 X24.96358 Y-34.07535
G01 X24.95941 Y-34.07535
G01 X24.95835 Y-34.08162
G04 P0 ( dwell for no time -- G64 should not smooth over this point )
G00 Z5.00000 ( retract )

G00 X27.42171 Y-33.51093 ( rapid move to begin. )
G01 F60.00000
( Mill infeed pass 1/1 )
G01 Z-0.15000
G04 P0 ( dwell for no time -- G64 should not smooth over this point )
G01 F120.00000
G01 X27.42171 Y-33.51093
G01 X27.42237 Y-33.51253
G01 X27.51478 Y-33.68540
G01 X27.52738 Y-33.70646
G01 X27.54201 Y-33.72615
G01 X27.66637 Y-33.87768
G01 X27.68285 Y-33.89587
G01 X27.70101 Y-33.91235
G01 X27.85255 Y-34.03671
G01 X27.87226 Y-34.05132
G01 X27.89332 Y-34.06394
G01 X28.06619 Y-34.15635
G01 X28.11148 Y-34.17509
G01 X28.29906 Y-34.23201
G01 X28.34714 Y-34.24156
G01 X28.54223 Y-34.26079
G01 X28.56672 Y-34.26198
G01 X28.59123 Y-34.26079
G01 X28.78633 Y-34.24156
G01 X28.83439 Y-34.23201
G01 X29.02199 Y-34.17509
G01 X29.06725 Y-34.15635
G01 X29.24015 Y-34.06394
G01 X29.26118 Y-34.05132
G01 X29.28089 Y-34.03671
G01 X29.43243 Y-33.91235
G01 X29.45062 Y-33.89587
G01 X29.46707 Y-33.87768
G01 X29.59146 Y-33.72615
G01 X29.60606 Y-33.70646
G01 X29.61869 Y-33.68540
G01 X29.71109 Y-33.51253
G01 X29.72984 Y-33.46724
G01 X29.78676 Y-33.27964
G01 X29.79631 Y-33.23158
G01 X29.81551 Y-33.03649
G01 X29.81673 Y-33.01200
G01 X29.81551 Y-32.98749
G01 X29.79631 Y-32.79239
G01 X29.78676 Y-32.74433
G01 X29.72984 Y-32.55673
G01 X29.71109 Y-32.51144
G01 X29.61869 Y-32.33857
G01 X29.60606 Y-32.31751
G01 X29.59146 Y-32.29783
G01 X29.46707 Y-32.14629
G01 X29.45062 Y-32.12811
G01 X29.43243 Y-32.11162
G01 X29.28089 Y-31.98726
G01 X29.26118 Y-31.97266
G01 X29.24015 Y-31.96003
G01 X29.06725 Y-31.86763
G01 X29.06568 Y-31.86697
G01 X29.02199 Y-31.84888
G01 X28.83439 Y-31.79196
G01 X28.78633 Y-31.78241
G01 X28.59123 Y-31.76318
G01 X28.56672 Y-31.76199
G01 X28.54223 Y-31.76318
G01 X28.34714 Y-31.78241
G01 X28.29906 Y-31.79196
G01 X28.11148 Y-31.84888
G01 X28.06776 Y-31.86697
G01 X28.06619 Y-31.86763
G01 X27.89332 Y-31.96003
G01 X27.87226 Y-31.97266
G01 X27.85255 Y-31.98726
G01 X27.70101 Y-32.11162
G01 X27.68285 Y-32.12811
G01 X27.66637 Y-32.14629
G01 X27.54201 Y-32.29783
G01 X27.52738 Y-32.31751
G01 X27.51478 Y-32.33857
G01 X27.42237 Y-32.51144
G01 X27.42171 Y-32.51304
G01 X27.42237 Y-32.51144
G01 X27.51478 Y-32.33857
G01 X27.52738 Y-32.31751
G01 X27.54201 Y-32.29783
G01 X27.66637 Y-32.14629
G01 X27.68285 Y-32.12811
G01 X27.70101 Y-32.11162
G01 X27.85255 Y-31.98726
G01 X27.87226 Y-31.97266
G01 X27.89332 Y-31.96003
G01 X28.06619 Y-31.86763
G01 X28.06776 Y-31.86697
G01 X27.60505 Y-31.86697
G01 X27.42171 Y-31.86697
G01 X27.42171 Y-32.05033
G01 X27.47312 Y-31.98769
G01 X27.50607 Y-31.95132
G01 X27.54241 Y-31.91838
G01 X27.60505 Y-31.86697
G01 X27.54241 Y-31.91838
G01 X27.50607 Y-31.95132
G01 X27.47312 Y-31.98769
G01 X27.42171 Y-32.05033
G01 X27.42171 Y-32.51304
G01 X27.40360 Y-32.55673
G01 X27.34671 Y-32.74433
G01 X27.33716 Y-32.79239
G01 X27.31793 Y-32.98749
G01 X27.31674 Y-33.01200
G01 X27.31793 Y-33.03649
G01 X27.33716 Y-33.23158
G01 X27.34671 Y-33.27964
G01 X27.40360 Y-33.46724
G01 X27.42171 Y-33.51093
G01 X27.42171 Y-33.75025
G01 X27.43383 Y-33.75716
G01 X27.43535 Y-33.75805
G01 X27.45964 Y-33.77235
G01 X27.46119 Y-33.77329
G01 X27.49408 Y-33.79330
G01 X27.50203 Y-33.79859
G01 X27.61394 Y-33.87903
G01 X27.62179 Y-33.88515
G01 X27.63195 Y-33.89376
G01 X27.65837 Y-33.91515
G01 X27.68011 Y-33.93194
G01 X27.68293 Y-33.93417
G01 X27.71879 Y-33.96359
G01 X27.72156 Y-33.96590
G01 X27.74963 Y-33.99031
G01 X27.83218 Y-34.05523
G01 X27.85405 Y-34.07166
G01 X27.88468 Y-34.09013
G01 X27.96761 Y-34.13709
G01 X28.04884 Y-34.17778
G01 X28.08572 Y-34.19488
G01 X28.10718 Y-34.20232
G01 X28.21158 Y-34.23638
G01 X28.28536 Y-34.25624
G01 X28.33426 Y-34.26762
G01 X28.35623 Y-34.27197
G01 X28.36070 Y-34.27293
G01 X28.41869 Y-34.28660
G01 X28.42306 Y-34.28769
G01 X28.46421 Y-34.29897
G01 X28.47091 Y-34.30102
G01 X28.56322 Y-34.33196
G01 X28.56339 Y-34.33148
G01 X28.56322 Y-34.33196
G01 X28.56964 Y-34.33430
G01 X28.70337 Y-34.38744
G01 X28.71188 Y-34.39119
G01 X28.87459 Y-34.47029
G01 X28.88211 Y-34.47428
G01 X28.88460 Y-34.47570
G01 X28.97729 Y-34.52881
G01 X29.02755 Y-34.55662
G01 X29.03299 Y-34.55980
G01 X29.17734 Y-34.64933
G01 X29.30296 Y-34.59732
G01 X29.47584 Y-34.50491
G01 X29.53898 Y-34.46706
G01 X29.59809 Y-34.42322
G01 X29.74962 Y-34.29884
G01 X29.80416 Y-34.24941
G01 X29.85359 Y-34.19488
G01 X29.97794 Y-34.04334
G01 X30.02181 Y-33.98424
G01 X30.05963 Y-33.92112
G01 X30.15204 Y-33.74822
G01 X30.20832 Y-33.61238
G01 X30.26522 Y-33.42480
G01 X30.29390 Y-33.28058
G01 X30.31312 Y-33.08551
G01 X30.31673 Y-33.01200
G01 X30.31312 Y-32.93847
G01 X30.29390 Y-32.74339
G01 X30.26522 Y-32.59917
G01 X30.20832 Y-32.41159
G01 X30.15204 Y-32.27576
G01 X30.05963 Y-32.10286
G01 X30.02181 Y-32.03974
G01 X29.97794 Y-31.98063
G01 X29.88468 Y-31.86697
G01 X29.52839 Y-31.86697
G01 X29.06568 Y-31.86697
G01 X29.52839 Y-31.86697
G01 X29.59103 Y-31.91838
G01 X29.62740 Y-31.95132
G01 X29.66034 Y-31.98769
G01 X29.78470 Y-32.13923
G01 X29.81394 Y-32.17863
G01 X29.83916 Y-32.22071
G01 X29.93156 Y-32.39361
G01 X29.96908 Y-32.48416
G01 X30.02598 Y-32.67177
G01 X30.04510 Y-32.76788
G01 X30.06433 Y-32.96298
G01 X30.06672 Y-33.01200
G01 X30.06433 Y-33.06100
G01 X30.04510 Y-33.25609
G01 X30.02598 Y-33.35221
G01 X29.96908 Y-33.53981
G01 X29.93156 Y-33.63036
G01 X29.83916 Y-33.80326
G01 X29.81394 Y-33.84535
G01 X29.78470 Y-33.88474
G01 X29.66034 Y-34.03628
G01 X29.62740 Y-34.07265
G01 X29.59103 Y-34.10560
G01 X29.43949 Y-34.22996
G01 X29.40009 Y-34.25919
G01 X29.35801 Y-34.28441
G01 X29.18511 Y-34.37682
G01 X29.09456 Y-34.41433
G01 X28.90695 Y-34.47126
G01 X28.88460 Y-34.47570
G01 X28.88679 Y-34.76445
G01 X28.88844 Y-34.97859
G01 X28.89080 Y-35.28690
G01 X30.09905 Y-35.28690
G01 X30.10693 Y-35.30595
G01 X30.09905 Y-35.28690
G01 X30.84182 Y-34.54413
G01 X30.86087 Y-34.55200
G01 X30.84182 Y-34.54413
G01 X30.84182 Y-27.03469
G01 X30.86087 Y-27.02682
G01 X30.84182 Y-27.03469
G01 X30.09910 Y-26.29200
G01 X30.10700 Y-26.27295
G01 X30.09910 Y-26.29200
G01 X29.76235 Y-26.29195
G01 X29.75145 Y-26.26858
G01 X29.76235 Y-26.29195
G01 X29.66034 Y-26.41628
G01 X29.62740 Y-26.45265
G01 X29.59103 Y-26.48560
G01 X29.52844 Y-26.53698
G01 X29.06575 Y-26.53698
G01 X29.52844 Y-26.53698
G01 X29.93718 Y-26.53698
G01 X29.95526 Y-26.53828
G01 X29.97195 Y-26.54198
G01 X29.99557 Y-26.54198
G01 X30.00337 Y-26.52327
G01 X29.99557 Y-26.54198
G01 X30.01881 Y-26.56523
G01 X30.02509 Y-26.56987
G01 X30.03705 Y-26.58141
G01 X30.05701 Y-26.60345
G01 X30.59184 Y-27.13825
G01 X30.61086 Y-27.13038
G01 X30.59184 Y-27.13825
G01 X30.59184 Y-34.44057
G01 X30.61086 Y-34.44845
G01 X30.59184 Y-34.44057
G01 X29.99550 Y-35.03691
G01 X30.00337 Y-35.05594
G01 X29.99550 Y-35.03691
G01 X29.21594 Y-35.03691
G01 X29.20159 Y-35.05078
G01 X29.19819 Y-35.05393
G01 X29.15628 Y-35.09150
G01 X29.14678 Y-35.09922
G01 X28.89080 Y-35.28690
G01 X28.86174 Y-35.30821
G01 X28.84975 Y-35.31601
G01 X28.80784 Y-35.33991
G01 X28.79682 Y-35.34550
G01 X28.79717 Y-35.34618
G01 X28.79682 Y-35.34550
G01 X28.58798 Y-35.43859
G01 X28.57533 Y-35.44342
G01 X28.53345 Y-35.45688
G01 X28.53380 Y-35.45797
G01 X28.53345 Y-35.45688
G01 X28.52120 Y-35.46013
G01 X28.34419 Y-35.49775
G01 X28.33114 Y-35.49980
G01 X28.33121 Y-35.50041
G01 X28.33114 Y-35.49980
G01 X28.28907 Y-35.50417
G01 X28.28265 Y-35.50468
G01 X28.19906 Y-35.50902
G01 X28.19258 Y-35.50918
G01 X25.29850 Y-35.50918
G01 X25.29845 Y-35.50971
G01 X25.29850 Y-35.50918
G01 X25.29246 Y-35.50905
G01 X25.21476 Y-35.50529
G01 X25.20876 Y-35.50486
G01 X25.16891 Y-35.50100
G01 X25.16266 Y-35.50023
G01 X25.07945 Y-35.48797
G01 X25.05959 Y-35.48334
G01 X25.04074 Y-35.47557
G01 X25.03696 Y-35.48444
G01 X25.04074 Y-35.47557
G01 X25.02340 Y-35.46483
G01 X24.95850 Y-35.41685
G01 X24.95375 Y-35.41314
G01 X24.92291 Y-35.38797
G01 X24.91816 Y-35.38388
G01 X24.85789 Y-35.32937
G01 X24.85332 Y-35.32505
G01 X24.85296 Y-35.32543
G01 X24.85332 Y-35.32505
G01 X24.64148 Y-35.11321
G01 X24.63681 Y-35.10826
G01 X24.57798 Y-35.04263
G01 X24.57359 Y-35.03745
G01 X24.54740 Y-35.00486
G01 X24.54654 Y-35.00552
G01 X24.54740 Y-35.00486
G01 X24.54001 Y-34.99460
G01 X24.44585 Y-34.84944
G01 X24.43975 Y-34.83895
G01 X24.43904 Y-34.83933
G01 X24.43975 Y-34.83895
G01 X24.41959 Y-34.80006
G01 X24.41504 Y-34.79025
G01 X24.36681 Y-34.67349
G01 X24.24862 Y-34.62470
G01 X24.23871 Y-34.62010
G01 X24.20031 Y-34.60013
G01 X24.18961 Y-34.59389
G01 X24.18923 Y-34.59460
G01 X24.18961 Y-34.59389
G01 X24.04174 Y-34.49737
G01 X24.03127 Y-34.48975
G01 X24.03092 Y-34.49020
G01 X24.03127 Y-34.48975
G01 X23.99863 Y-34.46325
G01 X23.99373 Y-34.45906
G01 X23.93147 Y-34.40295
G01 X23.92665 Y-34.39859
G01 X19.72595 Y-30.19793
G01 X19.72153 Y-30.19303
G01 X19.66450 Y-30.12966
G01 X19.66024 Y-30.12466
G01 X19.64235 Y-30.10253
G01 X19.63346 Y-30.09003
G01 X19.63207 Y-30.09097
G01 X19.63346 Y-30.09003
G01 X19.62615 Y-30.07655
G01 X19.61993 Y-30.06314
G01 X19.61863 Y-30.06024
G01 X19.60204 Y-30.02199
G01 X19.60083 Y-30.01904
G01 X19.58360 Y-29.97637
G01 X19.57799 Y-29.96293
G01 X19.51576 Y-29.84266
G01 X19.48655 Y-29.79255
G01 X19.44858 Y-29.73426
G01 X19.34817 Y-29.60952
G01 X19.34690 Y-29.60792
G01 X19.32935 Y-29.58536
G01 X19.30535 Y-29.55552
G01 X19.28068 Y-29.52636
G01 X19.27416 Y-29.51836
G01 X19.19077 Y-29.40103
G01 X19.18536 Y-29.39275
G01 X19.16412 Y-29.35740
G01 X19.16351 Y-29.35633
G01 X19.15366 Y-29.33957
G01 X19.15305 Y-29.33850
G01 X19.14644 Y-29.32697
G01 X18.90596 Y-29.32697
G01 X18.86224 Y-29.30888
G01 X18.67464 Y-29.25196
G01 X18.62658 Y-29.24241
G01 X18.43149 Y-29.22318
G01 X18.40700 Y-29.22199
G01 X18.38249 Y-29.22318
G01 X18.18739 Y-29.24241
G01 X18.13933 Y-29.25196
G01 X17.95173 Y-29.30888
G01 X17.90802 Y-29.32697
G01 X17.44531 Y-29.32697
G01 X17.35628 Y-29.32697
G01 X17.33342 Y-29.32486
G01 X17.31129 Y-29.31859
G01 X17.29072 Y-29.30840
G01 X17.27233 Y-29.29458
G01 X17.20441 Y-29.23304
G01 X17.19999 Y-29.22880
G01 X17.11015 Y-29.13896
G01 X17.10594 Y-29.13454
G01 X17.06443 Y-29.08877
G01 X17.03736 Y-29.07696
G01 X17.03502 Y-29.07589
G01 X16.99545 Y-29.05765
G01 X16.97426 Y-29.04787
G01 X16.96989 Y-29.04576
G01 X16.88254 Y-29.00131
G01 X16.87817 Y-28.99898
G01 X16.82128 Y-28.96710
G01 X16.81706 Y-28.96466
G01 X16.74124 Y-28.91821
G01 X16.73705 Y-28.91554
G01 X16.73667 Y-28.91612
G01 X16.73705 Y-28.91554
G01 X16.68384 Y-28.87998
G01 X16.67985 Y-28.87718
G01 X16.61290 Y-28.82859
G01 X16.60896 Y-28.82560
G01 X16.55933 Y-28.78648
G01 X16.55554 Y-28.78338
G01 X16.49514 Y-28.73180
G01 X16.49146 Y-28.72852
G01 X16.49108 Y-28.72892
G01 X16.49146 Y-28.72852
G01 X16.44533 Y-28.68587
G01 X16.44353 Y-28.68420
G01 X16.41534 Y-28.65707
G01 X16.41358 Y-28.65537
G01 X15.35336 Y-27.59515
G01 X15.34135 Y-27.58120
G01 X15.33711 Y-27.58402
G01 X15.34135 Y-27.58120
G01 X15.33152 Y-27.56568
G01 X15.32405 Y-27.54887
G01 X15.26482 Y-27.38331
G01 X15.23434 Y-27.30945
G01 X15.21044 Y-27.25895
G01 X15.20919 Y-27.25621
G01 X15.19156 Y-27.07739
G01 X15.18201 Y-27.02933
G01 X15.12509 Y-26.84173
G01 X15.11684 Y-26.81864
G01 X15.10635 Y-26.79644
G01 X15.01394 Y-26.62357
G01 X14.98671 Y-26.58283
G01 X14.97841 Y-26.57272
G01 X14.96837 Y-26.53965
G01 X14.90030 Y-26.34940
G01 X14.86451 Y-26.26327
G01 X14.77696 Y-26.07816
G01 X14.72720 Y-26.04194
G01 X14.71054 Y-26.03081
G01 X14.70551 Y-26.02725
G01 X14.62032 Y-25.96403
G01 X14.52718 Y-25.98542
G01 X14.52011 Y-25.98684
G01 X14.38923 Y-26.00909
G01 X14.38168 Y-26.01011
G01 X14.33894 Y-26.01476
G01 X14.33635 Y-26.01501
G01 X14.29591 Y-26.01852
G01 X14.29596 Y-26.01928
G01 X14.29591 Y-26.01852
G01 X14.29327 Y-26.01869
G01 X14.20627 Y-26.02438
G01 X14.20279 Y-26.02456
G01 X14.15598 Y-26.02629
G01 X14.15247 Y-26.02642
G01 X14.11285 Y-26.02677
G01 X14.10696 Y-26.02670
G01 X14.03007 Y-26.02375
G01 X14.02418 Y-26.02342
G01 X13.99403 Y-26.02080
G01 X13.92728 Y-26.02177
G01 X13.86472 Y-26.02560
G01 X13.74224 Y-26.03960
G01 X13.73236 Y-26.04082
G01 X13.68036 Y-26.05268
G01 X13.60673 Y-26.07249
G01 X13.50244 Y-26.10655
G01 X13.48072 Y-26.11412
G01 X13.44402 Y-26.13111
G01 X13.36261 Y-26.17191
G01 X13.27991 Y-26.21872
G01 X13.24912 Y-26.23729
G01 X13.22743 Y-26.25362
G01 X13.14498 Y-26.31846
G01 X13.08357 Y-26.37193
G01 X13.04773 Y-26.40541
G01 X13.03846 Y-26.41608
G01 X12.96172 Y-26.50650
G01 X12.92078 Y-26.56007
G01 X12.88547 Y-26.61074
G01 X12.82075 Y-26.72829
G01 X12.79736 Y-26.77653
G01 X12.76891 Y-26.84331
G01 X12.72812 Y-26.97450
G01 X12.71821 Y-27.01315
G01 X12.70368 Y-27.08438
G01 X12.70165 Y-27.09741
G01 X12.68778 Y-27.23441
G01 X12.68649 Y-27.26058
G01 X12.68649 Y-27.33340
G01 X12.68776 Y-27.35948
G01 X12.70165 Y-27.49654
G01 X12.70368 Y-27.50955
G01 X12.71821 Y-27.58077
G01 X12.72812 Y-27.61948
G01 X12.76891 Y-27.75062
G01 X12.79736 Y-27.81740
G01 X12.82070 Y-27.86560
G01 X12.88547 Y-27.98321
G01 X12.92078 Y-28.03385
G01 X12.96177 Y-28.08747
G01 X13.03846 Y-28.17787
G01 X13.04773 Y-28.18851
G01 X13.08352 Y-28.22202
G01 X13.14491 Y-28.27543
G01 X13.22738 Y-28.34030
G01 X13.24910 Y-28.35661
G01 X13.27986 Y-28.37515
G01 X13.36261 Y-28.42202
G01 X13.44404 Y-28.46281
G01 X13.48075 Y-28.47983
G01 X13.50251 Y-28.48740
G01 X13.60676 Y-28.52141
G01 X13.68036 Y-28.54124
G01 X13.73233 Y-28.55311
G01 X13.74206 Y-28.55433
G01 X13.86474 Y-28.56830
G01 X13.92718 Y-28.57213
G01 X14.00000 Y-28.57305
G01 X14.01356 Y-28.57254
G01 X14.01653 Y-28.57246
G01 X14.05547 Y-28.57195
G01 X14.05844 Y-28.57195
G01 X14.10531 Y-28.57249
G01 X14.11227 Y-28.57274
G01 X14.20622 Y-28.57904
G01 X14.22903 Y-28.58272
G01 X14.23160 Y-28.57480
G01 X14.22903 Y-28.58272
G01 X14.25077 Y-28.59052
G01 X14.27071 Y-28.60220
G01 X14.35245 Y-28.66083
G01 X14.35839 Y-28.66535
G01 X14.35928 Y-28.66426
G01 X14.35839 Y-28.66535
G01 X14.39248 Y-28.69306
G01 X14.39738 Y-28.69723
G01 X14.45946 Y-28.75318
G01 X14.46413 Y-28.75765
G01 X16.65115 Y-30.94439
G01 X16.67726 Y-30.96898
G01 X16.68694 Y-30.97766
G01 X16.71950 Y-31.00502
G01 X16.75189 Y-31.02907
G01 X16.78765 Y-31.05165
G01 X16.80779 Y-31.06354
G01 X16.82245 Y-31.07192
G01 X16.85473 Y-31.08731
G01 X16.90517 Y-31.10776
G01 X16.93151 Y-31.11785
G01 X16.96131 Y-31.12862
G01 X16.96329 Y-31.12935
G01 X16.98904 Y-31.13916
G01 X16.99095 Y-31.13989
G01 X17.02852 Y-31.15490
G01 X17.08650 Y-31.17769
G01 X17.09067 Y-31.17942
G01 X17.15155 Y-31.20593
G01 X17.15176 Y-31.20553
G01 X17.15155 Y-31.20593
G01 X17.15559 Y-31.20776
G01 X17.19090 Y-31.22465
G01 X17.19219 Y-31.22526
G01 X17.21361 Y-31.23580
G01 X17.21500 Y-31.23651
G01 X17.26687 Y-31.26285
G01 X17.28562 Y-31.27456
G01 X17.30200 Y-31.28940
G01 X17.30825 Y-31.28295
G01 X17.30200 Y-31.28940
G01 X17.31551 Y-31.30687
G01 X17.40228 Y-31.44231
G01 X17.40718 Y-31.45069
G01 X17.42133 Y-31.47705
G01 X17.44091 Y-31.51195
G01 X17.45826 Y-31.54157
G01 X17.46199 Y-31.54840
G01 X17.49666 Y-31.61698
G01 X17.90797 Y-31.61698
G01 X17.95173 Y-31.63509
G01 X18.13933 Y-31.69201
G01 X18.18739 Y-31.70156
G01 X18.38249 Y-31.72079
G01 X18.40700 Y-31.72198
G01 X18.43149 Y-31.72079
G01 X18.62658 Y-31.70156
G01 X18.67464 Y-31.69201
G01 X18.86224 Y-31.63509
G01 X18.90601 Y-31.61698
G01 X19.10466 Y-31.61698
G01 X19.12450 Y-31.61856
G01 X19.12549 Y-31.61378
G01 X19.12450 Y-31.61856
G01 X19.14385 Y-31.62328
G01 X19.16222 Y-31.63103
G01 X19.17911 Y-31.64157
G01 X19.18063 Y-31.63908
G01 X19.17911 Y-31.64157
G01 X19.24520 Y-31.69059
G01 X19.25003 Y-31.69435
G01 X19.31665 Y-31.74901
G01 X19.32132 Y-31.75305
G01 X19.46676 Y-31.88485
G01 X19.47118 Y-31.88909
G01 X19.47156 Y-31.88868
G01 X19.47118 Y-31.88909
G01 X19.52986 Y-31.94774
G01 X19.53410 Y-31.95218
G01 X19.66590 Y-32.09763
G01 X19.66994 Y-32.10230
G01 X19.72460 Y-32.16892
G01 X19.72493 Y-32.16867
G01 X19.72460 Y-32.16892
G01 X19.72836 Y-32.17375
G01 X19.84642 Y-32.33291
G01 X19.84997 Y-32.33799
G01 X19.90326 Y-32.41782
G01 X19.90651 Y-32.42295
G01 X19.90692 Y-32.42269
G01 X19.90651 Y-32.42295
G01 X20.01043 Y-32.59630
G01 X20.01347 Y-32.60171
G01 X20.06697 Y-32.70197
G01 X20.06968 Y-32.70738
G01 X20.12808 Y-32.83085
G01 X20.15871 Y-32.89559
G01 X20.15909 Y-32.89541
G01 X20.15871 Y-32.89559
G01 X20.16125 Y-32.90131
G01 X20.21545 Y-33.03257
G01 X20.21761 Y-33.03819
G01 X20.29066 Y-33.24235
G01 X20.29265 Y-33.24832
G01 X20.32462 Y-33.35426
G01 X20.33616 Y-33.39247
G01 X23.65472 Y-36.71100
G01 X23.78426 Y-36.76465
G01 X24.01435 Y-36.85995
G01 X24.08029 Y-36.88540
G01 X24.15436 Y-36.91192
G01 X24.27453 Y-36.94847
G01 X24.28507 Y-36.95111
G01 X24.21755 Y-36.90600
G01 X24.15695 Y-36.85626
G01 X24.12060 Y-36.82332
G01 X20.12808 Y-32.83085
G01 X24.12060 Y-36.82332
G01 X24.15695 Y-36.85626
G01 X24.21755 Y-36.90600
G01 X24.28507 Y-36.95111
G01 X24.34699 Y-36.96663
G01 X24.45687 Y-36.98852
G01 X24.52921 Y-36.99924
G01 X24.63343 Y-37.00955
G01 X24.70729 Y-37.01319
G01 X24.75857 Y-37.01443
G01 X30.47032 Y-37.01443
G01 X30.52163 Y-37.01319
G01 X30.59567 Y-37.00953
G01 X30.66631 Y-37.00282
G01 X30.71640 Y-36.97283
G01 X30.80019 Y-36.91689
G01 X30.85892 Y-36.87336
G01 X30.93166 Y-36.81367
G01 X30.98640 Y-36.76406
G01 X31.01957 Y-36.73246
G01 X32.28744 Y-35.46460
G01 X32.31899 Y-35.43148
G01 X32.36862 Y-35.37674
G01 X32.42828 Y-35.30399
G01 X32.47184 Y-35.24527
G01 X32.52777 Y-35.16145
G01 X32.55782 Y-35.11128
G01 X32.56450 Y-35.04072
G01 X32.56813 Y-34.96671
G01 X32.56940 Y-34.91532
G01 X32.56940 Y-26.66342
G01 X32.56813 Y-26.61222
G01 X32.56450 Y-26.53812
G01 X32.55782 Y-26.46759
G01 X32.52770 Y-26.41732
G01 X32.47182 Y-26.33360
G01 X32.42823 Y-26.27480
G01 X32.36857 Y-26.20211
G01 X32.31891 Y-26.14729
G01 X32.28741 Y-26.11422
G01 X31.01960 Y-24.84643
G01 X30.98640 Y-24.81481
G01 X30.93171 Y-24.76525
G01 X30.85897 Y-24.70556
G01 X30.80022 Y-24.66200
G01 X30.71645 Y-24.60607
G01 X30.65234 Y-24.56767
G01 X30.55262 Y-24.51446
G01 X30.50896 Y-24.49381
G01 X30.48152 Y-24.48083
G01 X30.42267 Y-24.45474
G01 X29.92105 Y-24.24697
G01 X29.52839 Y-24.24697
G01 X29.06588 Y-24.24697
G01 X29.06725 Y-24.24763
G01 X29.24015 Y-24.34003
G01 X29.28089 Y-24.36726
G01 X29.43243 Y-24.49162
G01 X29.45062 Y-24.50811
G01 X29.46707 Y-24.52629
G01 X29.59146 Y-24.67783
G01 X29.60606 Y-24.69751
G01 X29.61869 Y-24.71857
G01 X29.63118 Y-24.74199
G01 X30.47192 Y-24.74199
G01 X30.49641 Y-24.74318
G01 X30.57446 Y-24.75088
G01 X30.62252 Y-24.76043
G01 X30.69755 Y-24.78321
G01 X30.72067 Y-24.79147
G01 X30.74284 Y-24.80196
G01 X30.81198 Y-24.83891
G01 X30.85275 Y-24.86614
G01 X30.91335 Y-24.91590
G01 X30.93154 Y-24.93236
G01 X32.20146 Y-26.20229
G01 X32.21792 Y-26.22045
G01 X32.26768 Y-26.28105
G01 X32.29491 Y-26.32184
G01 X32.33186 Y-26.39098
G01 X32.34235 Y-26.41316
G01 X32.35061 Y-26.43627
G01 X32.37339 Y-26.51130
G01 X32.38294 Y-26.55936
G01 X32.39064 Y-26.63741
G01 X32.39183 Y-26.66192
G01 X32.39183 Y-34.91692
G01 X32.39064 Y-34.94141
G01 X32.38294 Y-35.01946
G01 X32.37339 Y-35.06752
G01 X32.35061 Y-35.14255
G01 X32.34235 Y-35.16567
G01 X32.33186 Y-35.18784
G01 X32.29491 Y-35.25698
G01 X32.26768 Y-35.29775
G01 X32.21792 Y-35.35835
G01 X32.20146 Y-35.37654
G01 X30.93146 Y-36.64654
G01 X30.91327 Y-36.66300
G01 X30.85267 Y-36.71275
G01 X30.81190 Y-36.73998
G01 X30.74276 Y-36.77694
G01 X30.72059 Y-36.78743
G01 X30.69748 Y-36.79569
G01 X30.62244 Y-36.81847
G01 X30.57439 Y-36.82802
G01 X30.49633 Y-36.83572
G01 X30.47185 Y-36.83691
G01 X24.75700 Y-36.83691
G01 X24.73249 Y-36.83572
G01 X24.65443 Y-36.82802
G01 X24.60638 Y-36.81847
G01 X24.53135 Y-36.79571
G01 X24.48606 Y-36.77694
G01 X24.41692 Y-36.73998
G01 X24.37615 Y-36.71275
G01 X24.31555 Y-36.66300
G01 X24.29736 Y-36.64654
G01 X19.13562 Y-31.48482
G01 X19.12115 Y-31.49671
G01 X19.10146 Y-31.51132
G01 X19.08040 Y-31.52394
G01 X18.90753 Y-31.61635
G01 X18.90601 Y-31.61698
G01 X18.86224 Y-31.63509
G01 X18.67464 Y-31.69201
G01 X18.62658 Y-31.70156
G01 X18.43149 Y-31.72079
G01 X18.40700 Y-31.72198
G01 X18.38249 Y-31.72079
G01 X18.18739 Y-31.70156
G01 X18.13933 Y-31.69201
G01 X17.95173 Y-31.63509
G01 X17.90797 Y-31.61698
G01 X17.90644 Y-31.61635
G01 X17.73357 Y-31.52394
G01 X17.71251 Y-31.51132
G01 X17.69283 Y-31.49671
G01 X17.54129 Y-31.37235
G01 X17.52311 Y-31.35587
G01 X17.50662 Y-31.33768
G01 X17.38226 Y-31.18615
G01 X17.35503 Y-31.14540
G01 X17.34251 Y-31.12199
G01 X17.13697 Y-31.12199
G01 X17.11737 Y-31.12122
G01 X17.05481 Y-31.11630
G01 X17.01605 Y-31.11015
G01 X16.95501 Y-31.09549
G01 X16.91772 Y-31.08338
G01 X16.85971 Y-31.05935
G01 X16.82476 Y-31.04154
G01 X16.77124 Y-31.00875
G01 X16.73952 Y-30.98569
G01 X16.69179 Y-30.94492
G01 X16.67736 Y-30.93161
G01 X14.25507 Y-28.50929
G01 X14.22964 Y-28.51701
G01 X14.18158 Y-28.52656
G01 X13.98649 Y-28.54579
G01 X13.96200 Y-28.54698
G01 X13.93749 Y-28.54579
G01 X13.74239 Y-28.52656
G01 X13.69433 Y-28.51701
G01 X13.50673 Y-28.46009
G01 X13.46144 Y-28.44135
G01 X13.28857 Y-28.34894
G01 X13.26749 Y-28.33632
G01 X13.24783 Y-28.32171
G01 X13.09627 Y-28.19735
G01 X13.07811 Y-28.18087
G01 X13.06162 Y-28.16268
G01 X12.93726 Y-28.01115
G01 X12.91003 Y-27.97040
G01 X12.81763 Y-27.79753
G01 X12.80714 Y-27.77533
G01 X12.79888 Y-27.75224
G01 X12.74196 Y-27.56464
G01 X12.73241 Y-27.51658
G01 X12.71318 Y-27.32149
G01 X12.71199 Y-27.29700
G01 X12.68649 Y-27.33340
G01 X12.71199 Y-27.29700
G01 X12.71318 Y-27.27249
G01 X12.73241 Y-27.07739
G01 X12.74196 Y-27.02933
G01 X12.79888 Y-26.84173
G01 X12.80714 Y-26.81864
G01 X12.81763 Y-26.79644
G01 X12.91003 Y-26.62357
G01 X12.93726 Y-26.58283
G01 X13.06162 Y-26.43129
G01 X13.07811 Y-26.41308
G01 X13.09627 Y-26.39662
G01 X13.24783 Y-26.27226
G01 X13.26749 Y-26.25766
G01 X13.28857 Y-26.24503
G01 X13.46144 Y-26.15263
G01 X13.50673 Y-26.13386
G01 X13.69433 Y-26.07696
G01 X13.74239 Y-26.06741
G01 X13.93749 Y-26.04816
G01 X13.96200 Y-26.04699
G01 X13.98649 Y-26.04816
G01 X14.18158 Y-26.06741
G01 X14.22964 Y-26.07696
G01 X14.41724 Y-26.13386
G01 X14.46253 Y-26.15263
G01 X14.63540 Y-26.24503
G01 X14.65646 Y-26.25766
G01 X14.67615 Y-26.27226
G01 X14.82768 Y-26.39662
G01 X14.84587 Y-26.41308
G01 X14.86235 Y-26.43129
G01 X14.97841 Y-26.57272
G01 X14.98671 Y-26.58283
G01 X15.01394 Y-26.62357
G01 X15.10635 Y-26.79644
G01 X15.11684 Y-26.81864
G01 X15.12509 Y-26.84173
G01 X15.18201 Y-27.02933
G01 X15.19156 Y-27.07739
G01 X15.20919 Y-27.25621
G01 X15.21079 Y-27.27249
G01 X15.21198 Y-27.29700
G01 X15.21079 Y-27.32149
G01 X15.19156 Y-27.51658
G01 X15.18201 Y-27.56464
G01 X15.17429 Y-27.59007
G01 X17.36616 Y-29.78193
G01 X17.38226 Y-29.75783
G01 X17.50662 Y-29.60629
G01 X17.52311 Y-29.58811
G01 X17.54129 Y-29.57162
G01 X17.69283 Y-29.44726
G01 X17.71251 Y-29.43266
G01 X17.73357 Y-29.42003
G01 X17.90644 Y-29.32763
G01 X17.90802 Y-29.32697
G01 X17.44531 Y-29.32697
G01 X17.35628 Y-29.32697
G01 X17.33342 Y-29.32486
G01 X17.33187 Y-29.33134
G01 X17.33342 Y-29.32486
G01 X17.31129 Y-29.31859
G01 X17.29072 Y-29.30840
G01 X17.27233 Y-29.29458
G01 X17.27045 Y-29.29722
G01 X17.27233 Y-29.29458
G01 X17.20441 Y-29.23304
G01 X17.19999 Y-29.22880
G01 X17.11015 Y-29.13896
G01 X17.10594 Y-29.13454
G01 X17.06443 Y-29.08877
G01 X17.03736 Y-29.07696
G01 X17.03502 Y-29.07589
G01 X16.99545 Y-29.05765
G01 X17.34942 Y-29.41163
G01 X17.34652 Y-29.50464
G01 X17.34942 Y-29.41163
G01 X17.38269 Y-29.37838
G01 X17.44531 Y-29.32697
G01 X17.90802 Y-29.32697
G01 X17.95173 Y-29.30888
G01 X18.13933 Y-29.25196
G01 X18.18739 Y-29.24241
G01 X18.38249 Y-29.22318
G01 X18.40700 Y-29.22199
G01 X18.43149 Y-29.22318
G01 X18.62658 Y-29.24241
G01 X18.67464 Y-29.25196
G01 X18.86224 Y-29.30888
G01 X18.90596 Y-29.32697
G01 X18.90753 Y-29.32763
G01 X19.08040 Y-29.42003
G01 X19.10146 Y-29.43266
G01 X19.12115 Y-29.44726
G01 X19.27268 Y-29.57162
G01 X19.29087 Y-29.58811
G01 X19.30735 Y-29.60629
G01 X19.43171 Y-29.75783
G01 X19.45894 Y-29.79857
G01 X19.55135 Y-29.97144
G01 X19.56184 Y-29.99364
G01 X19.57009 Y-30.01673
G01 X19.59801 Y-30.10875
G01 X25.02621 Y-35.53691
G01 X30.20261 Y-35.53691
G01 X31.09184 Y-34.64768
G01 X31.09184 Y-26.93114
G01 X30.20268 Y-26.04199
G01 X29.63121 Y-26.04199
G01 X29.61869 Y-26.06540
G01 X29.60606 Y-26.08646
G01 X29.59146 Y-26.10615
G01 X29.46707 Y-26.25768
G01 X29.45062 Y-26.27587
G01 X29.43243 Y-26.29235
G01 X29.28089 Y-26.41671
G01 X29.26118 Y-26.43132
G01 X29.24015 Y-26.44394
G01 X29.06725 Y-26.53635
G01 X29.06575 Y-26.53698
G01 X29.02199 Y-26.55507
G01 X28.83439 Y-26.61201
G01 X28.78633 Y-26.62156
G01 X28.59123 Y-26.64079
G01 X28.56672 Y-26.64198
G01 X28.54223 Y-26.64079
G01 X28.34714 Y-26.62156
G01 X28.29906 Y-26.61201
G01 X28.11148 Y-26.55507
G01 X28.06771 Y-26.53698
G01 X28.06619 Y-26.53635
G01 X27.89332 Y-26.44394
G01 X27.87226 Y-26.43132
G01 X27.85255 Y-26.41671
G01 X27.70101 Y-26.29235
G01 X27.68285 Y-26.27587
G01 X27.66637 Y-26.25768
G01 X27.54201 Y-26.10615
G01 X27.52738 Y-26.08646
G01 X27.51478 Y-26.06540
G01 X27.42237 Y-25.89253
G01 X27.42171 Y-25.89093
G01 X27.42237 Y-25.89253
G01 X27.51478 Y-26.06540
G01 X27.52738 Y-26.08646
G01 X27.54201 Y-26.10615
G01 X27.66637 Y-26.25768
G01 X27.68285 Y-26.27587
G01 X27.70101 Y-26.29235
G01 X27.85255 Y-26.41671
G01 X27.87226 Y-26.43132
G01 X27.89332 Y-26.44394
G01 X28.06619 Y-26.53635
G01 X28.06771 Y-26.53698
G01 X27.60503 Y-26.53698
G01 X27.42171 Y-26.53698
G01 X27.42171 Y-26.35364
G01 X27.47312 Y-26.41628
G01 X27.50607 Y-26.45265
G01 X27.54241 Y-26.48560
G01 X27.60503 Y-26.53698
G01 X27.54241 Y-26.48560
G01 X27.50607 Y-26.45265
G01 X27.47312 Y-26.41628
G01 X27.42171 Y-26.35364
G01 X27.42171 Y-25.89093
G01 X27.40360 Y-25.84722
G01 X27.34671 Y-25.65964
G01 X27.33716 Y-25.61158
G01 X27.31793 Y-25.41649
G01 X27.31674 Y-25.39200
G01 X27.31793 Y-25.36749
G01 X27.33716 Y-25.17239
G01 X27.34671 Y-25.12433
G01 X27.40360 Y-24.93673
G01 X27.42171 Y-24.89304
G01 X27.42237 Y-24.89144
G01 X27.51478 Y-24.71857
G01 X27.52738 Y-24.69751
G01 X27.54201 Y-24.67783
G01 X27.66637 Y-24.52629
G01 X27.68285 Y-24.50811
G01 X27.70101 Y-24.49162
G01 X27.85255 Y-24.36726
G01 X27.89332 Y-24.34003
G01 X28.06619 Y-24.24763
G01 X28.06756 Y-24.24697
G01 X28.06619 Y-24.24763
G01 X27.89332 Y-24.34003
G01 X27.85255 Y-24.36726
G01 X27.70101 Y-24.49162
G01 X27.68285 Y-24.50811
G01 X27.66637 Y-24.52629
G01 X27.54201 Y-24.67783
G01 X27.52738 Y-24.69751
G01 X27.51478 Y-24.71857
G01 X27.42237 Y-24.89144
G01 X27.42171 Y-24.89304
G01 X27.42171 Y-24.43033
G01 X27.42171 Y-24.24697
G01 X27.60505 Y-24.24697
G01 X27.54241 Y-24.29838
G01 X27.47312 Y-24.36769
G01 X27.42171 Y-24.43033
G01 X27.47312 Y-24.36769
G01 X27.54241 Y-24.29838
G01 X27.60505 Y-24.24697
G01 X28.06756 Y-24.24697
G01 X28.08836 Y-24.23714
G01 X28.11148 Y-24.22888
G01 X28.29906 Y-24.17196
G01 X28.34714 Y-24.16241
G01 X28.54223 Y-24.14318
G01 X28.56672 Y-24.14199
G01 X28.59123 Y-24.14318
G01 X28.78633 Y-24.16241
G01 X28.83439 Y-24.17196
G01 X29.02199 Y-24.22888
G01 X29.04508 Y-24.23714
G01 X29.06588 Y-24.24697
G01 X29.52839 Y-24.24697
G01 X29.59103 Y-24.29838
G01 X29.66034 Y-24.36769
G01 X29.76235 Y-24.49198
G01 X29.75105 Y-24.51583
G01 X29.76235 Y-24.49198
G01 X30.47192 Y-24.49198
G01 X30.50896 Y-24.49381
G01 X30.61427 Y-24.26706
G01 X30.09920 Y-23.75200
G01 X30.10708 Y-23.73295
G01 X30.09920 Y-23.75200
G01 X29.76235 Y-23.75200
G01 X29.75100 Y-23.72800
G01 X29.76235 Y-23.75200
G01 X29.66034 Y-23.87628
G01 X29.59103 Y-23.94560
G01 X29.52844 Y-23.99698
G01 X29.06593 Y-23.99698
G01 X29.04508 Y-24.00684
G01 X29.06725 Y-23.99635
G01 X29.24015 Y-23.90394
G01 X29.28089 Y-23.87671
G01 X29.43243 Y-23.75235
G01 X29.45062 Y-23.73587
G01 X29.46707 Y-23.71768
G01 X29.59146 Y-23.56615
G01 X29.60606 Y-23.54646
G01 X29.61869 Y-23.52540
G01 X29.63118 Y-23.50199
G01 X30.20276 Y-23.50199
G01 X32.99699 Y-26.29619
G01 X32.99699 Y-35.28273
G01 X30.83776 Y-37.44199
G01 X21.21621 Y-37.44199
G01 X19.61927 Y-35.84514
G01 X19.62701 Y-35.81964
G01 X19.63656 Y-35.77158
G01 X19.65579 Y-35.57649
G01 X19.65698 Y-35.55200
G01 X19.65579 Y-35.52749
G01 X19.63656 Y-35.33239
G01 X19.62701 Y-35.28433
G01 X19.57009 Y-35.09673
G01 X19.56184 Y-35.07364
G01 X19.55135 Y-35.05144
G01 X19.45894 Y-34.87857
G01 X19.43171 Y-34.83783
G01 X19.30735 Y-34.68629
G01 X19.29087 Y-34.66811
G01 X19.27268 Y-34.65162
G01 X19.12115 Y-34.52726
G01 X19.10146 Y-34.51266
G01 X19.08040 Y-34.50003
G01 X18.90753 Y-34.40763
G01 X18.90596 Y-34.40697
G01 X18.86224 Y-34.38888
G01 X18.67464 Y-34.33196
G01 X18.62658 Y-34.32241
G01 X18.43149 Y-34.30318
G01 X18.40700 Y-34.30199
G01 X18.38249 Y-34.30318
G01 X18.18739 Y-34.32241
G01 X18.13933 Y-34.33196
G01 X17.95173 Y-34.38888
G01 X17.90802 Y-34.40697
G01 X17.90644 Y-34.40763
G01 X17.73357 Y-34.50003
G01 X17.71251 Y-34.51266
G01 X17.69283 Y-34.52726
G01 X17.54129 Y-34.65162
G01 X17.52311 Y-34.66811
G01 X17.50662 Y-34.68629
G01 X17.38226 Y-34.83783
G01 X17.35503 Y-34.87857
G01 X17.34251 Y-34.90199
G01 X13.12146 Y-34.90199
G01 X13.10892 Y-34.87857
G01 X13.08171 Y-34.83783
G01 X12.95735 Y-34.68629
G01 X12.94087 Y-34.66811
G01 X12.92268 Y-34.65162
G01 X12.77115 Y-34.52726
G01 X12.75146 Y-34.51266
G01 X12.73038 Y-34.50003
G01 X12.55753 Y-34.40763
G01 X12.51224 Y-34.38888
G01 X12.32464 Y-34.33196
G01 X12.27658 Y-34.32241
G01 X12.08149 Y-34.30318
G01 X12.05700 Y-34.30199
G01 X12.03249 Y-34.30318
G01 X11.83739 Y-34.32241
G01 X11.78933 Y-34.33196
G01 X11.60173 Y-34.38888
G01 X11.55644 Y-34.40763
G01 X11.38357 Y-34.50003
G01 X11.36251 Y-34.51266
G01 X11.34283 Y-34.52726
G01 X11.19129 Y-34.65162
G01 X11.17311 Y-34.66811
G01 X11.15662 Y-34.68629
G01 X11.03226 Y-34.83783
G01 X11.00503 Y-34.87857
G01 X10.91263 Y-35.05144
G01 X10.90214 Y-35.07364
G01 X10.89388 Y-35.09673
G01 X10.83696 Y-35.28433
G01 X10.82741 Y-35.33239
G01 X10.80818 Y-35.52749
G01 X10.80699 Y-35.55200
G01 X10.61334 Y-35.49907
G01 X10.80699 Y-35.55200
G01 X10.80818 Y-35.57649
G01 X10.82741 Y-35.77158
G01 X10.83696 Y-35.81964
G01 X10.89388 Y-36.00724
G01 X10.90214 Y-36.03033
G01 X10.91263 Y-36.05253
G01 X11.00503 Y-36.22540
G01 X11.03226 Y-36.26615
G01 X11.15662 Y-36.41768
G01 X11.17311 Y-36.43587
G01 X11.19129 Y-36.45235
G01 X11.34283 Y-36.57671
G01 X11.36251 Y-36.59132
G01 X11.38357 Y-36.60394
G01 X11.55644 Y-36.69635
G01 X11.60173 Y-36.71509
G01 X11.78933 Y-36.77201
G01 X11.83739 Y-36.78156
G01 X12.03249 Y-36.80079
G01 X12.05700 Y-36.80198
G01 X12.08149 Y-36.80079
G01 X12.27658 Y-36.78156
G01 X12.32464 Y-36.77201
G01 X12.51224 Y-36.71509
G01 X12.55753 Y-36.69635
G01 X12.73038 Y-36.60394
G01 X12.75146 Y-36.59132
G01 X12.77115 Y-36.57671
G01 X12.92268 Y-36.45235
G01 X12.94087 Y-36.43587
G01 X12.95735 Y-36.41768
G01 X13.08171 Y-36.26615
G01 X13.10892 Y-36.22540
G01 X13.12146 Y-36.20199
G01 X17.34251 Y-36.20199
G01 X17.35503 Y-36.22540
G01 X17.38226 Y-36.26615
G01 X17.50662 Y-36.41768
G01 X17.52311 Y-36.43587
G01 X17.54129 Y-36.45235
G01 X17.69283 Y-36.57671
G01 X17.71251 Y-36.59132
G01 X17.73357 Y-36.60394
G01 X17.90644 Y-36.69635
G01 X17.95173 Y-36.71509
G01 X18.13933 Y-36.77201
G01 X18.18739 Y-36.78156
G01 X18.38249 Y-36.80079
G01 X18.40700 Y-36.80198
G01 X18.43149 Y-36.80079
G01 X18.62658 Y-36.78156
G01 X18.67464 Y-36.77201
G01 X18.69999 Y-36.76432
G01 X20.48739 Y-38.55161
G01 X20.50555 Y-38.56810
G01 X20.56618 Y-38.61783
G01 X20.60692 Y-38.64506
G01 X20.67608 Y-38.68202
G01 X20.72135 Y-38.70079
G01 X20.79638 Y-38.72355
G01 X20.84446 Y-38.73310
G01 X20.92249 Y-38.74079
G01 X20.94700 Y-38.74199
G01 X31.10700 Y-38.74199
G01 X31.13149 Y-38.74079
G01 X31.20954 Y-38.73310
G01 X31.25760 Y-38.72355
G01 X31.33263 Y-38.70076
G01 X31.35574 Y-38.69251
G01 X31.37792 Y-38.68202
G01 X31.44706 Y-38.64506
G01 X31.48782 Y-38.61783
G01 X31.54843 Y-38.56807
G01 X31.56661 Y-38.55161
G01 X34.10661 Y-36.01161
G01 X34.12307 Y-35.99343
G01 X34.17283 Y-35.93282
G01 X34.20006 Y-35.89206
G01 X34.23702 Y-35.82292
G01 X34.24751 Y-35.80074
G01 X34.25576 Y-35.77763
G01 X34.27855 Y-35.70260
G01 X34.28810 Y-35.65454
G01 X34.29579 Y-35.57649
G01 X34.29699 Y-35.55200
G01 X34.29699 Y-26.02697
G01 X34.29622 Y-26.00734
G01 X34.29130 Y-25.94478
G01 X34.28515 Y-25.90602
G01 X34.27049 Y-25.84496
G01 X34.25838 Y-25.80767
G01 X34.23435 Y-25.74966
G01 X34.21654 Y-25.71473
G01 X34.18375 Y-25.66121
G01 X34.16069 Y-25.62949
G01 X34.11992 Y-25.58176
G01 X34.10661 Y-25.56734
G01 X30.93161 Y-22.39236
G01 X30.91343 Y-22.37590
G01 X30.85282 Y-22.32614
G01 X30.81206 Y-22.29891
G01 X30.74292 Y-22.26196
G01 X30.69763 Y-22.24319
G01 X30.62260 Y-22.22043
G01 X30.57454 Y-22.21088
G01 X30.49649 Y-22.20318
G01 X30.47200 Y-22.20199
G01 X29.63118 Y-22.20199
G01 X29.61869 Y-22.17857
G01 X29.60606 Y-22.15751
G01 X29.59146 Y-22.13783
G01 X29.46707 Y-21.98629
G01 X29.45062 Y-21.96811
G01 X29.43243 Y-21.95162
G01 X29.28089 Y-21.82726
G01 X29.24015 Y-21.80003
G01 X29.06725 Y-21.70763
G01 X29.06588 Y-21.70697
G01 X29.04508 Y-21.69714
G01 X29.02199 Y-21.68888
G01 X28.83439 Y-21.63196
G01 X28.78633 Y-21.62241
G01 X28.59123 Y-21.60318
G01 X28.56672 Y-21.60199
G01 X28.54223 Y-21.60318
G01 X28.34714 Y-21.62241
G01 X28.29906 Y-21.63196
G01 X28.11148 Y-21.68888
G01 X28.08836 Y-21.69714
G01 X28.06756 Y-21.70697
G01 X28.06619 Y-21.70763
G01 X27.89332 Y-21.80003
G01 X27.85255 Y-21.82726
G01 X27.70101 Y-21.95162
G01 X27.68285 Y-21.96811
G01 X27.66637 Y-21.98629
G01 X27.54201 Y-22.13783
G01 X27.52738 Y-22.15751
G01 X27.51478 Y-22.17857
G01 X27.42237 Y-22.35144
G01 X27.42171 Y-22.35304
G01 X27.42237 Y-22.35144
G01 X27.51478 Y-22.17857
G01 X27.52738 Y-22.15751
G01 X27.54201 Y-22.13783
G01 X27.66637 Y-21.98629
G01 X27.68285 Y-21.96811
G01 X27.70101 Y-21.95162
G01 X27.85255 Y-21.82726
G01 X27.89332 Y-21.80003
G01 X28.06619 Y-21.70763
G01 X28.06756 Y-21.70697
G01 X27.60505 Y-21.70697
G01 X27.42171 Y-21.70697
G01 X27.42171 Y-21.89033
G01 X27.47312 Y-21.82769
G01 X27.54241 Y-21.75838
G01 X27.60505 Y-21.70697
G01 X27.54241 Y-21.75838
G01 X27.47312 Y-21.82769
G01 X27.42171 Y-21.89033
G01 X27.42171 Y-22.35304
G01 X27.40360 Y-22.39673
G01 X27.34671 Y-22.58433
G01 X27.33716 Y-22.63239
G01 X27.31793 Y-22.82749
G01 X27.31674 Y-22.85200
G01 X27.31793 Y-22.87649
G01 X27.33716 Y-23.07158
G01 X27.34671 Y-23.11964
G01 X27.40360 Y-23.30724
G01 X27.42171 Y-23.35093
G01 X27.42237 Y-23.35253
G01 X27.51478 Y-23.52540
G01 X27.52738 Y-23.54646
G01 X27.54201 Y-23.56615
G01 X27.66637 Y-23.71768
G01 X27.68285 Y-23.73587
G01 X27.70101 Y-23.75235
G01 X27.85255 Y-23.87671
G01 X27.89332 Y-23.90394
G01 X28.06619 Y-23.99635
G01 X28.06751 Y-23.99698
G01 X28.06619 Y-23.99635
G01 X27.89332 Y-23.90394
G01 X27.85255 Y-23.87671
G01 X27.70101 Y-23.75235
G01 X27.68285 Y-23.73587
G01 X27.66637 Y-23.71768
G01 X27.54201 Y-23.56615
G01 X27.52738 Y-23.54646
G01 X27.51478 Y-23.52540
G01 X27.42237 Y-23.35253
G01 X27.42171 Y-23.35093
G01 X27.42171 Y-23.81364
G01 X27.42171 Y-23.99698
G01 X27.60503 Y-23.99698
G01 X27.54241 Y-23.94560
G01 X27.47312 Y-23.87628
G01 X27.42171 Y-23.81364
G01 X27.47312 Y-23.87628
G01 X27.54241 Y-23.94560
G01 X27.60503 Y-23.99698
G01 X28.06751 Y-23.99698
G01 X28.08836 Y-24.00684
G01 X28.11148 Y-24.01509
G01 X28.29906 Y-24.07201
G01 X28.34714 Y-24.08156
G01 X28.54223 Y-24.10079
G01 X28.56672 Y-24.10198
G01 X28.59123 Y-24.10079
G01 X28.78633 Y-24.08156
G01 X28.83439 Y-24.07201
G01 X29.02199 Y-24.01509
G01 X29.04508 Y-24.00684
G01 X29.06593 Y-23.99698
G01 X29.52844 Y-23.99698
G01 X29.94592 Y-23.99698
G01 X29.94594 Y-23.99665
G01 X29.94592 Y-23.99698
G01 X29.97030 Y-23.99937
G01 X29.97891 Y-24.00198
G01 X29.99565 Y-24.00198
G01 X29.99636 Y-23.99919
G01 X29.99565 Y-24.00198
G01 X30.00467 Y-24.01100
G01 X30.51975 Y-24.22436
G01 X30.52255 Y-24.22556
G01 X30.58417 Y-24.25286
G01 X30.58434 Y-24.25251
G01 X30.58417 Y-24.25286
G01 X30.58699 Y-24.25416
G01 X30.61427 Y-24.26706
G01 X30.66227 Y-24.28977
G01 X30.66766 Y-24.29248
G01 X30.77281 Y-24.34859
G01 X30.77822 Y-24.35164
G01 X30.84756 Y-24.39320
G01 X30.85270 Y-24.39645
G01 X30.94160 Y-24.45578
G01 X30.94213 Y-24.45499
G01 X30.94160 Y-24.45578
G01 X30.94665 Y-24.45934
G01 X31.01033 Y-24.50656
G01 X31.01515 Y-24.51034
G01 X31.09265 Y-24.57392
G01 X31.09732 Y-24.57793
G01 X31.15549 Y-24.63066
G01 X31.15775 Y-24.63274
G01 X31.19311 Y-24.66642
G01 X31.19529 Y-24.66858
G01 X32.46524 Y-25.93848
G01 X32.46737 Y-25.94067
G01 X32.50105 Y-25.97605
G01 X32.50126 Y-25.97587
G01 X32.50105 Y-25.97605
G01 X32.50314 Y-25.97831
G01 X32.55587 Y-26.03647
G01 X32.55991 Y-26.04115
G01 X32.62348 Y-26.11864
G01 X32.62724 Y-26.12347
G01 X32.67446 Y-26.18712
G01 X32.67487 Y-26.18684
G01 X32.67446 Y-26.18712
G01 X32.67802 Y-26.19220
G01 X32.73735 Y-26.28110
G01 X32.74063 Y-26.28626
G01 X32.78683 Y-26.36345
G01 X32.79513 Y-26.38001
G01 X32.80194 Y-26.37772
G01 X32.79513 Y-26.38001
G01 X32.80093 Y-26.39759
G01 X32.80402 Y-26.41587
G01 X32.81365 Y-26.51730
G01 X32.81406 Y-26.52299
G01 X32.81792 Y-26.60142
G01 X32.81802 Y-26.60449
G01 X32.81937 Y-26.65885
G01 X32.81939 Y-26.66190
G01 X32.81942 Y-34.91690
G01 X32.81937 Y-34.92000
G01 X32.81805 Y-34.97435
G01 X32.81792 Y-34.97743
G01 X32.81406 Y-35.05584
G01 X32.81365 Y-35.06150
G01 X32.80402 Y-35.16305
G01 X32.80093 Y-35.18131
G01 X32.79513 Y-35.19891
G01 X32.80194 Y-35.20120
G01 X32.79513 Y-35.19891
G01 X32.78683 Y-35.21548
G01 X32.74068 Y-35.29254
G01 X32.73740 Y-35.29772
G01 X32.67807 Y-35.38662
G01 X32.67451 Y-35.39168
G01 X32.67492 Y-35.39198
G01 X32.67451 Y-35.39168
G01 X32.62729 Y-35.45535
G01 X32.62353 Y-35.46018
G01 X32.55993 Y-35.53770
G01 X32.55589 Y-35.54237
G01 X32.50316 Y-35.60054
G01 X32.50108 Y-35.60277
G01 X32.50131 Y-35.60298
G01 X32.50108 Y-35.60277
G01 X32.46740 Y-35.63816
G01 X32.46526 Y-35.64034
G01 X31.19526 Y-36.91034
G01 X31.19308 Y-36.91247
G01 X31.15770 Y-36.94616
G01 X31.15546 Y-36.94824
G01 X31.09730 Y-37.00097
G01 X31.09260 Y-37.00501
G01 X31.01510 Y-37.06858
G01 X31.01028 Y-37.07234
G01 X30.94660 Y-37.11959
G01 X30.94706 Y-37.12022
G01 X30.94660 Y-37.11959
G01 X30.94154 Y-37.12314
G01 X30.85264 Y-37.18248
G01 X30.84746 Y-37.18575
G01 X30.77050 Y-37.23183
G01 X30.75394 Y-37.24016
G01 X30.73634 Y-37.24593
G01 X30.73847 Y-37.25271
G01 X30.73634 Y-37.24593
G01 X30.71808 Y-37.24905
G01 X30.61642 Y-37.25868
G01 X30.61076 Y-37.25908
G01 X30.53235 Y-37.26294
G01 X30.52928 Y-37.26307
G01 X30.47492 Y-37.26439
G01 X30.47185 Y-37.26444
G01 X24.75697 Y-37.26457
G01 X24.75393 Y-37.26439
G01 X24.69957 Y-37.26307
G01 X24.69650 Y-37.26294
G01 X24.61806 Y-37.25908
G01 X24.61192 Y-37.25863
G01 X24.50160 Y-37.24775
G01 X24.49556 Y-37.24699
G01 X24.49548 Y-37.24750
G01 X24.49556 Y-37.24699
G01 X24.41715 Y-37.23536
G01 X24.41105 Y-37.23432
G01 X24.29510 Y-37.21120
G01 X24.28918 Y-37.20986
G01 X24.21776 Y-37.19198
G01 X24.21077 Y-37.19022
G01 X24.20475 Y-37.18855
G01 X24.20468 Y-37.18885
G01 X24.20475 Y-37.18855
G01 X24.07869 Y-37.15022
G01 X24.07295 Y-37.14831
G01 X23.99454 Y-37.12025
G01 X23.99160 Y-37.11933
G01 X23.92286 Y-37.09261
G01 X23.92004 Y-37.09149
G01 X23.55911 Y-36.94199
G01 X21.42330 Y-36.94199
G01 X21.41543 Y-36.96101
G01 X21.42330 Y-36.94199
G01 X20.14919 Y-35.66795
G01 X20.12620 Y-35.67659
G01 X20.14919 Y-35.66795
G01 X20.15338 Y-35.62551
G01 X20.15698 Y-35.55200
G01 X20.15338 Y-35.47847
G01 X20.13415 Y-35.28339
G01 X20.10547 Y-35.13917
G01 X20.04858 Y-34.95159
G01 X20.02379 Y-34.88230
G01 X19.99232 Y-34.81576
G01 X19.89991 Y-34.64286
G01 X19.81822 Y-34.52063
G01 X19.72496 Y-34.40697
G01 X19.36867 Y-34.40697
G01 X18.90596 Y-34.40697
G01 X19.36867 Y-34.40697
G01 X19.43128 Y-34.45838
G01 X19.50060 Y-34.52769
G01 X19.62496 Y-34.67923
G01 X19.67941 Y-34.76071
G01 X19.77182 Y-34.93361
G01 X19.79280 Y-34.97796
G01 X19.80933 Y-35.02416
G01 X19.86626 Y-35.21177
G01 X19.88536 Y-35.30788
G01 X19.90458 Y-35.50298
G01 X19.90700 Y-35.55200
G01 X19.90458 Y-35.60100
G01 X19.88881 Y-35.76112
G01 X19.86455 Y-35.76996
G01 X19.88881 Y-35.76112
G01 X21.31977 Y-37.19198
G01 X21.31187 Y-37.21103
G01 X21.31977 Y-37.19198
G01 X24.21776 Y-37.19198
G01 X23.78426 Y-36.76465
G01 X20.32462 Y-33.35426
G01 X19.90209 Y-32.93776
G01 X19.90458 Y-32.96298
G01 X19.90700 Y-33.01200
G01 X19.90458 Y-33.06100
G01 X19.88536 Y-33.25609
G01 X19.86626 Y-33.35221
G01 X19.80933 Y-33.53981
G01 X19.79280 Y-33.58601
G01 X19.77182 Y-33.63036
G01 X19.67941 Y-33.80326
G01 X19.62496 Y-33.88474
G01 X19.50060 Y-34.03628
G01 X19.43128 Y-34.10560
G01 X19.36869 Y-34.15698
G01 X18.90601 Y-34.15698
G01 X18.86224 Y-34.17509
G01 X18.90601 Y-34.15698
G01 X19.36869 Y-34.15698
G01 X19.72496 Y-34.15698
G01 X19.81822 Y-34.04334
G01 X19.89991 Y-33.92112
G01 X19.99232 Y-33.74822
G01 X20.02379 Y-33.68167
G01 X20.04858 Y-33.61238
G01 X20.09511 Y-33.45899
G01 X20.05422 Y-33.32363
G01 X19.98325 Y-33.12526
G01 X19.93138 Y-32.99966
G01 X19.90209 Y-32.93776
G01 X19.84497 Y-32.81698
G01 X19.79437 Y-32.72216
G01 X19.69366 Y-32.55411
G01 X19.64378 Y-32.47936
G01 X19.52940 Y-32.32513
G01 X19.47860 Y-32.26323
G01 X19.35089 Y-32.12234
G01 X19.29658 Y-32.06803
G01 X19.15574 Y-31.94035
G01 X19.09387 Y-31.88960
G01 X19.06336 Y-31.86697
G01 X18.90593 Y-31.86697
G01 X18.86224 Y-31.84888
G01 X18.67464 Y-31.79196
G01 X18.62658 Y-31.78241
G01 X18.43149 Y-31.76318
G01 X18.40700 Y-31.76199
G01 X18.38249 Y-31.76318
G01 X18.18739 Y-31.78241
G01 X18.13933 Y-31.79196
G01 X17.95173 Y-31.84888
G01 X17.90802 Y-31.86697
G01 X17.90644 Y-31.86763
G01 X17.73357 Y-31.96003
G01 X17.71251 Y-31.97266
G01 X17.69283 Y-31.98726
G01 X17.54129 Y-32.11162
G01 X17.52311 Y-32.12811
G01 X17.50662 Y-32.14629
G01 X17.38226 Y-32.29783
G01 X17.35503 Y-32.33857
G01 X17.34251 Y-32.36199
G01 X10.78697 Y-32.36199
G01 X10.76737 Y-32.36275
G01 X10.70481 Y-32.36768
G01 X10.66605 Y-32.37382
G01 X10.60501 Y-32.38848
G01 X10.56772 Y-32.40060
G01 X10.50971 Y-32.42462
G01 X10.47476 Y-32.44243
G01 X10.42124 Y-32.47522
G01 X10.38952 Y-32.49829
G01 X10.34179 Y-32.53905
G01 X10.32736 Y-32.55236
G01 X9.05736 Y-33.82236
G01 X9.04090 Y-33.84055
G01 X8.99114 Y-33.90115
G01 X8.96392 Y-33.94192
G01 X8.92696 Y-34.01106
G01 X8.91647 Y-34.03323
G01 X8.90821 Y-34.05635
G01 X8.88543 Y-34.13138
G01 X8.87588 Y-34.17943
G01 X8.86818 Y-34.25749
G01 X8.86699 Y-34.28200
G01 X8.86699 Y-36.82200
G01 X8.86818 Y-36.84649
G01 X8.87588 Y-36.92454
G01 X8.88543 Y-36.97260
G01 X8.90821 Y-37.04763
G01 X8.91647 Y-37.07074
G01 X8.92696 Y-37.09292
G01 X8.96392 Y-37.16206
G01 X8.99114 Y-37.20282
G01 X9.04090 Y-37.26343
G01 X9.05736 Y-37.28161
G01 X12.23236 Y-40.45661
G01 X12.24679 Y-40.46992
G01 X12.29452 Y-40.51069
G01 X12.32624 Y-40.53375
G01 X12.37976 Y-40.56654
G01 X12.41471 Y-40.58435
G01 X12.47272 Y-40.60838
G01 X12.51001 Y-40.62049
G01 X12.57105 Y-40.63515
G01 X12.60981 Y-40.64130
G01 X12.67237 Y-40.64622
G01 X12.69200 Y-40.64699
G01 X31.74200 Y-40.64699
G01 X31.76649 Y-40.64579
G01 X31.84454 Y-40.63810
G01 X31.89260 Y-40.62855
G01 X31.96763 Y-40.60576
G01 X31.99074 Y-40.59751
G01 X32.01292 Y-40.58702
G01 X32.08206 Y-40.55006
G01 X32.12282 Y-40.52283
G01 X32.18343 Y-40.47307
G01 X32.20161 Y-40.45661
G01 X36.01161 Y-36.64661
G01 X36.02807 Y-36.62843
G01 X36.07783 Y-36.56782
G01 X36.10506 Y-36.52706
G01 X36.14202 Y-36.45792
G01 X36.15251 Y-36.43574
G01 X36.16076 Y-36.41263
G01 X36.18355 Y-36.33760
G01 X36.19310 Y-36.28954
G01 X36.20079 Y-36.21149
G01 X36.20199 Y-36.18700
G01 X36.20199 Y-22.85200
G01 X36.20122 Y-22.83237
G01 X36.19630 Y-22.76981
G01 X36.19015 Y-22.73105
G01 X36.17549 Y-22.67001
G01 X36.16338 Y-22.63272
G01 X36.13935 Y-22.57471
G01 X36.12154 Y-22.53976
G01 X36.08875 Y-22.48624
G01 X36.06569 Y-22.45452
G01 X36.02492 Y-22.40679
G01 X36.01161 Y-22.39236
G01 X30.93161 Y-17.31236
G01 X30.91343 Y-17.29590
G01 X30.85282 Y-17.24614
G01 X30.81206 Y-17.21891
G01 X30.74292 Y-17.18196
G01 X30.72074 Y-17.17147
G01 X30.69763 Y-17.16321
G01 X30.62260 Y-17.14043
G01 X30.57454 Y-17.13088
G01 X30.49649 Y-17.12318
G01 X30.47200 Y-17.12199
G01 X29.63118 Y-17.12199
G01 X29.61869 Y-17.09857
G01 X29.60606 Y-17.07751
G01 X29.59146 Y-17.05783
G01 X29.46707 Y-16.90629
G01 X29.45062 Y-16.88811
G01 X29.43243 Y-16.87162
G01 X29.28089 Y-16.74726
G01 X29.24015 Y-16.72003
G01 X29.06725 Y-16.62763
G01 X29.06588 Y-16.62697
G01 X29.04508 Y-16.61714
G01 X29.02199 Y-16.60888
G01 X28.83439 Y-16.55196
G01 X28.78633 Y-16.54241
G01 X28.59123 Y-16.52318
G01 X28.56672 Y-16.52199
G01 X28.54223 Y-16.52318
G01 X28.34714 Y-16.54241
G01 X28.29906 Y-16.55196
G01 X28.11148 Y-16.60888
G01 X28.08836 Y-16.61714
G01 X28.06756 Y-16.62697
G01 X28.06619 Y-16.62763
G01 X27.89332 Y-16.72003
G01 X27.85255 Y-16.74726
G01 X27.70101 Y-16.87162
G01 X27.68285 Y-16.88811
G01 X27.66637 Y-16.90629
G01 X27.54201 Y-17.05783
G01 X27.52738 Y-17.07751
G01 X27.51478 Y-17.09857
G01 X27.42237 Y-17.27144
G01 X27.42171 Y-17.27304
G01 X27.42237 Y-17.27144
G01 X27.51478 Y-17.09857
G01 X27.52738 Y-17.07751
G01 X27.54201 Y-17.05783
G01 X27.66637 Y-16.90629
G01 X27.68285 Y-16.88811
G01 X27.70101 Y-16.87162
G01 X27.85255 Y-16.74726
G01 X27.89332 Y-16.72003
G01 X28.06619 Y-16.62763
G01 X28.06756 Y-16.62697
G01 X27.60505 Y-16.62697
G01 X27.42171 Y-16.62697
G01 X27.42171 Y-16.81033
G01 X27.47312 Y-16.74769
G01 X27.54241 Y-16.67838
G01 X27.60505 Y-16.62697
G01 X27.54241 Y-16.67838
G01 X27.47312 Y-16.74769
G01 X27.42171 Y-16.81033
G01 X27.42171 Y-17.27304
G01 X27.40360 Y-17.31673
G01 X27.34671 Y-17.50433
G01 X27.33716 Y-17.55239
G01 X27.31793 Y-17.74749
G01 X27.31674 Y-17.77200
G01 X27.31793 Y-17.79649
G01 X27.33716 Y-17.99158
G01 X27.34671 Y-18.03964
G01 X27.40360 Y-18.22724
G01 X27.42171 Y-18.27093
G01 X27.42237 Y-18.27253
G01 X27.51478 Y-18.44540
G01 X27.52738 Y-18.46646
G01 X27.54201 Y-18.48615
G01 X27.66637 Y-18.63768
G01 X27.68285 Y-18.65587
G01 X27.70101 Y-18.67235
G01 X27.85255 Y-18.79671
G01 X27.89332 Y-18.82394
G01 X28.06619 Y-18.91635
G01 X28.06751 Y-18.91698
G01 X28.06619 Y-18.91635
G01 X27.89332 Y-18.82394
G01 X27.85255 Y-18.79671
G01 X27.70101 Y-18.67235
G01 X27.68285 Y-18.65587
G01 X27.66637 Y-18.63768
G01 X27.54201 Y-18.48615
G01 X27.52738 Y-18.46646
G01 X27.51478 Y-18.44540
G01 X27.42237 Y-18.27253
G01 X27.42171 Y-18.27093
G01 X27.42171 Y-18.73364
G01 X27.42171 Y-18.91698
G01 X27.60503 Y-18.91698
G01 X27.54241 Y-18.86560
G01 X27.47312 Y-18.79628
G01 X27.42171 Y-18.73364
G01 X27.47312 Y-18.79628
G01 X27.54241 Y-18.86560
G01 X27.60503 Y-18.91698
G01 X28.06751 Y-18.91698
G01 X28.08836 Y-18.92684
G01 X28.11148 Y-18.93509
G01 X28.29906 Y-18.99201
G01 X28.34714 Y-19.00156
G01 X28.54223 Y-19.02079
G01 X28.56672 Y-19.02198
G01 X28.59123 Y-19.02079
G01 X28.78633 Y-19.00156
G01 X28.83439 Y-18.99201
G01 X29.02199 Y-18.93509
G01 X29.04508 Y-18.92684
G01 X29.06725 Y-18.91635
G01 X29.24015 Y-18.82394
G01 X29.28089 Y-18.79671
G01 X29.43243 Y-18.67235
G01 X29.45062 Y-18.65587
G01 X29.46707 Y-18.63768
G01 X29.59146 Y-18.48615
G01 X29.60606 Y-18.46646
G01 X29.61869 Y-18.44540
G01 X29.63118 Y-18.42199
G01 X30.20273 Y-18.42199
G01 X34.90199 Y-23.12121
G01 X34.90199 Y-35.91776
G01 X31.47276 Y-39.34699
G01 X12.96124 Y-39.34699
G01 X10.16699 Y-36.55276
G01 X10.16699 Y-34.55124
G01 X11.05621 Y-33.66199
G01 X17.34251 Y-33.66199
G01 X17.35503 Y-33.68540
G01 X17.38226 Y-33.72615
G01 X17.50662 Y-33.87768
G01 X17.52311 Y-33.89587
G01 X17.54129 Y-33.91235
G01 X17.69283 Y-34.03671
G01 X17.71251 Y-34.05132
G01 X17.73357 Y-34.06394
G01 X17.90644 Y-34.15635
G01 X17.90797 Y-34.15698
G01 X17.95173 Y-34.17509
G01 X18.13933 Y-34.23201
G01 X18.18739 Y-34.24156
G01 X18.38249 Y-34.26079
G01 X18.40700 Y-34.26198
G01 X18.43149 Y-34.26079
G01 X18.62658 Y-34.24156
G01 X18.67464 Y-34.23201
G01 X18.86224 Y-34.17509
G01 X18.90753 Y-34.15635
G01 X19.08040 Y-34.06394
G01 X19.10146 Y-34.05132
G01 X19.12115 Y-34.03671
G01 X19.27268 Y-33.91235
G01 X19.29087 Y-33.89587
G01 X19.30735 Y-33.87768
G01 X19.43171 Y-33.72615
G01 X19.45894 Y-33.68540
G01 X19.55135 Y-33.51253
G01 X19.56184 Y-33.49033
G01 X19.57009 Y-33.46724
G01 X19.62701 Y-33.27964
G01 X19.63656 Y-33.23158
G01 X19.65579 Y-33.03649
G01 X19.65698 Y-33.01200
G01 X19.65579 Y-32.98749
G01 X19.63656 Y-32.79239
G01 X19.62701 Y-32.74433
G01 X19.57009 Y-32.55673
G01 X19.56184 Y-32.53364
G01 X19.55135 Y-32.51144
G01 X19.45894 Y-32.33857
G01 X19.43171 Y-32.29783
G01 X19.30735 Y-32.14629
G01 X19.29087 Y-32.12811
G01 X19.27268 Y-32.11162
G01 X19.12115 Y-31.98726
G01 X19.10146 Y-31.97266
G01 X19.08040 Y-31.96003
G01 X18.90753 Y-31.86763
G01 X18.90593 Y-31.86697
G01 X18.86224 Y-31.84888
G01 X18.67464 Y-31.79196
G01 X18.62658 Y-31.78241
G01 X18.43149 Y-31.76318
G01 X18.40700 Y-31.76199
G01 X18.38249 Y-31.76318
G01 X18.18739 Y-31.78241
G01 X18.13933 Y-31.79196
G01 X17.95173 Y-31.84888
G01 X17.90802 Y-31.86697
G01 X17.49372 Y-31.86697
G01 X17.49280 Y-31.86859
G01 X17.47109 Y-31.90560
G01 X17.47015 Y-31.90718
G01 X17.45186 Y-31.93733
G01 X17.45089 Y-31.93890
G01 X17.39250 Y-32.03204
G01 X17.39026 Y-32.03547
G01 X17.35117 Y-32.09351
G01 X17.35166 Y-32.09387
G01 X17.35117 Y-32.09351
G01 X17.34884 Y-32.09689
G01 X17.32486 Y-32.13009
G01 X17.32346 Y-32.13194
G01 X17.30002 Y-32.16316
G01 X17.28498 Y-32.17982
G01 X17.26723 Y-32.19354
G01 X17.27177 Y-32.19986
G01 X17.26723 Y-32.19354
G01 X17.24729 Y-32.20385
G01 X17.08767 Y-32.26895
G01 X17.07774 Y-32.27250
G01 X17.03758 Y-32.28505
G01 X17.03791 Y-32.28619
G01 X17.03758 Y-32.28505
G01 X17.02565 Y-32.28815
G01 X16.85417 Y-32.32363
G01 X16.84147 Y-32.32559
G01 X16.80101 Y-32.32968
G01 X16.79473 Y-32.33016
G01 X16.79484 Y-32.33120
G01 X16.79473 Y-32.33016
G01 X16.71302 Y-32.33430
G01 X16.70670 Y-32.33448
G01 X10.79594 Y-32.33448
G01 X10.76056 Y-32.33552
G01 X10.74679 Y-32.33626
G01 X10.70536 Y-32.33979
G01 X10.66554 Y-32.34576
G01 X10.62365 Y-32.35518
G01 X10.60145 Y-32.36090
G01 X10.58525 Y-32.36532
G01 X10.55220 Y-32.37695
G01 X10.54915 Y-32.37809
G01 X10.50666 Y-32.39569
G01 X10.50384 Y-32.39696
G01 X10.47268 Y-32.41190
G01 X10.45771 Y-32.42046
G01 X10.43770 Y-32.43227
G01 X10.40178 Y-32.45493
G01 X10.36950 Y-32.47893
G01 X10.33704 Y-32.50618
G01 X10.32729 Y-32.51497
G01 X10.30125 Y-32.53948
G01 X9.03963 Y-33.80125
G01 X9.01558 Y-33.82724
G01 X9.01210 Y-33.83118
G01 X8.98378 Y-33.86554
G01 X8.97237 Y-33.88017
G01 X8.95957 Y-33.89719
G01 X8.93803 Y-33.93115
G01 X8.91751 Y-33.96836
G01 X8.89940 Y-34.00420
G01 X8.88396 Y-34.04144
G01 X8.87123 Y-34.08022
G01 X8.85967 Y-34.12018
G01 X8.85078 Y-34.16000
G01 X8.84776 Y-34.18116
G01 X8.84542 Y-34.19963
G01 X8.84131 Y-34.24301
G01 X8.84093 Y-34.24873
G01 X8.83953 Y-34.28520
