( pcb2gcode 2.5.0 )
( Software-independent Gcode )

G94 ( Millimeters per minute feed rate. )
G21 ( Units == Millimeters. )

G90 ( Absolute coordinates. )
G00 S10000 ( RPM spindle speed. )
G64 P0.01000 ( set maximum deviation from commanded toolpath )
G01 F120.00000 ( Feedrate. )


G00 Z10.00000 (Retract to tool change height)
T1
M5      (Spindle stop.)
G04 P1.00000 (Wait for spindle to stop)
(MSG, Change tool bit to mill diameter 0.50000mm)
M6      (Tool change.)
M0      (Temporary machine stop.)
M3 ( Spindle on clockwise. )
G04 P1.00000 (Wait for spindle to get up to speed)
G04 P0 ( dwell for no time -- G64 should not smooth over this point )
G00 Z5.00000 ( retract )

G00 X27.66794 Y-38.87198 ( rapid move to begin. )
G01 F60.00000
( Mill infeed pass 1/1 )
G01 Z-0.15000
G04 P0 ( dwell for no time -- G64 should not smooth over this point )
G01 F120.00000
G01 X27.66794 Y-38.87198
G01 X27.20526 Y-38.87198
G01 X27.02194 Y-38.87198
G01 X27.02194 Y-39.05529
G01 X27.07335 Y-38.99265
G01 X27.14264 Y-38.92334
G01 X27.20526 Y-38.87198
G01 X27.14264 Y-38.92334
G01 X27.07335 Y-38.99265
G01 X27.02194 Y-39.05529
G01 X27.02194 Y-39.51800
G01 X27.02260 Y-39.51643
G01 X27.11501 Y-39.34353
G01 X27.12763 Y-39.32250
G01 X27.14224 Y-39.30279
G01 X27.26660 Y-39.15125
G01 X27.30124 Y-39.11658
G01 X27.45278 Y-38.99222
G01 X27.47249 Y-38.97762
G01 X27.49355 Y-38.96499
G01 X27.66642 Y-38.87259
G01 X27.66794 Y-38.87198
G01 X27.66799 Y-38.62197
G01 X27.20528 Y-38.62197
G01 X27.02194 Y-38.62197
G01 X27.02194 Y-38.43860
G01 X27.07335 Y-38.50127
G01 X27.14264 Y-38.57056
G01 X27.20528 Y-38.62197
G01 X27.14264 Y-38.57056
G01 X27.07335 Y-38.50127
G01 X27.02194 Y-38.43860
G01 X27.02194 Y-37.97610
G01 X27.02260 Y-37.97749
G01 X27.11501 Y-38.15037
G01 X27.14224 Y-38.19113
G01 X27.26660 Y-38.34267
G01 X27.30124 Y-38.37731
G01 X27.45278 Y-38.50167
G01 X27.47249 Y-38.51628
G01 X27.49355 Y-38.52890
G01 X27.66642 Y-38.62131
G01 X27.66799 Y-38.62197
G01 X27.71171 Y-38.64008
G01 X27.89928 Y-38.69697
G01 X27.92308 Y-38.70294
G01 X27.94737 Y-38.70652
G01 X28.14246 Y-38.72575
G01 X28.19146 Y-38.72575
G01 X28.38656 Y-38.70652
G01 X28.41082 Y-38.70294
G01 X28.43462 Y-38.69697
G01 X28.62222 Y-38.64008
G01 X28.66748 Y-38.62131
G01 X28.84035 Y-38.52890
G01 X28.88112 Y-38.50167
G01 X29.03266 Y-38.37731
G01 X29.05084 Y-38.36083
G01 X29.06733 Y-38.34267
G01 X29.19169 Y-38.19113
G01 X29.21892 Y-38.15037
G01 X29.31132 Y-37.97749
G01 X29.33007 Y-37.93220
G01 X29.38699 Y-37.74463
G01 X29.39293 Y-37.72083
G01 X29.39654 Y-37.69654
G01 X29.41574 Y-37.50145
G01 X29.41574 Y-37.45245
G01 X29.39654 Y-37.25738
G01 X29.39293 Y-37.23310
G01 X29.38699 Y-37.20930
G01 X29.33007 Y-37.02169
G01 X29.31132 Y-36.97643
G01 X29.21892 Y-36.80353
G01 X29.19169 Y-36.76279
G01 X29.06733 Y-36.61125
G01 X29.05084 Y-36.59307
G01 X29.03266 Y-36.57658
G01 X28.88112 Y-36.45222
G01 X28.84035 Y-36.42499
G01 X28.66748 Y-36.33259
G01 X28.64531 Y-36.32210
G01 X28.62222 Y-36.31384
G01 X28.43462 Y-36.25692
G01 X28.38656 Y-36.24737
G01 X28.19146 Y-36.22814
G01 X28.14246 Y-36.22814
G01 X27.94737 Y-36.24737
G01 X27.89928 Y-36.25692
G01 X27.71171 Y-36.31384
G01 X27.68859 Y-36.32210
G01 X27.66642 Y-36.33259
G01 X27.49355 Y-36.42499
G01 X27.45278 Y-36.45222
G01 X27.30124 Y-36.57658
G01 X27.28303 Y-36.59307
G01 X27.26660 Y-36.61125
G01 X27.14224 Y-36.76279
G01 X27.11501 Y-36.80353
G01 X27.02260 Y-36.97643
G01 X27.00383 Y-37.02169
G01 X26.94694 Y-37.20930
G01 X26.94097 Y-37.23310
G01 X26.93739 Y-37.25738
G01 X26.91816 Y-37.45245
G01 X26.91816 Y-37.50145
G01 X26.93739 Y-37.69654
G01 X26.94097 Y-37.72083
G01 X26.94694 Y-37.74463
G01 X27.00383 Y-37.93220
G01 X27.01211 Y-37.95532
G01 X27.02194 Y-37.97610
G01 X27.02260 Y-37.97749
G01 X27.11501 Y-38.15037
G01 X27.14224 Y-38.19113
G01 X27.26660 Y-38.34267
G01 X27.30124 Y-38.37731
G01 X27.45278 Y-38.50167
G01 X27.47249 Y-38.51628
G01 X27.49355 Y-38.52890
G01 X27.66642 Y-38.62131
G01 X27.66799 Y-38.62197
G01 X27.66794 Y-38.87198
G01 X27.66642 Y-38.87259
G01 X27.49355 Y-38.96499
G01 X27.47249 Y-38.97762
G01 X27.45278 Y-38.99222
G01 X27.30124 Y-39.11658
G01 X27.26660 Y-39.15125
G01 X27.14224 Y-39.30279
G01 X27.12763 Y-39.32250
G01 X27.11501 Y-39.34353
G01 X27.02260 Y-39.51643
G01 X27.02194 Y-39.51800
G01 X27.00383 Y-39.56169
G01 X26.94694 Y-39.74930
G01 X26.94097 Y-39.77310
G01 X26.93739 Y-39.79735
G01 X26.91816 Y-39.99245
G01 X26.91816 Y-40.04145
G01 X26.93739 Y-40.23654
G01 X26.94097 Y-40.26083
G01 X26.94694 Y-40.28463
G01 X27.00383 Y-40.47220
G01 X27.01211 Y-40.49532
G01 X27.02260 Y-40.51754
G01 X27.11501 Y-40.69037
G01 X27.14224 Y-40.73113
G01 X27.26660 Y-40.88267
G01 X27.28303 Y-40.90083
G01 X27.30124 Y-40.91731
G01 X27.45278 Y-41.04167
G01 X27.49355 Y-41.06890
G01 X27.66642 Y-41.16131
G01 X27.71171 Y-41.18008
G01 X27.89928 Y-41.23697
G01 X27.92308 Y-41.24294
G01 X27.94737 Y-41.24652
G01 X28.14246 Y-41.26575
G01 X28.19146 Y-41.26575
G01 X28.38656 Y-41.24652
G01 X28.41082 Y-41.24294
G01 X28.43462 Y-41.23697
G01 X28.62222 Y-41.18008
G01 X28.66748 Y-41.16131
G01 X28.84035 Y-41.06890
G01 X28.86141 Y-41.05628
G01 X28.88112 Y-41.04167
G01 X29.03266 Y-40.91731
G01 X29.06733 Y-40.88267
G01 X29.19169 Y-40.73113
G01 X29.20629 Y-40.71142
G01 X29.21892 Y-40.69037
G01 X29.31132 Y-40.51754
G01 X29.33007 Y-40.47220
G01 X29.38699 Y-40.28463
G01 X29.39293 Y-40.26083
G01 X29.39654 Y-40.23654
G01 X29.41574 Y-40.04145
G01 X29.41574 Y-39.99245
G01 X29.39654 Y-39.79735
G01 X29.39293 Y-39.77310
G01 X29.38699 Y-39.74930
G01 X29.33007 Y-39.56169
G01 X29.31132 Y-39.51643
G01 X29.21892 Y-39.34353
G01 X29.20629 Y-39.32250
G01 X29.19169 Y-39.30279
G01 X29.06733 Y-39.15125
G01 X29.03266 Y-39.11658
G01 X28.88112 Y-38.99222
G01 X28.84035 Y-38.96499
G01 X28.66748 Y-38.87259
G01 X28.62222 Y-38.85384
G01 X28.43462 Y-38.79692
G01 X28.41082 Y-38.79098
G01 X28.38656 Y-38.78737
G01 X28.19146 Y-38.76814
G01 X28.16695 Y-38.76695
G01 X28.14246 Y-38.76814
G01 X27.94737 Y-38.78737
G01 X27.92308 Y-38.79098
G01 X27.89928 Y-38.79692
G01 X27.71171 Y-38.85384
G01 X27.66794 Y-38.87198
G01 X26.08222 Y-38.85384
G01 X26.12598 Y-38.87198
G01 X26.58867 Y-38.87198
G01 X26.65126 Y-38.92334
G01 X26.72057 Y-38.99265
G01 X26.77193 Y-39.05524
G01 X26.72057 Y-38.99265
G01 X26.65126 Y-38.92334
G01 X26.58867 Y-38.87198
G01 X26.77193 Y-38.87198
G01 X26.77193 Y-39.05524
G01 X26.77193 Y-39.51790
G01 X26.79007 Y-39.56169
G01 X26.84699 Y-39.74930
G01 X26.85293 Y-39.77310
G01 X26.85654 Y-39.79735
G01 X26.87574 Y-39.99245
G01 X26.87574 Y-40.04145
G01 X26.85654 Y-40.23654
G01 X26.85293 Y-40.26083
G01 X26.84699 Y-40.28463
G01 X26.79007 Y-40.47220
G01 X26.77132 Y-40.51754
G01 X26.67892 Y-40.69037
G01 X26.66629 Y-40.71142
G01 X26.65169 Y-40.73113
G01 X26.52733 Y-40.88267
G01 X26.49266 Y-40.91731
G01 X26.34112 Y-41.04167
G01 X26.30038 Y-41.06890
G01 X26.12748 Y-41.16131
G01 X26.08222 Y-41.18008
G01 X25.89462 Y-41.23697
G01 X25.87082 Y-41.24294
G01 X25.84656 Y-41.24652
G01 X25.65146 Y-41.26575
G01 X25.60249 Y-41.26575
G01 X25.40739 Y-41.24652
G01 X25.38311 Y-41.24294
G01 X25.35931 Y-41.23697
G01 X25.17173 Y-41.18008
G01 X25.12644 Y-41.16131
G01 X24.95357 Y-41.06890
G01 X24.91280 Y-41.04167
G01 X24.76127 Y-40.91731
G01 X24.74311 Y-40.90083
G01 X24.72662 Y-40.88267
G01 X24.60226 Y-40.73113
G01 X24.57503 Y-40.69037
G01 X24.48263 Y-40.51754
G01 X24.46386 Y-40.47220
G01 X24.40696 Y-40.28463
G01 X24.40099 Y-40.26083
G01 X24.39741 Y-40.23654
G01 X24.37818 Y-40.04145
G01 X24.37818 Y-39.99245
G01 X24.39741 Y-39.79735
G01 X24.40099 Y-39.77310
G01 X24.40696 Y-39.74930
G01 X24.46386 Y-39.56169
G01 X24.48199 Y-39.51793
G01 X24.48263 Y-39.51643
G01 X24.57503 Y-39.34353
G01 X24.58766 Y-39.32250
G01 X24.60226 Y-39.30279
G01 X24.72662 Y-39.15125
G01 X24.76127 Y-39.11658
G01 X24.91280 Y-38.99222
G01 X24.93251 Y-38.97762
G01 X24.95357 Y-38.96499
G01 X25.12644 Y-38.87259
G01 X25.12794 Y-38.87198
G01 X25.12644 Y-38.87259
G01 X24.95357 Y-38.96499
G01 X24.93251 Y-38.97762
G01 X24.91280 Y-38.99222
G01 X24.76127 Y-39.11658
G01 X24.72662 Y-39.15125
G01 X24.60226 Y-39.30279
G01 X24.58766 Y-39.32250
G01 X24.57503 Y-39.34353
G01 X24.48263 Y-39.51643
G01 X24.48199 Y-39.51793
G01 X24.48199 Y-39.05524
G01 X24.48199 Y-38.87198
G01 X24.66528 Y-38.87198
G01 X24.60267 Y-38.92334
G01 X24.53338 Y-38.99265
G01 X24.48199 Y-39.05524
G01 X24.53338 Y-38.99265
G01 X24.60267 Y-38.92334
G01 X24.66528 Y-38.87198
G01 X25.12794 Y-38.87198
G01 X25.17173 Y-38.85384
G01 X25.35931 Y-38.79692
G01 X25.38311 Y-38.79098
G01 X25.40739 Y-38.78737
G01 X25.60249 Y-38.76814
G01 X25.62695 Y-38.76695
G01 X25.65146 Y-38.76814
G01 X25.84656 Y-38.78737
G01 X25.87082 Y-38.79098
G01 X25.89462 Y-38.79692
G01 X26.08222 Y-38.85384
G01 X26.12598 Y-38.87198
G01 X26.12748 Y-38.87259
G01 X26.30038 Y-38.96499
G01 X26.32141 Y-38.97762
G01 X26.34112 Y-38.99222
G01 X26.49266 Y-39.11658
G01 X26.52733 Y-39.15125
G01 X26.65169 Y-39.30279
G01 X26.66629 Y-39.32250
G01 X26.67892 Y-39.34353
G01 X26.77132 Y-39.51643
G01 X26.77193 Y-39.51790
G04 P0 ( dwell for no time -- G64 should not smooth over this point )
G00 Z5.00000 ( retract )

G00 X25.12802 Y-38.62197 ( rapid move to begin. )
G01 F60.00000
( Mill infeed pass 1/1 )
G01 Z-0.15000
G04 P0 ( dwell for no time -- G64 should not smooth over this point )
G01 F120.00000
G01 X25.12802 Y-38.62197
G01 X24.66533 Y-38.62197
G01 X24.48199 Y-38.62197
G01 X24.48199 Y-38.43866
G01 X24.53338 Y-38.50127
G01 X24.60267 Y-38.57056
G01 X24.66533 Y-38.62197
G01 X24.60267 Y-38.57056
G01 X24.53338 Y-38.50127
G01 X24.48199 Y-38.43866
G01 X24.48199 Y-37.97599
G01 X24.46386 Y-37.93220
G01 X24.40696 Y-37.74463
G01 X24.40099 Y-37.72083
G01 X24.39741 Y-37.69654
G01 X24.37818 Y-37.50145
G01 X24.37818 Y-37.45245
G01 X24.39741 Y-37.25738
G01 X24.40099 Y-37.23310
G01 X24.40696 Y-37.20930
G01 X24.46386 Y-37.02169
G01 X24.48263 Y-36.97643
G01 X24.57503 Y-36.80353
G01 X24.60226 Y-36.76279
G01 X24.72662 Y-36.61125
G01 X24.74311 Y-36.59307
G01 X24.76127 Y-36.57658
G01 X24.91280 Y-36.45222
G01 X24.93251 Y-36.43762
G01 X24.95357 Y-36.42499
G01 X25.12644 Y-36.33259
G01 X25.14862 Y-36.32210
G01 X25.17173 Y-36.31384
G01 X25.35931 Y-36.25692
G01 X25.40739 Y-36.24737
G01 X25.60249 Y-36.22814
G01 X25.65146 Y-36.22814
G01 X25.84656 Y-36.24737
G01 X25.87082 Y-36.25098
G01 X25.89462 Y-36.25692
G01 X26.08222 Y-36.31384
G01 X26.10531 Y-36.32210
G01 X26.12748 Y-36.33259
G01 X26.30038 Y-36.42499
G01 X26.32141 Y-36.43762
G01 X26.34112 Y-36.45222
G01 X26.49266 Y-36.57658
G01 X26.51084 Y-36.59307
G01 X26.52733 Y-36.61125
G01 X26.65169 Y-36.76279
G01 X26.67892 Y-36.80353
G01 X26.77132 Y-36.97643
G01 X26.79007 Y-37.02169
G01 X26.84699 Y-37.20930
G01 X26.85293 Y-37.23310
G01 X26.85654 Y-37.25738
G01 X26.87574 Y-37.45245
G01 X26.87574 Y-37.50145
G01 X26.85654 Y-37.69654
G01 X26.85293 Y-37.72083
G01 X26.84699 Y-37.74463
G01 X26.79007 Y-37.93220
G01 X26.78181 Y-37.95532
G01 X26.77193 Y-37.97617
G01 X26.77132 Y-37.97749
G01 X26.67892 Y-38.15037
G01 X26.65169 Y-38.19113
G01 X26.52733 Y-38.34267
G01 X26.51084 Y-38.36083
G01 X26.49266 Y-38.37731
G01 X26.34112 Y-38.50167
G01 X26.30038 Y-38.52890
G01 X26.12748 Y-38.62131
G01 X26.12588 Y-38.62197
G01 X26.12748 Y-38.62131
G01 X26.30038 Y-38.52890
G01 X26.34112 Y-38.50167
G01 X26.49266 Y-38.37731
G01 X26.51084 Y-38.36083
G01 X26.52733 Y-38.34267
G01 X26.65169 Y-38.19113
G01 X26.67892 Y-38.15037
G01 X26.77132 Y-37.97749
G01 X26.77193 Y-37.97617
G01 X26.77193 Y-38.43866
G01 X26.72057 Y-38.50127
G01 X26.68763 Y-38.53761
G01 X26.65126 Y-38.57056
G01 X26.58862 Y-38.62197
G01 X26.65126 Y-38.57056
G01 X26.68763 Y-38.53761
G01 X26.72057 Y-38.50127
G01 X26.77193 Y-38.43866
G01 X26.77193 Y-38.62197
G01 X26.58862 Y-38.62197
G01 X26.12588 Y-38.62197
G01 X26.08222 Y-38.64008
G01 X25.89462 Y-38.69697
G01 X25.87082 Y-38.70294
G01 X25.84656 Y-38.70652
G01 X25.65146 Y-38.72575
G01 X25.60249 Y-38.72575
G01 X25.40739 Y-38.70652
G01 X25.38311 Y-38.70294
G01 X25.35931 Y-38.69697
G01 X25.17173 Y-38.64008
G01 X25.12802 Y-38.62197
G01 X25.12644 Y-38.62131
G01 X24.95357 Y-38.52890
G01 X24.93251 Y-38.51628
G01 X24.91280 Y-38.50167
G01 X24.76127 Y-38.37731
G01 X24.72662 Y-38.34267
G01 X24.60226 Y-38.19113
G01 X24.58766 Y-38.17142
G01 X24.57503 Y-38.15037
G01 X24.48263 Y-37.97749
G01 X24.48199 Y-37.97599
G04 P0 ( dwell for no time -- G64 should not smooth over this point )
G00 Z5.00000 ( retract )

G00 X21.69201 Y-39.51800 ( rapid move to begin. )
G01 F60.00000
( Mill infeed pass 1/1 )
G01 Z-0.15000
G04 P0 ( dwell for no time -- G64 should not smooth over this point )
G01 F120.00000
G01 X21.69201 Y-39.51800
G01 X21.71012 Y-39.56169
G01 X21.76701 Y-39.74930
G01 X21.77298 Y-39.77310
G01 X21.77656 Y-39.79735
G01 X21.79579 Y-39.99245
G01 X21.79699 Y-40.01696
G01 X21.79579 Y-40.04145
G01 X21.77656 Y-40.23654
G01 X21.77298 Y-40.26083
G01 X21.76701 Y-40.28463
G01 X21.71012 Y-40.47220
G01 X21.69135 Y-40.51754
G01 X21.59894 Y-40.69037
G01 X21.58632 Y-40.71142
G01 X21.57171 Y-40.73113
G01 X21.44735 Y-40.88267
G01 X21.41271 Y-40.91731
G01 X21.26117 Y-41.04167
G01 X21.22041 Y-41.06890
G01 X21.04753 Y-41.16131
G01 X21.00224 Y-41.18008
G01 X20.81467 Y-41.23697
G01 X20.79087 Y-41.24294
G01 X20.76658 Y-41.24652
G01 X20.57149 Y-41.26575
G01 X20.52249 Y-41.26575
G01 X20.32739 Y-41.24652
G01 X20.30314 Y-41.24294
G01 X20.27934 Y-41.23697
G01 X20.09173 Y-41.18008
G01 X20.04647 Y-41.16131
G01 X19.87357 Y-41.06890
G01 X19.85254 Y-41.05628
G01 X19.83283 Y-41.04167
G01 X19.68129 Y-40.91731
G01 X19.66311 Y-40.90083
G01 X19.64662 Y-40.88267
G01 X19.52226 Y-40.73113
G01 X19.49503 Y-40.69037
G01 X19.40263 Y-40.51754
G01 X19.38388 Y-40.47220
G01 X19.32696 Y-40.28463
G01 X19.32102 Y-40.26083
G01 X19.31741 Y-40.23654
G01 X19.29818 Y-40.04145
G01 X19.29699 Y-40.01696
G01 X19.29818 Y-39.99245
G01 X19.31741 Y-39.79735
G01 X19.32102 Y-39.77310
G01 X19.32696 Y-39.74930
G01 X19.38388 Y-39.56169
G01 X19.40202 Y-39.51788
G01 X19.40263 Y-39.51643
G01 X19.49503 Y-39.34353
G01 X19.50766 Y-39.32250
G01 X19.52226 Y-39.30279
G01 X19.64662 Y-39.15125
G01 X19.68129 Y-39.11658
G01 X19.83283 Y-38.99222
G01 X19.85254 Y-38.97762
G01 X19.87357 Y-38.96499
G01 X20.04647 Y-38.87259
G01 X20.04792 Y-38.87198
G01 X20.09173 Y-38.85384
G01 X20.27934 Y-38.79692
G01 X20.30314 Y-38.79098
G01 X20.32739 Y-38.78737
G01 X20.52249 Y-38.76814
G01 X20.54700 Y-38.76695
G01 X20.57149 Y-38.76814
G01 X20.76658 Y-38.78737
G01 X20.79087 Y-38.79098
G01 X20.81467 Y-38.79692
G01 X21.00224 Y-38.85384
G01 X21.04603 Y-38.87198
G01 X21.50870 Y-38.87198
G01 X21.69201 Y-38.87198
G01 X21.69201 Y-39.05529
G01 X21.64060 Y-38.99265
G01 X21.57131 Y-38.92334
G01 X21.50870 Y-38.87198
G01 X21.57131 Y-38.92334
G01 X21.64060 Y-38.99265
G01 X21.69201 Y-39.05529
G01 X21.69201 Y-39.51800
G01 X21.92388 Y-37.93220
G01 X21.94202 Y-37.97599
G01 X21.94263 Y-37.97749
G01 X22.03503 Y-38.15037
G01 X22.04766 Y-38.17142
G01 X22.06226 Y-38.19113
G01 X22.18662 Y-38.34267
G01 X22.22129 Y-38.37731
G01 X22.37283 Y-38.50167
G01 X22.39254 Y-38.51628
G01 X22.41357 Y-38.52890
G01 X22.58647 Y-38.62131
G01 X22.58804 Y-38.62197
G01 X22.63173 Y-38.64008
G01 X22.81934 Y-38.69697
G01 X22.84314 Y-38.70294
G01 X22.86739 Y-38.70652
G01 X23.06249 Y-38.72575
G01 X23.11149 Y-38.72575
G01 X23.30658 Y-38.70652
G01 X23.33087 Y-38.70294
G01 X23.35467 Y-38.69697
G01 X23.54224 Y-38.64008
G01 X23.58593 Y-38.62197
G01 X24.04864 Y-38.62197
G01 X24.23201 Y-38.62197
G01 X24.23201 Y-38.43863
G01 X24.18060 Y-38.50127
G01 X24.14765 Y-38.53761
G01 X24.11131 Y-38.57056
G01 X24.04864 Y-38.62197
G01 X24.11131 Y-38.57056
G01 X24.14765 Y-38.53761
G01 X24.18060 Y-38.50127
G01 X24.23201 Y-38.43863
G01 X24.23201 Y-37.97612
G01 X24.24184 Y-37.95532
G01 X24.23135 Y-37.97749
G01 X24.13894 Y-38.15037
G01 X24.11171 Y-38.19113
G01 X23.98735 Y-38.34267
G01 X23.97092 Y-38.36083
G01 X23.95271 Y-38.37731
G01 X23.80117 Y-38.50167
G01 X23.76041 Y-38.52890
G01 X23.58753 Y-38.62131
G01 X23.58593 Y-38.62197
G01 X23.58753 Y-38.62131
G01 X23.76041 Y-38.52890
G01 X23.80117 Y-38.50167
G01 X23.95271 Y-38.37731
G01 X23.97092 Y-38.36083
G01 X23.98735 Y-38.34267
G01 X24.11171 Y-38.19113
G01 X24.13894 Y-38.15037
G01 X24.23135 Y-37.97749
G01 X24.24184 Y-37.95532
G01 X24.25012 Y-37.93220
G01 X24.30701 Y-37.74463
G01 X24.31298 Y-37.72083
G01 X24.31656 Y-37.69654
G01 X24.33579 Y-37.50145
G01 X24.33579 Y-37.45245
G01 X24.31656 Y-37.25738
G01 X24.31298 Y-37.23310
G01 X24.30701 Y-37.20930
G01 X24.25012 Y-37.02169
G01 X24.23135 Y-36.97643
G01 X24.13894 Y-36.80353
G01 X24.11171 Y-36.76279
G01 X23.98735 Y-36.61125
G01 X23.97092 Y-36.59307
G01 X23.95271 Y-36.57658
G01 X23.80117 Y-36.45222
G01 X23.78146 Y-36.43762
G01 X23.76041 Y-36.42499
G01 X23.58753 Y-36.33259
G01 X23.56536 Y-36.32210
G01 X23.54224 Y-36.31384
G01 X23.35467 Y-36.25692
G01 X23.30658 Y-36.24737
G01 X23.11149 Y-36.22814
G01 X23.06249 Y-36.22814
G01 X22.86739 Y-36.24737
G01 X22.81934 Y-36.25692
G01 X22.63173 Y-36.31384
G01 X22.60864 Y-36.32210
G01 X22.58647 Y-36.33259
G01 X22.41357 Y-36.42499
G01 X22.37283 Y-36.45222
G01 X22.22129 Y-36.57658
G01 X22.20311 Y-36.59307
G01 X22.18662 Y-36.61125
G01 X22.06226 Y-36.76279
G01 X22.03503 Y-36.80353
G01 X21.94263 Y-36.97643
G01 X21.93214 Y-36.99860
G01 X21.92388 Y-37.02169
G01 X21.86696 Y-37.20930
G01 X21.85741 Y-37.25738
G01 X21.83818 Y-37.45245
G01 X21.83699 Y-37.47696
G01 X21.83818 Y-37.50145
G01 X21.85741 Y-37.69654
G01 X21.86696 Y-37.74463
G01 X21.92388 Y-37.93220
G01 X21.94202 Y-37.97599
G01 X21.94263 Y-37.97749
G01 X22.03503 Y-38.15037
G01 X22.04766 Y-38.17142
G01 X22.06226 Y-38.19113
G01 X22.18662 Y-38.34267
G01 X22.22129 Y-38.37731
G01 X22.37283 Y-38.50167
G01 X22.39254 Y-38.51628
G01 X22.41357 Y-38.52890
G01 X22.58647 Y-38.62131
G01 X22.58804 Y-38.62197
G01 X22.63173 Y-38.85384
G01 X22.58792 Y-38.87198
G01 X22.12528 Y-38.87198
G01 X21.94202 Y-38.87198
G01 X21.94202 Y-39.05524
G01 X21.99338 Y-38.99265
G01 X22.06269 Y-38.92334
G01 X22.12528 Y-38.87198
G01 X22.06269 Y-38.92334
G01 X21.99338 Y-38.99265
G01 X21.94202 Y-39.05524
G01 X21.94202 Y-39.51770
G01 X21.94263 Y-39.51643
G01 X22.03503 Y-39.34353
G01 X22.04766 Y-39.32250
G01 X22.06226 Y-39.30279
G01 X22.18662 Y-39.15125
G01 X22.22129 Y-39.11658
G01 X22.37283 Y-38.99222
G01 X22.41357 Y-38.96499
G01 X22.58647 Y-38.87259
G01 X22.58792 Y-38.87198
G01 X22.63173 Y-38.85384
G01 X22.81934 Y-38.79692
G01 X22.84314 Y-38.79098
G01 X22.86739 Y-38.78737
G01 X23.06249 Y-38.76814
G01 X23.08700 Y-38.76695
G01 X23.11149 Y-38.76814
G01 X23.30658 Y-38.78737
G01 X23.33087 Y-38.79098
G01 X23.35467 Y-38.79692
G01 X23.54224 Y-38.85384
G01 X23.58603 Y-38.87198
G01 X23.58753 Y-38.87259
G01 X23.76041 Y-38.96499
G01 X23.78146 Y-38.97762
G01 X23.80117 Y-38.99222
G01 X23.95271 Y-39.11658
G01 X23.98735 Y-39.15125
G01 X24.11171 Y-39.30279
G01 X24.12632 Y-39.32250
G01 X24.13894 Y-39.34353
G01 X24.23135 Y-39.51643
G01 X24.23201 Y-39.51798
G01 X24.23135 Y-39.51643
G01 X24.13894 Y-39.34353
G01 X24.12632 Y-39.32250
G01 X24.11171 Y-39.30279
G01 X23.98735 Y-39.15125
G01 X23.95271 Y-39.11658
G01 X23.80117 Y-38.99222
G01 X23.78146 Y-38.97762
G01 X23.76041 Y-38.96499
G01 X23.58753 Y-38.87259
G01 X23.58603 Y-38.87198
G01 X24.04870 Y-38.87198
G01 X24.11131 Y-38.92334
G01 X24.18060 Y-38.99265
G01 X24.23201 Y-39.05527
G01 X24.18060 Y-38.99265
G01 X24.11131 Y-38.92334
G01 X24.04870 Y-38.87198
G01 X24.23201 Y-38.87198
G01 X24.23201 Y-39.05527
G01 X24.23201 Y-39.51798
G01 X24.25012 Y-39.56169
G01 X24.30701 Y-39.74930
G01 X24.31298 Y-39.77310
G01 X24.31656 Y-39.79735
G01 X24.33579 Y-39.99245
G01 X24.33579 Y-40.04145
G01 X24.31656 Y-40.23654
G01 X24.31298 Y-40.26083
G01 X24.30701 Y-40.28463
G01 X24.25012 Y-40.47220
G01 X24.23135 Y-40.51754
G01 X24.13894 Y-40.69037
G01 X24.12632 Y-40.71142
G01 X24.11171 Y-40.73113
G01 X23.98735 Y-40.88267
G01 X23.95271 Y-40.91731
G01 X23.80117 Y-41.04167
G01 X23.76041 Y-41.06890
G01 X23.58753 Y-41.16131
G01 X23.54224 Y-41.18008
G01 X23.35467 Y-41.23697
G01 X23.33087 Y-41.24294
G01 X23.30658 Y-41.24652
G01 X23.11149 Y-41.26575
G01 X23.06249 Y-41.26575
G01 X22.86739 Y-41.24652
G01 X22.84314 Y-41.24294
G01 X22.81934 Y-41.23697
G01 X22.63173 Y-41.18008
G01 X22.58647 Y-41.16131
G01 X22.41357 Y-41.06890
G01 X22.39254 Y-41.05628
G01 X22.37283 Y-41.04167
G01 X22.22129 Y-40.91731
G01 X22.18662 Y-40.88267
G01 X22.06226 Y-40.73113
G01 X22.04766 Y-40.71142
G01 X22.03503 Y-40.69037
G01 X21.94263 Y-40.51754
G01 X21.92388 Y-40.47220
G01 X21.86696 Y-40.28463
G01 X21.85741 Y-40.23654
G01 X21.83818 Y-40.04145
G01 X21.83699 Y-40.01696
G01 X21.83818 Y-39.99245
G01 X21.85741 Y-39.79735
G01 X21.86696 Y-39.74930
G01 X21.92388 Y-39.56169
G01 X21.93214 Y-39.53860
G01 X21.94202 Y-39.51770
G01 X21.94263 Y-39.51643
G01 X22.03503 Y-39.34353
G01 X22.04766 Y-39.32250
G01 X22.06226 Y-39.30279
G01 X22.18662 Y-39.15125
G01 X22.22129 Y-39.11658
G01 X22.37283 Y-38.99222
G01 X22.41357 Y-38.96499
G01 X22.58647 Y-38.87259
G01 X22.58792 Y-38.87198
G01 X22.63173 Y-38.85384
G01 X22.58804 Y-38.62197
G01 X22.12533 Y-38.62197
G01 X21.94202 Y-38.62197
G01 X21.94202 Y-38.43866
G01 X21.99338 Y-38.50127
G01 X22.06269 Y-38.57056
G01 X22.12533 Y-38.62197
G01 X22.06269 Y-38.57056
G01 X21.99338 Y-38.50127
G01 X21.94202 Y-38.43866
G01 X21.94202 Y-37.97599
G01 X21.92388 Y-37.93220
G01 X21.69201 Y-39.51800
G01 X21.69135 Y-39.51643
G01 X21.59894 Y-39.34353
G01 X21.58632 Y-39.32250
G01 X21.57171 Y-39.30279
G01 X21.44735 Y-39.15125
G01 X21.41271 Y-39.11658
G01 X21.26117 Y-38.99222
G01 X21.24146 Y-38.97762
G01 X21.22041 Y-38.96499
G01 X21.04753 Y-38.87259
G01 X21.04603 Y-38.87198
G01 X21.00224 Y-38.85384
G01 X20.81467 Y-38.79692
G01 X20.79087 Y-38.79098
G01 X20.76658 Y-38.78737
G01 X20.57149 Y-38.76814
G01 X20.54700 Y-38.76695
G01 X20.52249 Y-38.76814
G01 X20.32739 Y-38.78737
G01 X20.30314 Y-38.79098
G01 X20.27934 Y-38.79692
G01 X20.09173 Y-38.85384
G01 X20.04792 Y-38.87198
G01 X19.58528 Y-38.87198
G01 X19.40202 Y-38.87198
G01 X19.40202 Y-39.05524
G01 X19.45338 Y-38.99265
G01 X19.52269 Y-38.92334
G01 X19.58528 Y-38.87198
G01 X19.52269 Y-38.92334
G01 X19.45338 Y-38.99265
G01 X19.40202 Y-39.05524
G01 X19.40202 Y-39.51788
G01 X19.38388 Y-39.56169
G01 X19.15201 Y-39.31351
G01 X18.73949 Y-38.87198
G01 X18.58940 Y-38.71130
G01 X18.50593 Y-38.62197
G01 X18.58940 Y-38.71130
G01 X18.73949 Y-38.87198
G01 X19.15201 Y-39.31351
G01 X19.15201 Y-39.51780
G01 X19.15201 Y-39.31351
G01 X19.15201 Y-39.05529
G01 X19.15201 Y-38.87198
G01 X18.96872 Y-38.87198
G01 X19.03133 Y-38.92334
G01 X19.06765 Y-38.95628
G01 X19.10062 Y-38.99265
G01 X19.15201 Y-39.05529
G01 X19.10062 Y-38.99265
G01 X19.06765 Y-38.95628
G01 X19.03133 Y-38.92334
G01 X18.96872 Y-38.87198
G01 X18.73949 Y-38.87198
G01 X18.50603 Y-38.87198
G01 X18.46224 Y-38.85384
G01 X18.27467 Y-38.79692
G01 X18.25087 Y-38.79098
G01 X18.22658 Y-38.78737
G01 X18.03149 Y-38.76814
G01 X17.98249 Y-38.76814
G01 X17.78739 Y-38.78737
G01 X17.76314 Y-38.79098
G01 X17.73934 Y-38.79692
G01 X17.55173 Y-38.85384
G01 X17.50797 Y-38.87198
G01 X17.50647 Y-38.87259
G01 X17.33357 Y-38.96499
G01 X17.29283 Y-38.99222
G01 X17.14129 Y-39.11658
G01 X17.10662 Y-39.15125
G01 X16.98226 Y-39.30279
G01 X16.96766 Y-39.32250
G01 X16.95503 Y-39.34353
G01 X16.86263 Y-39.51643
G01 X16.86202 Y-39.51770
G01 X16.86263 Y-39.51643
G01 X16.95503 Y-39.34353
G01 X16.96766 Y-39.32250
G01 X16.98226 Y-39.30279
G01 X17.10662 Y-39.15125
G01 X17.14129 Y-39.11658
G01 X17.29283 Y-38.99222
G01 X17.33357 Y-38.96499
G01 X17.50647 Y-38.87259
G01 X17.50797 Y-38.87198
G01 X17.04528 Y-38.87198
G01 X16.86202 Y-38.87198
G01 X16.86202 Y-39.05524
G01 X16.91338 Y-38.99265
G01 X16.98269 Y-38.92334
G01 X17.04528 Y-38.87198
G01 X16.98269 Y-38.92334
G01 X16.91338 Y-38.99265
G01 X16.86202 Y-39.05524
G01 X16.86202 Y-39.51770
G01 X16.85214 Y-39.53860
G01 X16.84388 Y-39.56169
G01 X16.78696 Y-39.74930
G01 X16.77741 Y-39.79735
G01 X16.75818 Y-39.99245
G01 X16.75818 Y-40.04145
G01 X16.77741 Y-40.23654
G01 X16.78102 Y-40.26083
G01 X16.78696 Y-40.28463
G01 X16.84388 Y-40.47220
G01 X16.86263 Y-40.51754
G01 X16.95503 Y-40.69037
G01 X16.96766 Y-40.71142
G01 X16.98226 Y-40.73113
G01 X17.10662 Y-40.88267
G01 X17.12311 Y-40.90083
G01 X17.14129 Y-40.91731
G01 X17.29283 Y-41.04167
G01 X17.33357 Y-41.06890
G01 X17.50647 Y-41.16131
G01 X17.52864 Y-41.17180
G01 X17.55173 Y-41.18008
G01 X17.73934 Y-41.23697
G01 X17.76314 Y-41.24294
G01 X17.78739 Y-41.24652
G01 X17.98249 Y-41.26575
G01 X18.03149 Y-41.26575
G01 X18.22658 Y-41.24652
G01 X18.25087 Y-41.24294
G01 X18.27467 Y-41.23697
G01 X18.46224 Y-41.18008
G01 X18.50753 Y-41.16131
G01 X18.68041 Y-41.06890
G01 X18.72117 Y-41.04167
G01 X18.87271 Y-40.91731
G01 X18.89087 Y-40.90083
G01 X18.90735 Y-40.88267
G01 X19.03171 Y-40.73113
G01 X19.05894 Y-40.69037
G01 X19.15137 Y-40.51754
G01 X19.16186 Y-40.49532
G01 X19.17012 Y-40.47220
G01 X19.22701 Y-40.28463
G01 X19.23659 Y-40.23654
G01 X19.25582 Y-40.04145
G01 X19.25582 Y-39.99245
G01 X19.23659 Y-39.79735
G01 X19.23301 Y-39.77310
G01 X19.22701 Y-39.74930
G01 X19.17012 Y-39.56169
G01 X19.16186 Y-39.53860
G01 X19.15201 Y-39.51780
G01 X19.15137 Y-39.51643
G01 X19.05894 Y-39.34353
G01 X19.03171 Y-39.30279
G01 X18.90735 Y-39.15125
G01 X18.89087 Y-39.13307
G01 X18.87271 Y-39.11658
G01 X18.72117 Y-38.99222
G01 X18.68041 Y-38.96499
G01 X18.50753 Y-38.87259
G01 X18.50603 Y-38.87198
G01 X18.46224 Y-38.85384
G01 X18.48792 Y-38.71750
G01 X18.50593 Y-38.62197
G01 X18.96867 Y-38.62197
G01 X19.15201 Y-38.62197
G01 X19.15201 Y-38.43860
G01 X19.10062 Y-38.50127
G01 X19.06765 Y-38.53761
G01 X19.03133 Y-38.57056
G01 X18.96867 Y-38.62197
G01 X19.03133 Y-38.57056
G01 X19.06765 Y-38.53761
G01 X19.10062 Y-38.50127
G01 X19.15201 Y-38.43860
G01 X19.15201 Y-37.97610
G01 X19.16186 Y-37.95532
G01 X19.17012 Y-37.93220
G01 X19.22701 Y-37.74463
G01 X19.23659 Y-37.69654
G01 X19.25582 Y-37.50145
G01 X19.25582 Y-37.45245
G01 X19.23659 Y-37.25738
G01 X19.22701 Y-37.20930
G01 X19.17012 Y-37.02169
G01 X19.16186 Y-36.99860
G01 X19.15137 Y-36.97643
G01 X19.05894 Y-36.80353
G01 X19.03171 Y-36.76279
G01 X18.90735 Y-36.61125
G01 X18.89087 Y-36.59307
G01 X18.87271 Y-36.57658
G01 X18.72117 Y-36.45222
G01 X18.68041 Y-36.42499
G01 X18.50753 Y-36.33259
G01 X18.48536 Y-36.32210
G01 X18.46224 Y-36.31384
G01 X18.27467 Y-36.25692
G01 X18.22658 Y-36.24737
G01 X18.03149 Y-36.22814
G01 X17.98249 Y-36.22814
G01 X17.78739 Y-36.24737
G01 X17.73934 Y-36.25692
G01 X17.55173 Y-36.31384
G01 X17.52864 Y-36.32210
G01 X17.50647 Y-36.33259
G01 X17.33357 Y-36.42499
G01 X17.29283 Y-36.45222
G01 X17.14129 Y-36.57658
G01 X17.12311 Y-36.59307
G01 X17.10662 Y-36.61125
G01 X16.98226 Y-36.76279
G01 X16.95503 Y-36.80353
G01 X16.86263 Y-36.97643
G01 X16.85214 Y-36.99860
G01 X16.84388 Y-37.02169
G01 X16.78696 Y-37.20930
G01 X16.77741 Y-37.25738
G01 X16.75818 Y-37.45245
G01 X16.75818 Y-37.50145
G01 X16.77741 Y-37.69654
G01 X16.78102 Y-37.72083
G01 X16.78696 Y-37.74463
G01 X16.84388 Y-37.93220
G01 X16.86202 Y-37.97599
G01 X16.86263 Y-37.97749
G01 X16.95503 Y-38.15037
G01 X16.96766 Y-38.17142
G01 X16.98226 Y-38.19113
G01 X17.10662 Y-38.34267
G01 X17.12311 Y-38.36083
G01 X17.14129 Y-38.37731
G01 X17.29283 Y-38.50167
G01 X17.33357 Y-38.52890
G01 X17.50647 Y-38.62131
G01 X17.50784 Y-38.62197
G01 X17.50647 Y-38.62131
G01 X17.33357 Y-38.52890
G01 X17.29283 Y-38.50167
G01 X17.14129 Y-38.37731
G01 X17.12311 Y-38.36083
G01 X17.10662 Y-38.34267
G01 X16.98226 Y-38.19113
G01 X16.96766 Y-38.17142
G01 X16.95503 Y-38.15037
G01 X16.86263 Y-37.97749
G01 X16.86202 Y-37.97599
G01 X16.86202 Y-38.43866
G01 X16.86202 Y-38.62197
G01 X17.04533 Y-38.62197
G01 X16.98269 Y-38.57056
G01 X16.91338 Y-38.50127
G01 X16.86202 Y-38.43866
G01 X16.91338 Y-38.50127
G01 X16.98269 Y-38.57056
G01 X17.04533 Y-38.62197
G01 X17.50784 Y-38.62197
G01 X17.52864 Y-38.63180
G01 X17.55173 Y-38.64008
G01 X17.73934 Y-38.69697
G01 X17.76314 Y-38.70294
G01 X17.78739 Y-38.70652
G01 X17.98249 Y-38.72575
G01 X18.03149 Y-38.72575
G01 X18.22658 Y-38.70652
G01 X18.25087 Y-38.70294
G01 X18.27467 Y-38.69697
G01 X18.46224 Y-38.64008
G01 X18.50593 Y-38.62197
G01 X18.50753 Y-38.62131
G01 X18.68041 Y-38.52890
G01 X18.72117 Y-38.50167
G01 X18.87271 Y-38.37731
G01 X18.89087 Y-38.36083
G01 X18.90735 Y-38.34267
G01 X19.03171 Y-38.19113
G01 X19.05894 Y-38.15037
G01 X19.15137 Y-37.97749
G01 X19.15201 Y-37.97610
G01 X19.38388 Y-37.93220
G01 X19.40202 Y-37.97599
G01 X19.40202 Y-38.43866
G01 X19.40202 Y-38.62197
G01 X19.58533 Y-38.62197
G01 X19.52269 Y-38.57056
G01 X19.45338 Y-38.50127
G01 X19.40202 Y-38.43866
G01 X19.45338 Y-38.50127
G01 X19.52269 Y-38.57056
G01 X19.58533 Y-38.62197
G01 X20.04804 Y-38.62197
G01 X20.04647 Y-38.62131
G01 X19.87357 Y-38.52890
G01 X19.85254 Y-38.51628
G01 X19.83283 Y-38.50167
G01 X19.68129 Y-38.37731
G01 X19.66311 Y-38.36083
G01 X19.64662 Y-38.34267
G01 X19.52226 Y-38.19113
G01 X19.49503 Y-38.15037
G01 X19.40263 Y-37.97749
G01 X19.40202 Y-37.97599
G01 X19.38388 Y-37.93220
G01 X19.32696 Y-37.74463
G01 X19.32102 Y-37.72083
G01 X19.31741 Y-37.69654
G01 X19.29818 Y-37.50145
G01 X19.29699 Y-37.47696
G01 X19.29818 Y-37.45245
G01 X19.31741 Y-37.25738
G01 X19.32102 Y-37.23310
G01 X19.32696 Y-37.20930
G01 X19.38388 Y-37.02169
G01 X19.40263 Y-36.97643
G01 X19.49503 Y-36.80353
G01 X19.52226 Y-36.76279
G01 X19.64662 Y-36.61125
G01 X19.66311 Y-36.59307
G01 X19.68129 Y-36.57658
G01 X19.83283 Y-36.45222
G01 X19.85254 Y-36.43762
G01 X19.87357 Y-36.42499
G01 X20.04647 Y-36.33259
G01 X20.09173 Y-36.31384
G01 X20.27934 Y-36.25692
G01 X20.30314 Y-36.25098
G01 X20.32739 Y-36.24737
G01 X20.52249 Y-36.22814
G01 X20.57149 Y-36.22814
G01 X20.76658 Y-36.24737
G01 X20.81467 Y-36.25692
G01 X21.00224 Y-36.31384
G01 X21.02536 Y-36.32210
G01 X21.04753 Y-36.33259
G01 X21.22041 Y-36.42499
G01 X21.24146 Y-36.43762
G01 X21.26117 Y-36.45222
G01 X21.41271 Y-36.57658
G01 X21.44735 Y-36.61125
G01 X21.57171 Y-36.76279
G01 X21.59894 Y-36.80353
G01 X21.69135 Y-36.97643
G01 X21.71012 Y-37.02169
G01 X21.76701 Y-37.20930
G01 X21.77298 Y-37.23310
G01 X21.77656 Y-37.25738
G01 X21.79579 Y-37.45245
G01 X21.79699 Y-37.47696
G01 X21.79579 Y-37.50145
G01 X21.77656 Y-37.69654
G01 X21.77298 Y-37.72083
G01 X21.76701 Y-37.74463
G01 X21.71012 Y-37.93220
G01 X21.69201 Y-37.97589
G01 X21.69135 Y-37.97749
G01 X21.59894 Y-38.15037
G01 X21.57171 Y-38.19113
G01 X21.44735 Y-38.34267
G01 X21.43087 Y-38.36083
G01 X21.41271 Y-38.37731
G01 X21.26117 Y-38.50167
G01 X21.22041 Y-38.52890
G01 X21.04753 Y-38.62131
G01 X21.04593 Y-38.62197
G01 X21.04753 Y-38.62131
G01 X21.22041 Y-38.52890
G01 X21.26117 Y-38.50167
G01 X21.41271 Y-38.37731
G01 X21.43087 Y-38.36083
G01 X21.44735 Y-38.34267
G01 X21.57171 Y-38.19113
G01 X21.59894 Y-38.15037
G01 X21.69135 Y-37.97749
G01 X21.69201 Y-37.97589
G01 X21.69201 Y-38.43860
G01 X21.64060 Y-38.50127
G01 X21.60765 Y-38.53761
G01 X21.57131 Y-38.57056
G01 X21.50864 Y-38.62197
G01 X21.57131 Y-38.57056
G01 X21.60765 Y-38.53761
G01 X21.64060 Y-38.50127
G01 X21.69201 Y-38.43860
G01 X21.69201 Y-38.62197
G01 X21.50864 Y-38.62197
G01 X21.04593 Y-38.62197
G01 X21.00224 Y-38.64008
G01 X20.81467 Y-38.69697
G01 X20.79087 Y-38.70294
G01 X20.76658 Y-38.70652
G01 X20.57149 Y-38.72575
G01 X20.52249 Y-38.72575
G01 X20.32739 Y-38.70652
G01 X20.30314 Y-38.70294
G01 X20.27934 Y-38.69697
G01 X20.09173 Y-38.64008
G01 X20.04804 Y-38.62197
G01 X18.58940 Y-38.71130
G01 X18.48792 Y-38.71750
G01 X16.61201 Y-38.83241
G01 X15.96603 Y-38.87198
G01 X16.42870 Y-38.87198
G01 X16.61201 Y-38.87198
G01 X16.61201 Y-39.05529
G01 X16.61201 Y-39.51780
G01 X16.61135 Y-39.51643
G01 X16.51894 Y-39.34353
G01 X16.49171 Y-39.30279
G01 X16.36735 Y-39.15125
G01 X16.35087 Y-39.13307
G01 X16.33271 Y-39.11658
G01 X16.18117 Y-38.99222
G01 X16.14041 Y-38.96499
G01 X15.96753 Y-38.87259
G01 X15.96603 Y-38.87198
G01 X15.92224 Y-38.85384
G01 X15.73467 Y-38.79692
G01 X15.71087 Y-38.79098
G01 X15.68658 Y-38.78737
G01 X15.49149 Y-38.76814
G01 X15.44249 Y-38.76814
G01 X15.24739 Y-38.78737
G01 X15.22314 Y-38.79098
G01 X15.19934 Y-38.79692
G01 X15.01173 Y-38.85384
G01 X14.96792 Y-38.87198
G01 X14.96647 Y-38.87259
G01 X14.79357 Y-38.96499
G01 X14.75283 Y-38.99222
G01 X14.60129 Y-39.11658
G01 X14.56662 Y-39.15125
G01 X14.44226 Y-39.30279
G01 X14.43817 Y-39.30830
G01 X14.44226 Y-39.30279
G01 X14.56662 Y-39.15125
G01 X14.60129 Y-39.11658
G01 X14.75283 Y-38.99222
G01 X14.79357 Y-38.96499
G01 X14.96647 Y-38.87259
G01 X14.96792 Y-38.87198
G01 X14.50528 Y-38.87198
G01 X14.44269 Y-38.92334
G01 X14.40866 Y-38.95737
G01 X14.41392 Y-38.98905
G01 X14.40866 Y-38.95737
G01 X14.44269 Y-38.92334
G01 X14.50528 Y-38.87198
G01 X14.39355 Y-38.87198
G01 X14.39652 Y-38.88758
G01 X14.39677 Y-38.88895
G01 X14.40429 Y-38.93126
G01 X14.40454 Y-38.93269
G01 X14.41392 Y-38.98905
G01 X14.41496 Y-38.99687
G01 X14.43373 Y-39.18105
G01 X14.43431 Y-39.19006
G01 X14.43586 Y-39.24272
G01 X14.43817 Y-39.28602
G01 X14.43833 Y-39.29428
G01 X14.43817 Y-39.30830
G01 X14.42766 Y-39.32250
G01 X14.41503 Y-39.34353
G01 X14.32263 Y-39.51643
G01 X14.31214 Y-39.53860
G01 X14.30388 Y-39.56169
G01 X14.24696 Y-39.74930
G01 X14.23741 Y-39.79735
G01 X14.21818 Y-39.99245
G01 X14.21818 Y-40.04145
G01 X14.23741 Y-40.23654
G01 X14.24102 Y-40.26083
G01 X14.24696 Y-40.28463
G01 X14.30388 Y-40.47220
G01 X14.32263 Y-40.51754
G01 X14.41503 Y-40.69037
G01 X14.42766 Y-40.71142
G01 X14.44226 Y-40.73113
G01 X14.56662 Y-40.88267
G01 X14.58311 Y-40.90083
G01 X14.60129 Y-40.91731
G01 X14.75283 Y-41.04167
G01 X14.79357 Y-41.06890
G01 X14.96647 Y-41.16131
G01 X14.98864 Y-41.17180
G01 X15.01173 Y-41.18008
G01 X15.19934 Y-41.23697
G01 X15.22314 Y-41.24294
G01 X15.24739 Y-41.24652
G01 X15.44249 Y-41.26575
G01 X15.49149 Y-41.26575
G01 X15.68658 Y-41.24652
G01 X15.71087 Y-41.24294
G01 X15.73467 Y-41.23697
G01 X15.92224 Y-41.18008
G01 X15.96753 Y-41.16131
G01 X16.14041 Y-41.06890
G01 X16.18117 Y-41.04167
G01 X16.33271 Y-40.91731
G01 X16.35087 Y-40.90083
G01 X16.36735 Y-40.88267
G01 X16.49171 Y-40.73113
G01 X16.51894 Y-40.69037
G01 X16.61135 Y-40.51754
G01 X16.62184 Y-40.49532
G01 X16.63012 Y-40.47220
G01 X16.68701 Y-40.28463
G01 X16.69656 Y-40.23654
G01 X16.71579 Y-40.04145
G01 X16.71579 Y-39.99245
G01 X16.69656 Y-39.79735
G01 X16.69298 Y-39.77310
G01 X16.68701 Y-39.74930
G01 X16.63012 Y-39.56169
G01 X16.62184 Y-39.53860
G01 X16.61201 Y-39.51780
G01 X16.61201 Y-39.05529
G01 X16.56060 Y-38.99265
G01 X16.52765 Y-38.95628
G01 X16.49131 Y-38.92334
G01 X16.42870 Y-38.87198
G01 X16.49131 Y-38.92334
G01 X16.52765 Y-38.95628
G01 X16.56060 Y-38.99265
G01 X16.61201 Y-39.05529
G01 X16.61201 Y-38.87198
G01 X16.61201 Y-38.83241
G01 X16.61201 Y-38.62197
G01 X16.61201 Y-38.43860
G01 X16.61201 Y-37.97610
G01 X16.61201 Y-38.43860
G01 X16.56060 Y-38.50127
G01 X16.52765 Y-38.53761
G01 X16.49131 Y-38.57056
G01 X16.42864 Y-38.62197
G01 X15.96593 Y-38.62197
G01 X15.92224 Y-38.64008
G01 X15.73467 Y-38.69697
G01 X15.71087 Y-38.70294
G01 X15.68658 Y-38.70652
G01 X15.49149 Y-38.72575
G01 X15.44249 Y-38.72575
G01 X15.24739 Y-38.70652
G01 X15.22314 Y-38.70294
G01 X15.19934 Y-38.69697
G01 X15.01173 Y-38.64008
G01 X14.98864 Y-38.63180
G01 X14.96784 Y-38.62197
G01 X14.96647 Y-38.62131
G01 X14.79357 Y-38.52890
G01 X14.75283 Y-38.50167
G01 X14.60129 Y-38.37731
G01 X14.58311 Y-38.36083
G01 X14.56662 Y-38.34267
G01 X14.44226 Y-38.19113
G01 X14.43815 Y-38.18557
G01 X14.44226 Y-38.19113
G01 X14.56662 Y-38.34267
G01 X14.58311 Y-38.36083
G01 X14.60129 Y-38.37731
G01 X14.75283 Y-38.50167
G01 X14.79357 Y-38.52890
G01 X14.96647 Y-38.62131
G01 X14.96784 Y-38.62197
G01 X14.50533 Y-38.62197
G01 X14.44269 Y-38.57056
G01 X14.40863 Y-38.53650
G01 X14.41389 Y-38.50480
G01 X14.40863 Y-38.53650
G01 X14.44269 Y-38.57056
G01 X14.50533 Y-38.62197
G01 X14.39352 Y-38.62197
G01 X14.39647 Y-38.60642
G01 X14.39672 Y-38.60503
G01 X14.40429 Y-38.56261
G01 X14.40452 Y-38.56119
G01 X14.41389 Y-38.50480
G01 X14.41493 Y-38.49700
G01 X14.43370 Y-38.31293
G01 X14.43429 Y-38.30391
G01 X14.43584 Y-38.25115
G01 X14.43815 Y-38.20787
G01 X14.43833 Y-38.19962
G01 X14.43815 Y-38.18557
G01 X14.42766 Y-38.17142
G01 X14.41503 Y-38.15037
G01 X14.32263 Y-37.97749
G01 X14.30388 Y-37.93220
G01 X14.24696 Y-37.74463
G01 X14.24102 Y-37.72083
G01 X14.23741 Y-37.69654
G01 X14.21818 Y-37.50145
G01 X14.21818 Y-37.45245
G01 X14.23741 Y-37.25738
G01 X14.24696 Y-37.20930
G01 X14.30388 Y-37.02169
G01 X14.31214 Y-36.99860
G01 X14.32263 Y-36.97643
G01 X14.41503 Y-36.80353
G01 X14.44226 Y-36.76279
G01 X14.56662 Y-36.61125
G01 X14.58311 Y-36.59307
G01 X14.60129 Y-36.57658
G01 X14.75283 Y-36.45222
G01 X14.79357 Y-36.42499
G01 X14.96647 Y-36.33259
G01 X14.98864 Y-36.32210
G01 X15.01173 Y-36.31384
G01 X15.19934 Y-36.25692
G01 X15.24739 Y-36.24737
G01 X15.44249 Y-36.22814
G01 X15.49149 Y-36.22814
G01 X15.68658 Y-36.24737
G01 X15.73467 Y-36.25692
G01 X15.92224 Y-36.31384
G01 X15.94536 Y-36.32210
G01 X15.96753 Y-36.33259
G01 X16.14041 Y-36.42499
G01 X16.18117 Y-36.45222
G01 X16.33271 Y-36.57658
G01 X16.35087 Y-36.59307
G01 X16.36735 Y-36.61125
G01 X16.49171 Y-36.76279
G01 X16.51894 Y-36.80353
G01 X16.61135 Y-36.97643
G01 X16.62184 Y-36.99860
G01 X16.63012 Y-37.02169
G01 X16.68701 Y-37.20930
G01 X16.69656 Y-37.25738
G01 X16.71579 Y-37.45245
G01 X16.71579 Y-37.50145
G01 X16.69656 Y-37.69654
G01 X16.68701 Y-37.74463
G01 X16.63012 Y-37.93220
G01 X16.62184 Y-37.95532
G01 X16.61201 Y-37.97610
G01 X16.61135 Y-37.97749
G01 X16.51894 Y-38.15037
G01 X16.49171 Y-38.19113
G01 X16.36735 Y-38.34267
G01 X16.35087 Y-38.36083
G01 X16.33271 Y-38.37731
G01 X16.18117 Y-38.50167
G01 X16.14041 Y-38.52890
G01 X15.96753 Y-38.62131
G01 X15.96593 Y-38.62197
G01 X16.42864 Y-38.62197
G01 X16.61201 Y-38.62197
G04 P0 ( dwell for no time -- G64 should not smooth over this point )
G00 Z5.00000 ( retract )

G00 X13.74036 Y-40.96027 ( rapid move to begin. )
G01 F60.00000
( Mill infeed pass 1/1 )
G01 Z-0.15000
G04 P0 ( dwell for no time -- G64 should not smooth over this point )
G01 F120.00000
G01 X13.74036 Y-40.96027
G01 X13.79271 Y-40.91731
G01 X13.81087 Y-40.90083
G01 X13.82735 Y-40.88267
G01 X13.87031 Y-40.83032
G01 X13.87996 Y-40.83032
G01 X13.81415 Y-40.90411
G01 X13.74036 Y-40.96989
G01 X13.74036 Y-40.96027
G04 P0 ( dwell for no time -- G64 should not smooth over this point )
G00 Z5.00000 ( retract )

G00 X11.97402 Y-40.83032 ( rapid move to begin. )
G01 F60.00000
( Mill infeed pass 1/1 )
G01 Z-0.15000
G04 P0 ( dwell for no time -- G64 should not smooth over this point )
G01 F120.00000
G01 X11.97402 Y-40.83032
G01 X12.03978 Y-40.90411
G01 X12.11362 Y-40.96992
G01 X12.11362 Y-40.96027
G01 X12.06129 Y-40.91731
G01 X12.02662 Y-40.88267
G01 X11.98367 Y-40.83032
G01 X11.97402 Y-40.83032
G04 P0 ( dwell for no time -- G64 should not smooth over this point )
G00 Z5.00000 ( retract )

G00 X10.88621 Y-38.87198 ( rapid move to begin. )
G01 F60.00000
( Mill infeed pass 1/1 )
G01 Z-0.15000
G04 P0 ( dwell for no time -- G64 should not smooth over this point )
G01 F120.00000
G01 X10.88621 Y-38.87198
G01 X11.34870 Y-38.87198
G01 X11.41585 Y-38.87198
G01 X11.46046 Y-38.87198
G01 X11.45748 Y-38.88760
G01 X11.45723 Y-38.88897
G01 X11.44969 Y-38.93129
G01 X11.44946 Y-38.93271
G01 X11.44534 Y-38.95740
G01 X11.44008 Y-38.98910
G01 X11.43904 Y-38.99692
G01 X11.42027 Y-39.18107
G01 X11.41969 Y-39.19009
G01 X11.41816 Y-39.24224
G01 X11.41585 Y-39.28557
G01 X11.41585 Y-39.28559
G01 X11.41568 Y-39.29380
G01 X11.41585 Y-39.30899
G01 X11.41171 Y-39.30279
G01 X11.28735 Y-39.15125
G01 X11.25271 Y-39.11658
G01 X11.10117 Y-38.99222
G01 X11.06041 Y-38.96499
G01 X10.88753 Y-38.87259
G01 X10.88621 Y-38.87198
G01 X10.86536 Y-38.86210
G01 X10.84224 Y-38.85384
G01 X10.65467 Y-38.79692
G01 X10.60658 Y-38.78737
G01 X10.41149 Y-38.76814
G01 X10.38700 Y-38.76695
G01 X10.36249 Y-38.76814
G01 X10.16739 Y-38.78737
G01 X10.11934 Y-38.79692
G01 X9.93173 Y-38.85384
G01 X9.90864 Y-38.86210
G01 X9.88647 Y-38.87259
G01 X9.71357 Y-38.96499
G01 X9.67283 Y-38.99222
G01 X9.52129 Y-39.11658
G01 X9.48662 Y-39.15125
G01 X9.36226 Y-39.30279
G01 X9.33503 Y-39.34353
G01 X9.24263 Y-39.51643
G01 X9.23214 Y-39.53860
G01 X9.22388 Y-39.56169
G01 X9.16696 Y-39.74930
G01 X9.15741 Y-39.79735
G01 X9.13818 Y-39.99245
G01 X9.13699 Y-40.01696
G01 X9.13818 Y-40.04145
G01 X9.15741 Y-40.23654
G01 X9.16696 Y-40.28463
G01 X9.22388 Y-40.47220
G01 X9.23214 Y-40.49532
G01 X9.24263 Y-40.51754
G01 X9.33503 Y-40.69037
G01 X9.36226 Y-40.73113
G01 X9.48662 Y-40.88267
G01 X9.52129 Y-40.91731
G01 X9.67283 Y-41.04167
G01 X9.71357 Y-41.06890
G01 X9.88647 Y-41.16131
G01 X9.90864 Y-41.17180
G01 X9.93173 Y-41.18008
G01 X10.11934 Y-41.23697
G01 X10.14314 Y-41.24294
G01 X10.16739 Y-41.24652
G01 X10.36249 Y-41.26575
G01 X10.41149 Y-41.26575
G01 X10.60658 Y-41.24652
G01 X10.65467 Y-41.23697
G01 X10.84224 Y-41.18008
G01 X10.86536 Y-41.17180
G01 X10.88753 Y-41.16131
G01 X11.06041 Y-41.06890
G01 X11.10117 Y-41.04167
G01 X11.25271 Y-40.91731
G01 X11.28735 Y-40.88267
G01 X11.41171 Y-40.73113
G01 X11.43894 Y-40.69037
G01 X11.53135 Y-40.51754
G01 X11.54184 Y-40.49532
G01 X11.55012 Y-40.47220
G01 X11.60701 Y-40.28463
G01 X11.61656 Y-40.23654
G01 X11.63579 Y-40.04145
G01 X11.63699 Y-40.01696
G01 X11.63579 Y-39.99245
G01 X11.61656 Y-39.79735
G01 X11.60701 Y-39.74930
G01 X11.55012 Y-39.56169
G01 X11.54184 Y-39.53860
G01 X11.53135 Y-39.51643
G01 X11.43894 Y-39.34353
G01 X11.41585 Y-39.30899
G01 X11.41585 Y-39.28559
G01 X11.41585 Y-39.28557
G01 X11.41585 Y-38.92788
G01 X11.44534 Y-38.95740
G01 X11.41585 Y-38.92788
G01 X11.41131 Y-38.92334
G01 X11.34870 Y-38.87198
G01 X11.41131 Y-38.92334
G01 X11.41585 Y-38.92788
G01 X11.41585 Y-38.87198
G01 X11.41585 Y-38.62197
G01 X11.41585 Y-38.56599
G01 X11.41585 Y-38.20876
G01 X11.41585 Y-38.20830
G01 X11.41568 Y-38.20010
G01 X11.41588 Y-38.18491
G01 X11.41585 Y-38.20830
G01 X11.41585 Y-38.20876
G01 X11.41819 Y-38.25164
G01 X11.41971 Y-38.30388
G01 X11.42030 Y-38.31290
G01 X11.43907 Y-38.49695
G01 X11.44011 Y-38.50477
G01 X11.44537 Y-38.53650
G01 X11.41585 Y-38.56599
G01 X11.41131 Y-38.57056
G01 X11.34864 Y-38.62197
G01 X11.41585 Y-38.62197
G01 X11.46048 Y-38.62197
G01 X11.45753 Y-38.60640
G01 X11.45728 Y-38.60500
G01 X11.44971 Y-38.56258
G01 X11.44948 Y-38.56113
G01 X11.44537 Y-38.53650
G01 X11.41585 Y-38.56599
G01 X11.41131 Y-38.57056
G01 X11.34864 Y-38.62197
G01 X10.88614 Y-38.62197
G01 X10.86536 Y-38.63180
G01 X10.84224 Y-38.64008
G01 X10.65467 Y-38.69697
G01 X10.63087 Y-38.70294
G01 X10.60658 Y-38.70652
G01 X10.41149 Y-38.72575
G01 X10.36249 Y-38.72575
G01 X10.16739 Y-38.70652
G01 X10.14314 Y-38.70294
G01 X10.11934 Y-38.69697
G01 X9.93173 Y-38.64008
G01 X9.90864 Y-38.63180
G01 X9.88647 Y-38.62131
G01 X9.71357 Y-38.52890
G01 X9.67283 Y-38.50167
G01 X9.52129 Y-38.37731
G01 X9.48662 Y-38.34267
G01 X9.39165 Y-38.22692
G01 X6.88769 Y-38.22692
G01 X5.42204 Y-39.69258
G01 X5.42204 Y-70.82124
G01 X10.69762 Y-76.09682
G01 X27.10442 Y-76.09690
G01 X27.10442 Y-75.99631
G01 X27.10823 Y-75.95291
G01 X27.11950 Y-75.91082
G01 X27.13792 Y-75.87132
G01 X27.16291 Y-75.83561
G01 X27.19372 Y-75.80480
G01 X27.20813 Y-75.79471
G01 X27.20813 Y-75.78567
G01 X27.20889 Y-75.76604
G01 X27.21501 Y-75.68783
G01 X27.22118 Y-75.64907
G01 X27.23949 Y-75.57280
G01 X27.25161 Y-75.53548
G01 X27.28161 Y-75.46299
G01 X27.29946 Y-75.42804
G01 X27.34046 Y-75.36114
G01 X27.36352 Y-75.32941
G01 X27.41447 Y-75.26975
G01 X27.42778 Y-75.25532
G01 X31.44660 Y-71.23656
G01 X31.46478 Y-71.22010
G01 X31.54055 Y-71.15792
G01 X31.58129 Y-71.13069
G01 X31.66776 Y-71.08449
G01 X31.71302 Y-71.06572
G01 X31.80682 Y-71.03727
G01 X31.85488 Y-71.02772
G01 X31.95244 Y-71.01809
G01 X31.97692 Y-71.01690
G01 X32.63659 Y-71.01690
G01 X32.73156 Y-70.90120
G01 X32.74802 Y-70.88302
G01 X32.76620 Y-70.86653
G01 X32.91774 Y-70.74217
G01 X32.95848 Y-70.71494
G01 X33.13138 Y-70.62254
G01 X33.15355 Y-70.61205
G01 X33.17664 Y-70.60379
G01 X33.36425 Y-70.54687
G01 X33.38805 Y-70.54093
G01 X33.41230 Y-70.53732
G01 X33.60740 Y-70.51809
G01 X33.63191 Y-70.51690
G01 X34.13191 Y-70.51690
G01 X34.15642 Y-70.51809
G01 X34.35149 Y-70.53732
G01 X34.37578 Y-70.54093
G01 X34.39958 Y-70.54687
G01 X34.58716 Y-70.60379
G01 X34.61027 Y-70.61205
G01 X34.63244 Y-70.62254
G01 X34.80532 Y-70.71494
G01 X34.84608 Y-70.74217
G01 X34.99762 Y-70.86653
G01 X35.01578 Y-70.88302
G01 X35.03227 Y-70.90120
G01 X35.15662 Y-71.05274
G01 X35.17125 Y-71.07242
G01 X35.18385 Y-71.09348
G01 X35.27626 Y-71.26638
G01 X35.29503 Y-71.31164
G01 X35.35192 Y-71.49924
G01 X35.36147 Y-71.54730
G01 X35.38070 Y-71.74240
G01 X35.38190 Y-71.76691
G01 X35.38070 Y-71.79140
G01 X35.36147 Y-71.98649
G01 X35.35192 Y-72.03455
G01 X35.29503 Y-72.22215
G01 X35.27626 Y-72.26742
G01 X35.18385 Y-72.44031
G01 X35.17125 Y-72.46137
G01 X35.15662 Y-72.48106
G01 X35.03227 Y-72.63259
G01 X35.01578 Y-72.65078
G01 X34.99762 Y-72.66726
G01 X34.84608 Y-72.79162
G01 X34.80532 Y-72.81885
G01 X34.63244 Y-72.91126
G01 X34.61027 Y-72.92175
G01 X34.58716 Y-72.93000
G01 X34.39958 Y-72.98692
G01 X34.37578 Y-72.99287
G01 X34.35149 Y-72.99647
G01 X34.15642 Y-73.01570
G01 X34.13191 Y-73.01689
G01 X33.63191 Y-73.01689
G01 X33.60740 Y-73.01570
G01 X33.41230 Y-72.99647
G01 X33.38805 Y-72.99287
G01 X33.36425 Y-72.98692
G01 X33.17664 Y-72.93000
G01 X33.13138 Y-72.91126
G01 X32.95848 Y-72.81885
G01 X32.91774 Y-72.79162
G01 X32.76620 Y-72.66726
G01 X32.74802 Y-72.65078
G01 X32.73156 Y-72.63259
G01 X32.63659 Y-72.51690
G01 X32.28759 Y-72.51690
G01 X28.81153 Y-75.99286
G01 X28.81191 Y-75.99631
G01 X28.81191 Y-77.69733
G01 X28.80711 Y-77.74610
G01 X28.79288 Y-77.79298
G01 X28.76979 Y-77.83621
G01 X28.73870 Y-77.87409
G01 X28.70081 Y-77.90518
G01 X28.65758 Y-77.92829
G01 X28.61069 Y-77.94251
G01 X28.56192 Y-77.94731
G01 X27.35443 Y-77.94731
G01 X27.30564 Y-77.94251
G01 X27.25870 Y-77.92829
G01 X27.21552 Y-77.90518
G01 X27.17765 Y-77.87409
G01 X27.14656 Y-77.83621
G01 X27.12344 Y-77.79298
G01 X27.10922 Y-77.74610
G01 X27.10442 Y-77.69733
G01 X27.10442 Y-77.59690
G01 X10.38695 Y-77.59682
G01 X10.36246 Y-77.59563
G01 X10.26490 Y-77.58600
G01 X10.21685 Y-77.57645
G01 X10.12304 Y-77.54800
G01 X10.07778 Y-77.52923
G01 X9.99132 Y-77.48303
G01 X9.95058 Y-77.45580
G01 X9.87481 Y-77.39362
G01 X9.85662 Y-77.37716
G01 X4.14170 Y-71.66224
G01 X4.12524 Y-71.64405
G01 X4.06306 Y-71.56828
G01 X4.04843 Y-71.54857
G01 X4.03583 Y-71.52754
G01 X3.98963 Y-71.44108
G01 X3.97086 Y-71.39582
G01 X3.94241 Y-71.30201
G01 X3.93644 Y-71.27821
G01 X3.93286 Y-71.25396
G01 X3.92323 Y-71.15640
G01 X3.92204 Y-71.13191
G01 X3.92204 Y-39.38191
G01 X3.92323 Y-39.35742
G01 X3.93286 Y-39.25986
G01 X3.94241 Y-39.21181
G01 X3.97086 Y-39.11800
G01 X3.98963 Y-39.07274
G01 X4.03583 Y-38.98628
G01 X4.04843 Y-38.96525
G01 X4.06306 Y-38.94554
G01 X4.12524 Y-38.86977
G01 X4.14170 Y-38.85158
G01 X6.04670 Y-36.94658
G01 X6.06113 Y-36.93327
G01 X6.12079 Y-36.88232
G01 X6.15252 Y-36.85926
G01 X6.21942 Y-36.81826
G01 X6.25437 Y-36.80046
G01 X6.32686 Y-36.77043
G01 X6.36417 Y-36.75829
G01 X6.44045 Y-36.73998
G01 X6.47921 Y-36.73386
G01 X6.55742 Y-36.72769
G01 X6.57703 Y-36.72692
G01 X9.38695 Y-36.72692
G01 X9.38695 Y-34.78095
G01 X9.32200 Y-34.78095
G01 X9.27857 Y-34.77714
G01 X9.23648 Y-34.76587
G01 X9.20422 Y-34.75083
G01 X9.18583 Y-34.73965
G01 X9.16130 Y-34.72246
G01 X9.13049 Y-34.69165
G01 X9.10549 Y-34.65596
G01 X9.08708 Y-34.61646
G01 X9.07580 Y-34.57438
G01 X9.07199 Y-34.53094
G01 X9.07199 Y-33.77196
G01 X9.06861 Y-33.74984
G01 X9.06623 Y-33.72731
G01 X8.82005 Y-29.65861
G01 X8.78363 Y-29.63913
G01 X8.74288 Y-29.61190
G01 X8.59135 Y-29.48754
G01 X8.57316 Y-29.47106
G01 X8.55668 Y-29.45290
G01 X8.43232 Y-29.30136
G01 X8.40509 Y-29.26059
G01 X8.31268 Y-29.08772
G01 X8.30219 Y-29.06555
G01 X8.29394 Y-29.04243
G01 X8.23702 Y-28.85485
G01 X8.23107 Y-28.83105
G01 X8.22747 Y-28.80677
G01 X8.20824 Y-28.61167
G01 X8.20705 Y-28.58719
G01 X8.20824 Y-28.56268
G01 X8.22747 Y-28.36758
G01 X8.23702 Y-28.31952
G01 X8.29394 Y-28.13192
G01 X8.30219 Y-28.10883
G01 X8.31268 Y-28.08666
G01 X8.40509 Y-27.91376
G01 X8.43232 Y-27.87302
G01 X8.55668 Y-27.72148
G01 X8.57316 Y-27.70329
G01 X8.59135 Y-27.68684
G01 X8.74288 Y-27.56245
G01 X8.78363 Y-27.53522
G01 X8.95652 Y-27.44282
G01 X8.97870 Y-27.43233
G01 X9.00179 Y-27.42407
G01 X9.18939 Y-27.36718
G01 X9.23745 Y-27.35760
G01 X9.43254 Y-27.33840
G01 X9.45703 Y-27.33718
G01 X10.05703 Y-27.33718
G01 X10.08154 Y-27.33840
G01 X10.27664 Y-27.35760
G01 X10.32469 Y-27.36718
G01 X10.51230 Y-27.42407
G01 X10.53539 Y-27.43233
G01 X10.55756 Y-27.44282
G01 X10.73046 Y-27.53522
G01 X10.77120 Y-27.56245
G01 X10.92274 Y-27.68684
G01 X10.94092 Y-27.70329
G01 X10.95741 Y-27.72148
G01 X11.08177 Y-27.87302
G01 X11.10900 Y-27.91376
G01 X11.20140 Y-28.08666
G01 X11.21189 Y-28.10883
G01 X11.22015 Y-28.13192
G01 X11.27707 Y-28.31952
G01 X11.28662 Y-28.36758
G01 X11.30585 Y-28.56268
G01 X11.30704 Y-28.58719
G01 X11.30585 Y-28.61167
G01 X11.28662 Y-28.80677
G01 X11.27707 Y-28.85485
G01 X11.22015 Y-29.04243
G01 X11.21189 Y-29.06555
G01 X11.20140 Y-29.08772
G01 X11.10900 Y-29.26059
G01 X11.08177 Y-29.30136
G01 X10.95741 Y-29.45290
G01 X10.94092 Y-29.47106
G01 X10.92274 Y-29.48754
G01 X10.81855 Y-29.57306
G01 X11.00478 Y-32.65121
G01 X11.02350 Y-32.67796
G01 X11.04191 Y-32.71746
G01 X11.05319 Y-32.75955
G01 X11.05700 Y-32.80295
G01 X11.05700 Y-33.24532
G01 X11.09409 Y-33.28243
G01 X11.11057 Y-33.30059
G01 X11.20384 Y-33.41426
G01 X11.23107 Y-33.45500
G01 X11.30036 Y-33.58466
G01 X11.31910 Y-33.62993
G01 X11.36178 Y-33.77062
G01 X11.37135 Y-33.81870
G01 X11.38575 Y-33.96500
G01 X11.38697 Y-33.98949
G01 X11.38697 Y-36.73261
G01 X11.41171 Y-36.76279
G01 X11.43894 Y-36.80353
G01 X11.53135 Y-36.97643
G01 X11.54184 Y-36.99860
G01 X11.55012 Y-37.02169
G01 X11.60701 Y-37.20930
G01 X11.61656 Y-37.25738
G01 X11.63579 Y-37.45245
G01 X11.63699 Y-37.47696
G01 X11.63579 Y-37.50145
G01 X11.61656 Y-37.69654
G01 X11.60701 Y-37.74463
G01 X11.55012 Y-37.93220
G01 X11.54184 Y-37.95532
G01 X11.53135 Y-37.97749
G01 X11.43894 Y-38.15037
G01 X11.41588 Y-38.18491
G01 X11.41171 Y-38.19113
G01 X11.28735 Y-38.34267
G01 X11.25271 Y-38.37731
G01 X11.10117 Y-38.50167
G01 X11.06041 Y-38.52890
G01 X10.88753 Y-38.62131
G01 X10.88614 Y-38.62197
G04 P0 ( dwell for no time -- G64 should not smooth over this point )
G00 Z5.00000 ( retract )

G00 X11.96670 Y-36.66358 ( rapid move to begin. )
G01 F60.00000
( Mill infeed pass 1/1 )
G01 Z-0.15000
G04 P0 ( dwell for no time -- G64 should not smooth over this point )
G01 F120.00000
G01 X11.96670 Y-36.66358
G01 X11.96960 Y-36.66139
G01 X11.98903 Y-36.64521
G01 X12.00673 Y-36.62713
G01 X12.04006 Y-36.58948
G01 X12.11362 Y-36.52395
G01 X12.11362 Y-36.53366
G01 X12.06129 Y-36.57658
G01 X12.02662 Y-36.61125
G01 X11.98370 Y-36.66358
G01 X11.96670 Y-36.66358
G04 P0 ( dwell for no time -- G64 should not smooth over this point )
G00 Z5.00000 ( retract )

G00 X13.74036 Y-38.42027 ( rapid move to begin. )
G01 F60.00000
( Mill infeed pass 1/1 )
G01 Z-0.15000
G04 P0 ( dwell for no time -- G64 should not smooth over this point )
G01 F120.00000
G01 X13.74036 Y-38.42027
G01 X13.74036 Y-39.07363
G01 X13.79271 Y-39.11658
G01 X13.81087 Y-39.13307
G01 X13.82735 Y-39.15125
G01 X13.87031 Y-39.20358
G01 X13.93078 Y-39.20358
G01 X13.97521 Y-39.20756
G01 X14.01178 Y-39.21417
G01 X14.05695 Y-39.22679
G01 X14.09896 Y-39.24762
G01 X14.13096 Y-39.26743
G01 X14.16840 Y-39.29578
G01 X14.18803 Y-39.31752
G01 X14.18831 Y-39.29519
G01 X14.18613 Y-39.25458
G01 X14.18600 Y-39.25156
G01 X14.18455 Y-39.20195
G01 X14.16662 Y-39.02601
G01 X14.16251 Y-39.00129
G01 X14.15794 Y-38.97366
G01 X14.15077 Y-38.93357
G01 X14.12202 Y-38.78191
G01 X14.11991 Y-38.76327
G01 X14.12052 Y-38.74721
G01 X14.11989 Y-38.73060
G01 X14.11638 Y-38.73058
G01 X14.11989 Y-38.73060
G01 X14.12199 Y-38.71196
G01 X14.15075 Y-38.56042
G01 X14.15791 Y-38.52021
G01 X14.16248 Y-38.49261
G01 X14.14653 Y-38.50050
G01 X14.10089 Y-38.51326
G01 X14.05621 Y-38.52575
G01 X14.01963 Y-38.53236
G01 X13.99037 Y-38.53500
G01 X13.93713 Y-38.49329
G01 X13.99037 Y-38.53500
G01 X13.99037 Y-38.95890
G01 X13.93713 Y-39.00061
G01 X13.99037 Y-38.95890
G01 X14.01963 Y-38.96154
G01 X14.05621 Y-38.96814
G01 X14.14653 Y-38.99339
G01 X14.16251 Y-39.00129
G01 X14.16662 Y-39.02601
G01 X14.18455 Y-39.20195
G01 X14.18600 Y-39.25156
G01 X14.18613 Y-39.25458
G01 X14.18831 Y-39.29519
G01 X14.18803 Y-39.31752
G01 X14.19987 Y-39.33065
G01 X14.22220 Y-39.36062
G01 X14.24600 Y-39.39956
G01 X14.26233 Y-39.44218
G01 X14.27249 Y-39.47825
G01 X14.28085 Y-39.52362
G01 X14.28074 Y-39.56972
G01 X14.27721 Y-39.60680
G01 X14.26863 Y-39.65212
G01 X14.24399 Y-39.73792
G01 X14.22029 Y-39.87627
G01 X14.21265 Y-40.01694
G01 X14.22029 Y-40.15763
G01 X14.24399 Y-40.29598
G01 X14.26863 Y-40.38178
G01 X14.27721 Y-40.42709
G01 X14.28074 Y-40.46418
G01 X14.28085 Y-40.51028
G01 X14.27249 Y-40.55569
G01 X14.26233 Y-40.59171
G01 X14.24600 Y-40.63433
G01 X14.23568 Y-40.65120
G01 X14.26350 Y-40.65384
G01 X14.30899 Y-40.66718
G01 X14.34455 Y-40.68137
G01 X14.38753 Y-40.70355
G01 X14.42540 Y-40.73360
G01 X14.45334 Y-40.76055
G01 X14.48227 Y-40.79387
G01 X14.48554 Y-40.79839
G01 X14.57978 Y-40.90411
G01 X14.68460 Y-40.99753
G01 X14.79959 Y-41.07901
G01 X14.92288 Y-41.14721
G01 X15.05285 Y-41.20098
G01 X15.18811 Y-41.24000
G01 X15.32631 Y-41.26364
G01 X15.46698 Y-41.27129
G01 X15.60767 Y-41.26364
G01 X15.74587 Y-41.24000
G01 X15.88115 Y-41.20096
G01 X16.01114 Y-41.14718
G01 X16.13439 Y-41.07899
G01 X16.24935 Y-40.99755
G01 X16.35415 Y-40.90411
G01 X16.44846 Y-40.79834
G01 X16.45171 Y-40.79387
G01 X16.48064 Y-40.76055
G01 X16.50858 Y-40.73360
G01 X16.54645 Y-40.70355
G01 X16.58943 Y-40.68137
G01 X16.62499 Y-40.66718
G01 X16.67048 Y-40.65384
G01 X16.71767 Y-40.64940
G01 X16.75628 Y-40.64940
G01 X16.80350 Y-40.65384
G01 X16.84899 Y-40.66718
G01 X16.88455 Y-40.68137
G01 X16.92753 Y-40.70355
G01 X16.96540 Y-40.73360
G01 X16.99334 Y-40.76055
G01 X17.02227 Y-40.79387
G01 X17.02552 Y-40.79834
G01 X17.11978 Y-40.90411
G01 X17.22460 Y-40.99755
G01 X17.33956 Y-41.07899
G01 X17.46286 Y-41.14721
G01 X17.59285 Y-41.20098
G01 X17.72811 Y-41.24000
G01 X17.86631 Y-41.26364
G01 X18.00698 Y-41.27129
G01 X18.14767 Y-41.26364
G01 X18.28587 Y-41.24000
G01 X18.42112 Y-41.20098
G01 X18.55112 Y-41.14718
G01 X18.67439 Y-41.07899
G01 X18.78935 Y-40.99755
G01 X18.89415 Y-40.90411
G01 X18.98848 Y-40.79834
G01 X18.99171 Y-40.79387
G01 X19.02064 Y-40.76055
G01 X19.04858 Y-40.73360
G01 X19.08645 Y-40.70355
G01 X19.12945 Y-40.68137
G01 X19.16499 Y-40.66718
G01 X19.21050 Y-40.65384
G01 X19.25767 Y-40.64940
G01 X19.29628 Y-40.64940
G01 X19.34350 Y-40.65384
G01 X19.38899 Y-40.66718
G01 X19.42455 Y-40.68137
G01 X19.46753 Y-40.70355
G01 X19.50540 Y-40.73360
G01 X19.53334 Y-40.76055
G01 X19.56227 Y-40.79387
G01 X19.56554 Y-40.79839
G01 X19.65978 Y-40.90411
G01 X19.76460 Y-40.99753
G01 X19.87959 Y-41.07901
G01 X20.00286 Y-41.14721
G01 X20.13285 Y-41.20098
G01 X20.26811 Y-41.24000
G01 X20.40631 Y-41.26364
G01 X20.54698 Y-41.27129
G01 X20.68767 Y-41.26364
G01 X20.82587 Y-41.24000
G01 X20.96112 Y-41.20098
G01 X21.09112 Y-41.14718
G01 X21.21439 Y-41.07899
G01 X21.32937 Y-40.99755
G01 X21.43415 Y-40.90411
G01 X21.52848 Y-40.79832
G01 X21.53171 Y-40.79387
G01 X21.56064 Y-40.76055
G01 X21.58858 Y-40.73360
G01 X21.62645 Y-40.70355
G01 X21.66943 Y-40.68137
G01 X21.70499 Y-40.66718
G01 X21.75048 Y-40.65384
G01 X21.79767 Y-40.64940
G01 X21.83628 Y-40.64940
G01 X21.88350 Y-40.65384
G01 X21.92899 Y-40.66718
G01 X21.96455 Y-40.68137
G01 X22.00753 Y-40.70355
G01 X22.04540 Y-40.73360
G01 X22.07334 Y-40.76055
G01 X22.10227 Y-40.79387
G01 X22.10552 Y-40.79834
G01 X22.19978 Y-40.90411
G01 X22.30463 Y-40.99755
G01 X22.41959 Y-41.07901
G01 X22.54288 Y-41.14721
G01 X22.67283 Y-41.20096
G01 X22.80811 Y-41.24000
G01 X22.94631 Y-41.26364
G01 X23.08698 Y-41.27129
G01 X23.22767 Y-41.26364
G01 X23.36587 Y-41.24000
G01 X23.50115 Y-41.20096
G01 X23.63114 Y-41.14718
G01 X23.75439 Y-41.07899
G01 X23.86935 Y-40.99755
G01 X23.97415 Y-40.90411
G01 X24.06846 Y-40.79834
G01 X24.07171 Y-40.79387
G01 X24.10064 Y-40.76055
G01 X24.12858 Y-40.73360
G01 X24.16645 Y-40.70355
G01 X24.20943 Y-40.68137
G01 X24.24499 Y-40.66718
G01 X24.29048 Y-40.65384
G01 X24.33767 Y-40.64940
G01 X24.37628 Y-40.64940
G01 X24.42350 Y-40.65384
G01 X24.46899 Y-40.66718
G01 X24.50455 Y-40.68137
G01 X24.54753 Y-40.70355
G01 X24.58540 Y-40.73360
G01 X24.61334 Y-40.76055
G01 X24.64227 Y-40.79387
G01 X24.64552 Y-40.79834
G01 X24.73978 Y-40.90411
G01 X24.84460 Y-40.99755
G01 X24.95956 Y-41.07899
G01 X25.08286 Y-41.14721
G01 X25.21285 Y-41.20098
G01 X25.34811 Y-41.24000
G01 X25.48631 Y-41.26364
G01 X25.62695 Y-41.27129
G01 X25.76759 Y-41.26364
G01 X25.90579 Y-41.24000
G01 X26.04105 Y-41.20098
G01 X26.17102 Y-41.14721
G01 X26.29431 Y-41.07901
G01 X26.40927 Y-40.99755
G01 X26.51412 Y-40.90411
G01 X26.60836 Y-40.79839
G01 X26.61163 Y-40.79387
G01 X26.64056 Y-40.76055
G01 X26.66850 Y-40.73360
G01 X26.70637 Y-40.70355
G01 X26.74935 Y-40.68137
G01 X26.78491 Y-40.66718
G01 X26.83040 Y-40.65384
G01 X26.87762 Y-40.64940
G01 X26.91623 Y-40.64940
G01 X26.96342 Y-40.65384
G01 X27.00891 Y-40.66718
G01 X27.04447 Y-40.68137
G01 X27.08745 Y-40.70355
G01 X27.12532 Y-40.73360
G01 X27.15326 Y-40.76055
G01 X27.18219 Y-40.79387
G01 X27.18542 Y-40.79832
G01 X27.27975 Y-40.90411
G01 X27.38455 Y-40.99755
G01 X27.49951 Y-41.07899
G01 X27.62278 Y-41.14718
G01 X27.75278 Y-41.20098
G01 X27.88803 Y-41.24000
G01 X28.02623 Y-41.26364
G01 X28.16692 Y-41.27129
G01 X28.30759 Y-41.26364
G01 X28.44579 Y-41.24000
G01 X28.58105 Y-41.20098
G01 X28.71104 Y-41.14721
G01 X28.83433 Y-41.07899
G01 X28.94930 Y-40.99755
G01 X29.05412 Y-40.90411
G01 X29.14752 Y-40.79933
G01 X29.22892 Y-40.68440
G01 X29.29717 Y-40.56103
G01 X29.35092 Y-40.43111
G01 X29.38996 Y-40.29583
G01 X29.41361 Y-40.15765
G01 X29.42125 Y-40.01694
G01 X29.41361 Y-39.87624
G01 X29.38996 Y-39.73807
G01 X29.35092 Y-39.60276
G01 X29.29715 Y-39.47277
G01 X29.22897 Y-39.34955
G01 X29.14752 Y-39.23456
G01 X29.05412 Y-39.12974
G01 X28.94830 Y-39.03550
G01 X28.94383 Y-39.03223
G01 X28.91036 Y-39.00315
G01 X28.88341 Y-38.97521
G01 X28.85359 Y-38.93751
G01 X28.83149 Y-38.89481
G01 X28.81719 Y-38.85925
G01 X28.80378 Y-38.81361
G01 X28.79931 Y-38.76624
G01 X28.79931 Y-38.72763
G01 X28.80378 Y-38.68029
G01 X28.81719 Y-38.63464
G01 X28.83149 Y-38.59908
G01 X28.85359 Y-38.55638
G01 X28.88341 Y-38.51869
G01 X28.91036 Y-38.49075
G01 X28.94383 Y-38.46167
G01 X28.94825 Y-38.45842
G01 X29.05412 Y-38.36411
G01 X29.14754 Y-38.25931
G01 X29.22892 Y-38.14440
G01 X29.29717 Y-38.02103
G01 X29.35095 Y-37.89108
G01 X29.38996 Y-37.75583
G01 X29.41361 Y-37.61765
G01 X29.42125 Y-37.47694
G01 X29.41361 Y-37.33624
G01 X29.38996 Y-37.19807
G01 X29.35092 Y-37.06276
G01 X29.29715 Y-36.93277
G01 X29.22895 Y-36.80952
G01 X29.14752 Y-36.69456
G01 X29.05412 Y-36.58974
G01 X28.94930 Y-36.49634
G01 X28.83433 Y-36.41491
G01 X28.71109 Y-36.34671
G01 X28.58105 Y-36.29291
G01 X28.44579 Y-36.25390
G01 X28.30759 Y-36.23025
G01 X28.16692 Y-36.22261
G01 X28.02621 Y-36.23025
G01 X27.88803 Y-36.25390
G01 X27.75283 Y-36.29291
G01 X27.62278 Y-36.34671
G01 X27.49951 Y-36.41491
G01 X27.38453 Y-36.49634
G01 X27.27975 Y-36.58974
G01 X27.18544 Y-36.69556
G01 X27.18219 Y-36.70003
G01 X27.15311 Y-36.73350
G01 X27.12517 Y-36.76040
G01 X27.08748 Y-36.79027
G01 X27.04478 Y-36.81237
G01 X27.00922 Y-36.82662
G01 X26.96357 Y-36.84003
G01 X26.91623 Y-36.84455
G01 X26.87762 Y-36.84455
G01 X26.83025 Y-36.84003
G01 X26.78461 Y-36.82662
G01 X26.74905 Y-36.81237
G01 X26.70635 Y-36.79027
G01 X26.66865 Y-36.76040
G01 X26.64071 Y-36.73350
G01 X26.61163 Y-36.70003
G01 X26.60836 Y-36.69550
G01 X26.51412 Y-36.58974
G01 X26.40930 Y-36.49634
G01 X26.29431 Y-36.41489
G01 X26.17107 Y-36.34669
G01 X26.04105 Y-36.29291
G01 X25.90579 Y-36.25390
G01 X25.76762 Y-36.23025
G01 X25.62695 Y-36.22261
G01 X25.48628 Y-36.23025
G01 X25.34811 Y-36.25390
G01 X25.21285 Y-36.29291
G01 X25.08281 Y-36.34671
G01 X24.95956 Y-36.41491
G01 X24.84460 Y-36.49634
G01 X24.73978 Y-36.58974
G01 X24.64552 Y-36.69556
G01 X24.64227 Y-36.70003
G01 X24.61319 Y-36.73350
G01 X24.58525 Y-36.76040
G01 X24.54755 Y-36.79027
G01 X24.50485 Y-36.81237
G01 X24.46929 Y-36.82662
G01 X24.42365 Y-36.84003
G01 X24.37628 Y-36.84455
G01 X24.33767 Y-36.84455
G01 X24.29033 Y-36.84003
G01 X24.24468 Y-36.82662
G01 X24.20912 Y-36.81237
G01 X24.16642 Y-36.79027
G01 X24.12873 Y-36.76040
G01 X24.10079 Y-36.73350
G01 X24.07171 Y-36.70003
G01 X24.06846 Y-36.69556
G01 X23.97415 Y-36.58974
G01 X23.86935 Y-36.49634
G01 X23.75439 Y-36.41491
G01 X23.63114 Y-36.34671
G01 X23.50110 Y-36.29291
G01 X23.36587 Y-36.25390
G01 X23.22769 Y-36.23025
G01 X23.08698 Y-36.22261
G01 X22.94628 Y-36.23025
G01 X22.80811 Y-36.25390
G01 X22.67283 Y-36.29294
G01 X22.54283 Y-36.34669
G01 X22.41959 Y-36.41489
G01 X22.30463 Y-36.49634
G01 X22.19978 Y-36.58974
G01 X22.10554 Y-36.69550
G01 X22.10227 Y-36.70003
G01 X22.07319 Y-36.73350
G01 X22.04525 Y-36.76040
G01 X22.00755 Y-36.79027
G01 X21.96485 Y-36.81237
G01 X21.92929 Y-36.82662
G01 X21.88365 Y-36.84003
G01 X21.83628 Y-36.84455
G01 X21.79767 Y-36.84455
G01 X21.75033 Y-36.84003
G01 X21.70468 Y-36.82662
G01 X21.66912 Y-36.81237
G01 X21.62642 Y-36.79027
G01 X21.58873 Y-36.76040
G01 X21.56079 Y-36.73350
G01 X21.53171 Y-36.70003
G01 X21.52846 Y-36.69556
G01 X21.43415 Y-36.58974
G01 X21.32937 Y-36.49634
G01 X21.21439 Y-36.41491
G01 X21.09112 Y-36.34671
G01 X20.96107 Y-36.29291
G01 X20.82587 Y-36.25390
G01 X20.68769 Y-36.23025
G01 X20.54698 Y-36.22261
G01 X20.40631 Y-36.23025
G01 X20.26811 Y-36.25390
G01 X20.13285 Y-36.29291
G01 X20.00281 Y-36.34671
G01 X19.87959 Y-36.41489
G01 X19.76460 Y-36.49634
G01 X19.65978 Y-36.58974
G01 X19.56554 Y-36.69550
G01 X19.56227 Y-36.70003
G01 X19.53319 Y-36.73350
G01 X19.50525 Y-36.76040
G01 X19.46755 Y-36.79027
G01 X19.42485 Y-36.81237
G01 X19.38929 Y-36.82662
G01 X19.34365 Y-36.84003
G01 X19.29628 Y-36.84455
G01 X19.25767 Y-36.84455
G01 X19.21033 Y-36.84003
G01 X19.16471 Y-36.82662
G01 X19.12912 Y-36.81237
G01 X19.08645 Y-36.79027
G01 X19.04873 Y-36.76040
G01 X19.02079 Y-36.73350
G01 X18.99171 Y-36.70003
G01 X18.98848 Y-36.69556
G01 X18.89415 Y-36.58974
G01 X18.78935 Y-36.49634
G01 X18.67439 Y-36.41491
G01 X18.55112 Y-36.34671
G01 X18.42107 Y-36.29291
G01 X18.28587 Y-36.25390
G01 X18.14769 Y-36.23025
G01 X18.00698 Y-36.22261
G01 X17.86628 Y-36.23025
G01 X17.72811 Y-36.25390
G01 X17.59285 Y-36.29291
G01 X17.46281 Y-36.34671
G01 X17.33956 Y-36.41491
G01 X17.22460 Y-36.49634
G01 X17.11975 Y-36.58976
G01 X17.02552 Y-36.69556
G01 X17.02227 Y-36.70003
G01 X16.99319 Y-36.73350
G01 X16.96525 Y-36.76040
G01 X16.92755 Y-36.79027
G01 X16.88485 Y-36.81237
G01 X16.84929 Y-36.82662
G01 X16.80365 Y-36.84003
G01 X16.75628 Y-36.84455
G01 X16.71767 Y-36.84455
G01 X16.67033 Y-36.84003
G01 X16.62468 Y-36.82662
G01 X16.58912 Y-36.81237
G01 X16.54642 Y-36.79027
G01 X16.50873 Y-36.76040
G01 X16.48079 Y-36.73350
G01 X16.45171 Y-36.70003
G01 X16.44846 Y-36.69556
G01 X16.35415 Y-36.58974
G01 X16.24935 Y-36.49634
G01 X16.13439 Y-36.41491
G01 X16.01114 Y-36.34671
G01 X15.88115 Y-36.29294
G01 X15.74587 Y-36.25390
G01 X15.60769 Y-36.23025
G01 X15.46698 Y-36.22261
G01 X15.32628 Y-36.23025
G01 X15.18811 Y-36.25390
G01 X15.05285 Y-36.29291
G01 X14.92283 Y-36.34669
G01 X14.79959 Y-36.41489
G01 X14.68460 Y-36.49634
G01 X14.57978 Y-36.58974
G01 X14.48554 Y-36.69550
G01 X14.48227 Y-36.70003
G01 X14.45319 Y-36.73350
G01 X14.42525 Y-36.76040
G01 X14.38755 Y-36.79027
G01 X14.34485 Y-36.81237
G01 X14.30929 Y-36.82662
G01 X14.26365 Y-36.84003
G01 X14.23568 Y-36.84270
G01 X14.24600 Y-36.85956
G01 X14.26233 Y-36.90218
G01 X14.27249 Y-36.93825
G01 X14.28085 Y-36.98362
G01 X14.28074 Y-37.02972
G01 X14.27721 Y-37.06680
G01 X14.26863 Y-37.11212
G01 X14.24399 Y-37.19792
G01 X14.22029 Y-37.33627
G01 X14.21265 Y-37.47694
G01 X14.22029 Y-37.61763
G01 X14.24399 Y-37.75598
G01 X14.26863 Y-37.84178
G01 X14.27721 Y-37.88709
G01 X14.28074 Y-37.92418
G01 X14.28085 Y-37.97028
G01 X14.27249 Y-38.01564
G01 X14.26233 Y-38.05171
G01 X14.24600 Y-38.09433
G01 X14.22220 Y-38.13327
G01 X14.19987 Y-38.16324
G01 X14.18801 Y-38.17638
G01 X14.16840 Y-38.19812
G01 X14.13096 Y-38.22646
G01 X14.09896 Y-38.24628
G01 X14.05695 Y-38.26710
G01 X14.01178 Y-38.27973
G01 X13.97521 Y-38.28633
G01 X13.93081 Y-38.29032
G01 X13.87031 Y-38.29032
G01 X13.82735 Y-38.34267
G01 X13.81087 Y-38.36083
G01 X13.79271 Y-38.37731
G01 X13.74036 Y-38.42027
G01 X13.93713 Y-38.49329
G01 X14.10089 Y-38.51326
G01 X14.15791 Y-38.52021
G01 X14.16248 Y-38.49261
G01 X14.16660 Y-38.46784
G01 X14.18453 Y-38.29202
G01 X14.18598 Y-38.24231
G01 X14.18610 Y-38.23929
G01 X14.18829 Y-38.19870
G01 X14.18801 Y-38.17638
G04 P0 ( dwell for no time -- G64 should not smooth over this point )
G00 Z5.00000 ( retract )

G00 X13.74036 Y-36.52398 ( rapid move to begin. )
G01 F60.00000
( Mill infeed pass 1/1 )
G01 Z-0.15000
G04 P0 ( dwell for no time -- G64 should not smooth over this point )
G01 F120.00000
G01 X13.74036 Y-36.52398
G01 X13.81415 Y-36.58974
G01 X13.87996 Y-36.66358
G01 X13.87031 Y-36.66358
G01 X13.82735 Y-36.61125
G01 X13.81087 Y-36.59307
G01 X13.79271 Y-36.57658
G01 X13.74036 Y-36.53363
G01 X13.74036 Y-36.52398
G04 P0 ( dwell for no time -- G64 should not smooth over this point )
G00 Z5.00000 ( retract )

G00 X13.93442 Y-34.78095 ( rapid move to begin. )
G01 F60.00000
( Mill infeed pass 1/1 )
G01 Z-0.15000
G04 P0 ( dwell for no time -- G64 should not smooth over this point )
G01 F120.00000
G01 X13.93442 Y-34.78095
G01 X13.99200 Y-34.78095
G01 X14.03541 Y-34.77714
G01 X14.07749 Y-34.76587
G01 X14.11699 Y-34.74745
G01 X14.15268 Y-34.72246
G01 X14.18351 Y-34.69165
G01 X14.20851 Y-34.65596
G01 X14.22692 Y-34.61646
G01 X14.23820 Y-34.57438
G01 X14.24198 Y-34.53094
G01 X14.24198 Y-34.41225
G01 X14.24722 Y-34.41225
G01 X14.24722 Y-34.51540
G01 X14.24196 Y-34.57473
G01 X14.23033 Y-34.61811
G01 X14.21178 Y-34.65804
G01 X14.18674 Y-34.69370
G01 X14.15522 Y-34.72523
G01 X14.11907 Y-34.75045
G01 X14.07861 Y-34.76924
G01 X14.03579 Y-34.78078
G01 X13.97673 Y-34.78598
G01 X13.93442 Y-34.78598
G01 X13.93442 Y-34.78095
G04 P0 ( dwell for no time -- G64 should not smooth over this point )
G00 Z5.00000 ( retract )

G00 X12.25192 Y-34.41225 ( rapid move to begin. )
G01 F60.00000
( Mill infeed pass 1/1 )
G01 Z-0.15000
G04 P0 ( dwell for no time -- G64 should not smooth over this point )
G01 F120.00000
G01 X12.25192 Y-34.41225
G01 X12.25700 Y-34.41225
G01 X12.25700 Y-34.53094
G01 X12.26078 Y-34.57438
G01 X12.27206 Y-34.61646
G01 X12.29048 Y-34.65596
G01 X12.31547 Y-34.69165
G01 X12.34631 Y-34.72246
G01 X12.38199 Y-34.74745
G01 X12.42149 Y-34.76587
G01 X12.46358 Y-34.77714
G01 X12.50699 Y-34.78095
G01 X12.56475 Y-34.78095
G01 X12.56475 Y-34.78598
G01 X12.52240 Y-34.78598
G01 X12.46315 Y-34.78075
G01 X12.42014 Y-34.76924
G01 X12.38029 Y-34.75058
G01 X12.34392 Y-34.72523
G01 X12.31242 Y-34.69373
G01 X12.28733 Y-34.65799
G01 X12.26873 Y-34.61806
G01 X12.25715 Y-34.57481
G01 X12.25192 Y-34.51552
G01 X12.25192 Y-34.41225
G04 P0 ( dwell for no time -- G64 should not smooth over this point )
G00 Z5.00000 ( retract )

G00 X6.05226 Y-27.36194 ( rapid move to begin. )
G01 F60.00000
( Mill infeed pass 1/1 )
G01 Z-0.15000
G04 P0 ( dwell for no time -- G64 should not smooth over this point )
G01 F120.00000
G01 X6.05226 Y-27.36194
G01 X6.17103 Y-27.36194
G01 X6.21980 Y-27.35714
G01 X6.26669 Y-27.34292
G01 X6.30992 Y-27.31983
G01 X6.34779 Y-27.28874
G01 X6.37888 Y-27.25084
G01 X6.40199 Y-27.20761
G01 X6.41622 Y-27.16073
G01 X6.42102 Y-27.11196
G01 X6.42102 Y-27.05438
G01 X6.42605 Y-27.05438
G01 X6.42605 Y-27.09659
G01 X6.42082 Y-27.15572
G01 X6.40928 Y-27.19857
G01 X6.39046 Y-27.23903
G01 X6.36527 Y-27.27518
G01 X6.33374 Y-27.30670
G01 X6.29808 Y-27.33174
G01 X6.25815 Y-27.35029
G01 X6.21475 Y-27.36192
G01 X6.15551 Y-27.36718
G01 X6.05226 Y-27.36718
G01 X6.05226 Y-27.36194
G04 P0 ( dwell for no time -- G64 should not smooth over this point )
G00 Z5.00000 ( retract )

G00 X4.18790 Y-27.05438 ( rapid move to begin. )
G01 F60.00000
( Mill infeed pass 1/1 )
G01 Z-0.15000
G04 P0 ( dwell for no time -- G64 should not smooth over this point )
G01 F120.00000
G01 X4.18790 Y-27.05438
G01 X4.19303 Y-27.05438
G01 X4.19303 Y-27.11196
G01 X4.19682 Y-27.15537
G01 X4.20810 Y-27.19745
G01 X4.22651 Y-27.23695
G01 X4.25150 Y-27.27264
G01 X4.28231 Y-27.30347
G01 X4.31803 Y-27.32847
G01 X4.35752 Y-27.34688
G01 X4.39961 Y-27.35816
G01 X4.44302 Y-27.36194
G01 X4.56166 Y-27.36194
G01 X4.56166 Y-27.36718
G01 X4.45846 Y-27.36718
G01 X4.39941 Y-27.36194
G01 X4.35648 Y-27.35036
G01 X4.31602 Y-27.33157
G01 X4.27993 Y-27.30642
G01 X4.24871 Y-27.27518
G01 X4.22351 Y-27.23906
G01 X4.20469 Y-27.19857
G01 X4.19313 Y-27.15570
G01 X4.18790 Y-27.09656
G01 X4.18790 Y-27.05438
G04 P0 ( dwell for no time -- G64 should not smooth over this point )
G00 Z5.00000 ( retract )

G00 X4.18790 Y-25.64249 ( rapid move to begin. )
G01 F60.00000
( Mill infeed pass 1/1 )
G01 Z-0.15000
G04 P0 ( dwell for no time -- G64 should not smooth over this point )
G01 F120.00000
G01 X4.18790 Y-25.64249
G01 X4.19316 Y-25.58316
G01 X4.20469 Y-25.54008
G01 X4.22336 Y-25.50023
G01 X4.24871 Y-25.46385
G01 X4.27988 Y-25.43269
G01 X4.31607 Y-25.40746
G01 X4.35651 Y-25.38864
G01 X4.39936 Y-25.37711
G01 X4.45851 Y-25.37188
G01 X4.56166 Y-25.37188
G01 X4.56166 Y-25.37696
G01 X4.44302 Y-25.37696
G01 X4.39961 Y-25.38074
G01 X4.35752 Y-25.39202
G01 X4.31803 Y-25.41044
G01 X4.28231 Y-25.43543
G01 X4.25150 Y-25.46627
G01 X4.22651 Y-25.50195
G01 X4.20810 Y-25.54145
G01 X4.19682 Y-25.58354
G01 X4.19303 Y-25.62695
G01 X4.19303 Y-25.68468
G01 X4.18790 Y-25.68468
G01 X4.18790 Y-25.64249
G04 P0 ( dwell for no time -- G64 should not smooth over this point )
G00 Z5.00000 ( retract )

G00 X6.05226 Y-25.37188 ( rapid move to begin. )
G01 F60.00000
( Mill infeed pass 1/1 )
G01 Z-0.15000
G04 P0 ( dwell for no time -- G64 should not smooth over this point )
G01 F120.00000
G01 X6.05226 Y-25.37188
G01 X6.15546 Y-25.37188
G01 X6.21480 Y-25.37711
G01 X6.25813 Y-25.38872
G01 X6.29806 Y-25.40729
G01 X6.33380 Y-25.43238
G01 X6.36527 Y-25.46385
G01 X6.39062 Y-25.50020
G01 X6.40928 Y-25.54010
G01 X6.42082 Y-25.58316
G01 X6.42605 Y-25.64247
G01 X6.42605 Y-25.68468
G01 X6.42102 Y-25.68468
G01 X6.42102 Y-25.62695
G01 X6.41723 Y-25.58354
G01 X6.40596 Y-25.54145
G01 X6.38752 Y-25.50195
G01 X6.36252 Y-25.46627
G01 X6.33171 Y-25.43543
G01 X6.29603 Y-25.41044
G01 X6.25653 Y-25.39202
G01 X6.21444 Y-25.38074
G01 X6.17103 Y-25.37696
G01 X6.05226 Y-25.37696
G01 X6.05226 Y-25.37188
G04 P0 ( dwell for no time -- G64 should not smooth over this point )
G00 Z5.00000 ( retract )

G00 X8.62195 Y-24.78006 ( rapid move to begin. )
G01 F60.00000
( Mill infeed pass 1/1 )
G01 Z-0.15000
G04 P0 ( dwell for no time -- G64 should not smooth over this point )
G01 F120.00000
G01 X8.62195 Y-24.78006
G01 X8.67174 Y-24.76558
G01 X8.67916 Y-24.76342
G01 X8.68368 Y-24.76220
G01 X8.68883 Y-24.76091
G01 X8.69196 Y-24.77340
G01 X8.72592 Y-24.79588
G01 X8.65685 Y-24.90010
G01 X8.62195 Y-24.78006
G04 P0 ( dwell for no time -- G64 should not smooth over this point )
G00 Z5.00000 ( retract )

G00 X10.82726 Y-24.75692 ( rapid move to begin. )
G01 F60.00000
( Mill infeed pass 1/1 )
G01 Z-0.15000
G04 P0 ( dwell for no time -- G64 should not smooth over this point )
G01 F120.00000
G01 X10.82726 Y-24.75692
G01 X11.04715 Y-24.75692
G01 X11.09591 Y-24.75212
G01 X11.14280 Y-24.73790
G01 X11.18603 Y-24.71478
G01 X11.22393 Y-24.68369
G01 X11.25502 Y-24.64582
G01 X11.27811 Y-24.60259
G01 X11.29233 Y-24.55570
G01 X11.29713 Y-24.50693
G01 X11.29713 Y-24.47861
G01 X14.87830 Y-24.41280
G01 X14.90279 Y-24.41115
G01 X15.04882 Y-24.39406
G01 X15.09669 Y-24.38362
G01 X15.23657 Y-24.33835
G01 X15.25951 Y-24.32967
G01 X15.28150 Y-24.31877
G01 X15.40988 Y-24.24709
G01 X15.45011 Y-24.21913
G01 X15.51706 Y-24.16208
G01 X15.86108 Y-24.16208
G01 X15.90449 Y-24.15829
G01 X15.94658 Y-24.14702
G01 X15.98608 Y-24.12860
G01 X16.02176 Y-24.10361
G01 X16.05257 Y-24.07277
G01 X16.07757 Y-24.03708
G01 X16.09601 Y-23.99759
G01 X16.10728 Y-23.95550
G01 X16.11107 Y-23.91209
G01 X16.11107 Y-22.91209
G01 X16.10627 Y-22.86330
G01 X16.09204 Y-22.81641
G01 X16.06893 Y-22.77318
G01 X16.03784 Y-22.73531
G01 X15.99997 Y-22.70422
G01 X15.95674 Y-22.68111
G01 X15.90985 Y-22.66688
G01 X15.86108 Y-22.66208
G01 X15.51676 Y-22.66208
G01 X15.42009 Y-22.58568
G01 X15.40012 Y-22.57143
G01 X15.37886 Y-22.55921
G01 X15.24795 Y-22.49228
G01 X15.20233 Y-22.47437
G01 X15.06088 Y-22.43429
G01 X15.03695 Y-22.42876
G01 X15.01265 Y-22.42561
G01 X14.86609 Y-22.41390
G01 X14.84155 Y-22.41314
G01 X11.29431 Y-22.47831
G01 X11.29233 Y-22.45814
G01 X11.27811 Y-22.41126
G01 X11.25502 Y-22.36802
G01 X11.22393 Y-22.33015
G01 X11.18603 Y-22.29906
G01 X11.14280 Y-22.27595
G01 X11.09591 Y-22.26173
G01 X11.04715 Y-22.25693
G01 X8.44715 Y-22.25693
G01 X8.39836 Y-22.26173
G01 X8.35147 Y-22.27595
G01 X8.30824 Y-22.29906
G01 X8.27037 Y-22.33015
G01 X8.23928 Y-22.36802
G01 X8.22551 Y-22.39375
G01 X6.33740 Y-22.25659
G01 X6.30984 Y-22.23399
G01 X6.26664 Y-22.21087
G01 X6.21972 Y-22.19665
G01 X6.17096 Y-22.19185
G01 X5.44619 Y-22.19185
G01 X5.37944 Y-22.18700
G01 X5.35491 Y-22.18641
G01 X5.20792 Y-22.19020
G01 X5.19458 Y-22.19185
G01 X4.44297 Y-22.19185
G01 X4.39420 Y-22.19665
G01 X4.34729 Y-22.21087
G01 X4.30408 Y-22.23399
G01 X4.26618 Y-22.26508
G01 X4.23510 Y-22.30295
G01 X4.21198 Y-22.34618
G01 X4.19776 Y-22.39307
G01 X4.19296 Y-22.44186
G01 X4.19296 Y-23.92685
G01 X4.19776 Y-23.97562
G01 X4.21198 Y-24.02253
G01 X4.23510 Y-24.06574
G01 X4.26618 Y-24.10363
G01 X4.30408 Y-24.13472
G01 X4.34729 Y-24.15781
G01 X4.39420 Y-24.17206
G01 X4.44297 Y-24.17686
G01 X5.19910 Y-24.17686
G01 X5.21015 Y-24.17877
G01 X5.23451 Y-24.18174
G01 X8.19714 Y-24.39698
G01 X8.19714 Y-24.50693
G01 X8.20194 Y-24.55570
G01 X8.21616 Y-24.60259
G01 X8.23928 Y-24.64582
G01 X8.27037 Y-24.68369
G01 X8.30824 Y-24.71478
G01 X8.35147 Y-24.73790
G01 X8.39836 Y-24.75212
G01 X8.44715 Y-24.75692
G01 X8.66701 Y-24.75692
G01 X8.68772 Y-24.75692
G01 X8.66701 Y-24.75692
G01 X8.66861 Y-24.75794
G01 X8.67634 Y-24.76304
G01 X8.67700 Y-24.76269
G01 X8.68772 Y-24.75692
G01 X10.80648 Y-24.75692
G01 X10.82726 Y-24.75692
G01 X10.82568 Y-24.75794
G01 X10.81791 Y-24.76307
G01 X10.81461 Y-24.76126
G01 X10.81306 Y-24.76043
G01 X10.80648 Y-24.75692
G01 X10.67697 Y-24.96355
G01 X10.66010 Y-24.93459
G01 X10.63777 Y-24.90157
G01 X10.60656 Y-24.86396
G01 X10.56861 Y-24.83312
G01 X10.53559 Y-24.81128
G01 X10.49261 Y-24.78852
G01 X10.44603 Y-24.77450
G01 X10.40740 Y-24.76688
G01 X10.35901 Y-24.76215
G01 X9.13526 Y-24.76215
G01 X9.08749 Y-24.76678
G01 X9.04837 Y-24.77440
G01 X9.00148 Y-24.78839
G01 X8.95823 Y-24.81128
G01 X8.92521 Y-24.83312
G01 X8.89859 Y-24.85341
G01 X8.87494 Y-24.87706
G01 X8.85464 Y-24.90368
G01 X8.83280 Y-24.93670
G01 X8.81352 Y-24.97312
G01 X8.81312 Y-24.97391
G01 X8.77372 Y-24.99497
G01 X8.73298 Y-25.02220
G01 X8.58144 Y-25.14656
G01 X8.54680 Y-25.18123
G01 X8.50382 Y-25.23358
G01 X8.48673 Y-25.23358
G01 X8.48794 Y-25.23162
G01 X8.50024 Y-25.20604
G01 X8.51700 Y-25.16540
G01 X8.52818 Y-25.13175
G01 X8.53445 Y-25.09687
G01 X8.53575 Y-25.06144
G01 X8.53422 Y-25.01724
G01 X8.53021 Y-24.98044
G01 X8.52579 Y-24.96355
G01 X8.53272 Y-24.96779
G01 X8.58782 Y-25.00429
G01 X8.60687 Y-25.01465
G01 X8.62742 Y-25.02156
G01 X8.64885 Y-25.02484
G01 X8.67052 Y-25.02436
G01 X8.69178 Y-25.02011
G01 X8.74664 Y-25.00414
G01 X8.74959 Y-25.00343
G01 X8.76501 Y-24.99847
G01 X8.77964 Y-24.99159
G01 X8.79653 Y-24.98224
G01 X8.81352 Y-24.97312
G01 X8.79653 Y-24.98224
G01 X8.77964 Y-24.99159
G01 X8.76501 Y-24.99847
G01 X8.74959 Y-25.00343
G01 X8.74664 Y-25.00414
G01 X8.69178 Y-25.02011
G01 X8.67052 Y-25.02436
G01 X8.64885 Y-25.02484
G01 X8.64730 Y-25.04432
G01 X8.64885 Y-25.02484
G01 X8.62742 Y-25.02156
G01 X8.60687 Y-25.01465
G01 X8.58782 Y-25.00429
G01 X8.53272 Y-24.96779
G01 X8.52579 Y-24.96355
G01 X8.52081 Y-24.94465
G01 X8.50623 Y-24.91062
G01 X8.48591 Y-24.87150
G01 X8.46686 Y-24.84056
G01 X8.44355 Y-24.81272
G01 X8.41644 Y-24.78857
G01 X8.38139 Y-24.76162
G01 X8.35838 Y-24.74590
G01 X8.33379 Y-24.73282
G01 X8.32036 Y-24.72662
G01 X8.28396 Y-24.70099
G01 X8.25249 Y-24.66977
G01 X8.22724 Y-24.63353
G01 X8.20318 Y-24.58250
G01 X8.18284 Y-24.54714
G01 X8.16252 Y-24.51768
G01 X8.13349 Y-24.48283
G01 X8.09864 Y-24.45380
G01 X8.06917 Y-24.43348
G01 X8.03016 Y-24.41145
G01 X7.98784 Y-24.39672
G01 X7.95327 Y-24.38809
G01 X7.91078 Y-24.38130
G01 X5.24269 Y-24.18763
G01 X5.20880 Y-24.18369
G01 X5.17995 Y-24.18202
G01 X4.45854 Y-24.18202
G01 X4.39941 Y-24.17678
G01 X4.35648 Y-24.16520
G01 X4.31605 Y-24.14643
G01 X4.27990 Y-24.12123
G01 X4.24843 Y-24.08974
G01 X4.22334 Y-24.05403
G01 X4.20477 Y-24.01410
G01 X4.19316 Y-23.97074
G01 X4.18790 Y-23.91140
G01 X4.18790 Y-22.45733
G01 X4.19313 Y-22.39817
G01 X4.20469 Y-22.35532
G01 X4.22354 Y-22.31481
G01 X4.24843 Y-22.27910
G01 X4.27988 Y-22.24791
G01 X4.31660 Y-22.22205
G01 X4.35656 Y-22.20346
G01 X4.39931 Y-22.19193
G01 X4.45841 Y-22.18672
G01 X5.18658 Y-22.18672
G01 X5.20979 Y-22.18565
G01 X5.25694 Y-22.18123
G01 X5.39125 Y-22.18258
G01 X5.44401 Y-22.18614
G01 X5.46090 Y-22.18672
G01 X6.15556 Y-22.18672
G01 X6.21485 Y-22.19195
G01 X6.25757 Y-22.20341
G01 X6.30540 Y-22.22591
G01 X6.34959 Y-22.24184
G01 X6.38515 Y-22.25098
G01 X6.42935 Y-22.25820
G01 X8.05498 Y-22.37605
G01 X8.09503 Y-22.37575
G01 X8.12958 Y-22.37270
G01 X8.17253 Y-22.36508
G01 X8.21352 Y-22.35012
G01 X8.24502 Y-22.33539
G01 X8.28251 Y-22.31372
G01 X8.32053 Y-22.28707
G01 X8.36021 Y-22.26851
G01 X8.40324 Y-22.25698
G01 X8.46257 Y-22.25174
G01 X11.03175 Y-22.25174
G01 X11.09089 Y-22.25698
G01 X11.13374 Y-22.26851
G01 X11.17425 Y-22.28735
G01 X11.21037 Y-22.31253
G01 X11.26378 Y-22.36594
G01 X11.28207 Y-22.38253
G01 X11.30193 Y-22.39723
G01 X11.33544 Y-22.41956
G01 X11.36434 Y-22.43615
G01 X11.39520 Y-22.44875
G01 X11.42749 Y-22.45713
G01 X11.46764 Y-22.46475
G01 X11.49312 Y-22.46825
G01 X11.51882 Y-22.46909
G01 X14.83093 Y-22.40828
G01 X14.96289 Y-22.41395
G01 X15.08224 Y-22.43343
G01 X15.19865 Y-22.46762
G01 X15.31056 Y-22.51524
G01 X15.41493 Y-22.57592
G01 X15.42811 Y-22.58593
G01 X15.46573 Y-22.60953
G01 X15.49469 Y-22.62429
G01 X15.52915 Y-22.63871
G01 X15.56540 Y-22.64786
G01 X15.59740 Y-22.65342
G01 X15.64020 Y-22.65710
G01 X15.84561 Y-22.65710
G01 X15.90487 Y-22.66236
G01 X15.94823 Y-22.67397
G01 X15.98854 Y-22.69271
G01 X16.02468 Y-22.71794
G01 X16.05537 Y-22.74859
G01 X16.08054 Y-22.78471
G01 X16.09931 Y-22.82505
G01 X16.11089 Y-22.86833
G01 X16.11612 Y-22.92761
G01 X16.11612 Y-23.89677
G01 X16.11092 Y-23.95588
G01 X16.09938 Y-23.99868
G01 X16.08054 Y-24.03919
G01 X16.05509 Y-24.07569
G01 X16.02425 Y-24.10678
G01 X15.98849 Y-24.13172
G01 X15.94823 Y-24.15044
G01 X15.90487 Y-24.16205
G01 X15.84564 Y-24.16728
G01 X15.64528 Y-24.16728
G01 X15.61018 Y-24.16977
G01 X15.58171 Y-24.17381
G01 X15.54704 Y-24.18125
G01 X15.51379 Y-24.19355
G01 X15.48790 Y-24.20526
G01 X15.45776 Y-24.22146
G01 X15.34320 Y-24.29357
G01 X15.23337 Y-24.34524
G01 X15.11813 Y-24.38351
G01 X14.99946 Y-24.40749
G01 X14.86764 Y-24.41788
G01 X11.55177 Y-24.47925
G01 X11.51661 Y-24.48237
G01 X11.48509 Y-24.48745
G01 X11.44397 Y-24.49774
G01 X11.40516 Y-24.51481
G01 X11.37722 Y-24.53005
G01 X11.34483 Y-24.55110
G01 X11.31608 Y-24.57691
G01 X11.29426 Y-24.59977
G01 X11.27102 Y-24.62802
G01 X11.24161 Y-24.66959
G01 X11.20994 Y-24.70127
G01 X11.17392 Y-24.72664
G01 X11.16048 Y-24.73284
G01 X11.13595 Y-24.74587
G01 X11.11301 Y-24.76157
G01 X11.07793 Y-24.78852
G01 X11.05080 Y-24.81270
G01 X11.02746 Y-24.84056
G01 X11.00839 Y-24.87150
G01 X10.98807 Y-24.91062
G01 X10.97379 Y-24.94379
G01 X10.96846 Y-24.96360
G01 X10.96442 Y-24.97866
G01 X10.96018 Y-25.01453
G01 X10.95817 Y-25.05872
G01 X10.95926 Y-25.09591
G01 X10.96584 Y-25.13251
G01 X10.97778 Y-25.16774
G01 X10.99503 Y-25.20838
G01 X11.00681 Y-25.23246
G01 X11.00752 Y-25.23358
G01 X10.99048 Y-25.23358
G01 X10.94750 Y-25.18123
G01 X10.91286 Y-25.14656
G01 X10.76132 Y-25.02220
G01 X10.72055 Y-24.99497
G01 X10.68131 Y-24.97399
G01 X10.68103 Y-24.97338
G01 X10.67697 Y-24.96355
G01 X10.68103 Y-24.97338
G01 X10.69541 Y-24.98100
G01 X10.71491 Y-24.99172
G01 X10.72942 Y-24.99852
G01 X10.74468 Y-25.00340
G01 X10.74791 Y-25.00421
G01 X10.80252 Y-25.02011
G01 X10.82380 Y-25.02433
G01 X10.84547 Y-25.02484
G01 X10.86691 Y-25.02156
G01 X10.88746 Y-25.01465
G01 X10.90648 Y-25.00429
G01 X10.96155 Y-24.96779
G01 X10.96846 Y-24.96360
G01 X10.96155 Y-24.96779
G01 X10.90648 Y-25.00429
G01 X10.88746 Y-25.01465
G01 X10.86691 Y-25.02156
G01 X10.84547 Y-25.02484
G01 X10.84702 Y-25.04424
G04 P0 ( dwell for no time -- G64 should not smooth over this point )
G00 Z5.00000 ( retract )

G00 X13.61674 Y-26.84851 ( rapid move to begin. )
G01 F60.00000
( Mill infeed pass 1/1 )
G01 Z-0.15000
G04 P0 ( dwell for no time -- G64 should not smooth over this point )
G01 F120.00000
G01 X13.61674 Y-26.84851
G01 X13.62055 Y-26.84851
G01 X13.63035 Y-26.81623
G01 X13.65344 Y-26.77302
G01 X13.68453 Y-26.73512
G01 X13.72243 Y-26.70403
G01 X13.76563 Y-26.68094
G01 X13.81255 Y-26.66670
G01 X13.86131 Y-26.66189
G01 X14.04808 Y-26.66189
G01 X14.04808 Y-26.65661
G01 X13.87683 Y-26.65661
G01 X13.81768 Y-26.66184
G01 X13.77483 Y-26.67338
G01 X13.73492 Y-26.69194
G01 X13.69822 Y-26.71777
G01 X13.66672 Y-26.74902
G01 X13.64183 Y-26.78473
G01 X13.62301 Y-26.82522
G01 X13.61674 Y-26.84851
G04 P0 ( dwell for no time -- G64 should not smooth over this point )
G00 Z5.00000 ( retract )

G00 X13.61674 Y-27.97538 ( rapid move to begin. )
G01 F60.00000
( Mill infeed pass 1/1 )
G01 Z-0.15000
G04 P0 ( dwell for no time -- G64 should not smooth over this point )
G01 F120.00000
G01 X13.61674 Y-27.97538
G01 X13.62057 Y-27.97538
G01 X13.63035 Y-28.00756
G01 X13.65344 Y-28.05079
G01 X13.68453 Y-28.08869
G01 X13.72243 Y-28.11978
G01 X13.76563 Y-28.14287
G01 X13.81255 Y-28.15709
G01 X13.86131 Y-28.16189
G01 X14.04808 Y-28.16189
G01 X14.04808 Y-28.16674
G01 X13.87617 Y-28.16674
G01 X13.81699 Y-28.16184
G01 X13.77483 Y-28.15049
G01 X13.73490 Y-28.13192
G01 X13.69825 Y-28.10611
G01 X13.66672 Y-28.07485
G01 X13.64183 Y-28.03916
G01 X13.62301 Y-27.99867
G01 X13.61674 Y-27.97538
G04 P0 ( dwell for no time -- G64 should not smooth over this point )
G00 Z5.00000 ( retract )

G00 X12.25192 Y-32.81837 ( rapid move to begin. )
G01 F60.00000
( Mill infeed pass 1/1 )
G01 Z-0.15000
G04 P0 ( dwell for no time -- G64 should not smooth over this point )
G01 F120.00000
G01 X12.25192 Y-32.81837
G01 X12.25715 Y-32.75909
G01 X12.26866 Y-32.71614
G01 X12.28733 Y-32.67628
G01 X12.31273 Y-32.63984
G01 X12.34387 Y-32.60867
G01 X12.38029 Y-32.58330
G01 X12.42012 Y-32.56468
G01 X12.46320 Y-32.55312
G01 X12.52253 Y-32.54786
G01 X12.56475 Y-32.54786
G01 X12.56475 Y-32.55294
G01 X12.50699 Y-32.55294
G01 X12.46358 Y-32.55675
G01 X12.42149 Y-32.56803
G01 X12.38199 Y-32.58644
G01 X12.34631 Y-32.61144
G01 X12.31547 Y-32.64225
G01 X12.29048 Y-32.67796
G01 X12.27206 Y-32.71746
G01 X12.26078 Y-32.75955
G01 X12.25700 Y-32.80295
G01 X12.25700 Y-32.92162
G01 X12.25192 Y-32.92162
G01 X12.25192 Y-32.81837
G04 P0 ( dwell for no time -- G64 should not smooth over this point )
G00 Z5.00000 ( retract )

G00 X13.93442 Y-32.54786 ( rapid move to begin. )
G01 F60.00000
( Mill infeed pass 1/1 )
G01 Z-0.15000
G04 P0 ( dwell for no time -- G64 should not smooth over this point )
G01 F120.00000
G01 X13.93442 Y-32.54786
G01 X13.97660 Y-32.54786
G01 X14.03576 Y-32.55309
G01 X14.07861 Y-32.56465
G01 X14.11910 Y-32.58347
G01 X14.15524 Y-32.60870
G01 X14.18643 Y-32.63986
G01 X14.21178 Y-32.67623
G01 X14.23040 Y-32.71606
G01 X14.24196 Y-32.75916
G01 X14.24722 Y-32.81850
G01 X14.24722 Y-32.92162
G01 X14.24198 Y-32.92162
G01 X14.24198 Y-32.80295
G01 X14.23718 Y-32.75419
G01 X14.22296 Y-32.70727
G01 X14.19987 Y-32.66407
G01 X14.16878 Y-32.62617
G01 X14.13088 Y-32.59508
G01 X14.08765 Y-32.57199
G01 X14.04077 Y-32.55777
G01 X13.99200 Y-32.55294
G01 X13.93442 Y-32.55294
G01 X13.93442 Y-32.54786
G04 P0 ( dwell for no time -- G64 should not smooth over this point )
G00 Z5.00000 ( retract )

G00 X15.67482 Y-28.16189 ( rapid move to begin. )
G01 F60.00000
( Mill infeed pass 1/1 )
G01 Z-0.15000
G04 P0 ( dwell for no time -- G64 should not smooth over this point )
G01 F120.00000
G01 X15.67482 Y-28.16189
G01 X15.67482 Y-28.16674
G01 X15.84673 Y-28.16674
G01 X15.90589 Y-28.16184
G01 X15.94808 Y-28.15049
G01 X15.98803 Y-28.13192
G01 X16.02420 Y-28.10642
G01 X16.05580 Y-28.07485
G01 X16.08130 Y-28.03863
G01 X16.09987 Y-27.99870
G01 X16.10614 Y-27.97538
G01 X16.10213 Y-27.97538
G01 X16.09624 Y-27.99740
G01 X16.07782 Y-28.03690
G01 X16.05283 Y-28.07259
G01 X16.02202 Y-28.10342
G01 X15.98630 Y-28.12841
G01 X15.94683 Y-28.14683
G01 X15.90472 Y-28.15811
G01 X15.86131 Y-28.16189
G01 X15.67482 Y-28.16189
G04 P0 ( dwell for no time -- G64 should not smooth over this point )
G00 Z5.00000 ( retract )

G00 X15.67482 Y-26.65661 ( rapid move to begin. )
G01 F60.00000
( Mill infeed pass 1/1 )
G01 Z-0.15000
G04 P0 ( dwell for no time -- G64 should not smooth over this point )
G01 F120.00000
G01 X15.67482 Y-26.65661
G01 X15.67482 Y-26.66189
G01 X15.86131 Y-26.66189
G01 X15.90472 Y-26.66570
G01 X15.94681 Y-26.67698
G01 X15.98630 Y-26.69540
G01 X16.02202 Y-26.72039
G01 X16.05283 Y-26.75120
G01 X16.07782 Y-26.78691
G01 X16.09624 Y-26.82641
G01 X16.10215 Y-26.84851
G01 X16.10614 Y-26.84851
G01 X16.09987 Y-26.82519
G01 X16.08130 Y-26.78524
G01 X16.05580 Y-26.74904
G01 X16.02423 Y-26.71750
G01 X15.98798 Y-26.69194
G01 X15.94805 Y-26.67338
G01 X15.90523 Y-26.66184
G01 X15.84607 Y-26.65661
G01 X15.67482 Y-26.65661
G04 P0 ( dwell for no time -- G64 should not smooth over this point )
G00 Z5.00000 ( retract )

G00 X19.89780 Y-26.92644 ( rapid move to begin. )
G01 F60.00000
( Mill infeed pass 1/1 )
G01 Z-0.15000
G04 P0 ( dwell for no time -- G64 should not smooth over this point )
G01 F120.00000
G01 X19.89780 Y-26.92644
G01 X19.90270 Y-26.86738
G01 X19.91406 Y-26.82524
G01 X19.93265 Y-26.78529
G01 X19.95820 Y-26.74899
G01 X19.98972 Y-26.71747
G01 X20.02595 Y-26.69197
G01 X20.06592 Y-26.67338
G01 X20.10870 Y-26.66184
G01 X20.16831 Y-26.65661
G01 X20.37070 Y-26.65661
G01 X20.40931 Y-26.65361
G01 X20.44182 Y-26.64853
G01 X20.48180 Y-26.63886
G01 X20.51967 Y-26.62275
G01 X20.54863 Y-26.60751
G01 X20.58358 Y-26.58524
G01 X20.59684 Y-26.57515
G01 X20.70100 Y-26.51435
G01 X20.81228 Y-26.46644
G01 X20.92892 Y-26.43220
G01 X21.04896 Y-26.41186
G01 X21.16966 Y-26.40657
G01 X21.29059 Y-26.41595
G01 X21.40961 Y-26.43959
G01 X21.52493 Y-26.47736
G01 X21.63460 Y-26.52895
G01 X21.75350 Y-26.60332
G01 X21.78329 Y-26.61927
G01 X21.80920 Y-26.63096
G01 X21.84408 Y-26.64366
G01 X21.88042 Y-26.65105
G01 X21.90836 Y-26.65460
G01 X21.93991 Y-26.65661
G01 X22.13714 Y-26.65661
G01 X22.19650 Y-26.66187
G01 X22.23981 Y-26.67345
G01 X22.27920 Y-26.69179
G01 X22.31550 Y-26.71750
G01 X22.34728 Y-26.74902
G01 X22.37214 Y-26.78473
G01 X22.39099 Y-26.82522
G01 X22.40250 Y-26.86802
G01 X22.40770 Y-26.92717
G01 X22.40770 Y-27.58008
G01 X22.40984 Y-27.61269
G01 X22.41291 Y-27.63606
G01 X22.41794 Y-27.66283
G01 X22.42584 Y-27.68889
G01 X22.43399 Y-27.71124
G01 X22.44575 Y-27.73855
G01 X23.36269 Y-29.55363
G01 X23.38619 Y-29.59135
G01 X23.40801 Y-29.62031
G01 X23.43821 Y-29.65366
G01 X23.47389 Y-29.68107
G01 X23.50437 Y-29.70037
G01 X23.54346 Y-29.72054
G01 X23.67458 Y-29.77418
G01 X23.81143 Y-29.84698
G01 X23.94009 Y-29.93377
G01 X24.05901 Y-30.03263
G01 X24.16688 Y-30.14355
G01 X24.26325 Y-30.26521
G01 X24.34641 Y-30.39582
G01 X24.41570 Y-30.53440
G01 X24.47054 Y-30.67931
G01 X24.50968 Y-30.82897
G01 X24.53368 Y-30.98251
G01 X24.54151 Y-31.13707
G01 X24.53368 Y-31.29163
G01 X24.50971 Y-31.44461
G01 X24.47054 Y-31.59437
G01 X24.41573 Y-31.73925
G01 X24.34643 Y-31.87784
G01 X24.26325 Y-32.00849
G01 X24.16691 Y-32.13011
G01 X24.05878 Y-32.24128
G01 X23.94003 Y-32.34045
G01 X23.81143 Y-32.42675
G01 X23.67453 Y-32.50003
G01 X23.53163 Y-32.55823
G01 X23.38268 Y-32.60135
G01 X23.23018 Y-32.62924
G01 X23.07603 Y-32.64100
G01 X22.92091 Y-32.63707
G01 X22.76701 Y-32.61700
G01 X22.61626 Y-32.58172
G01 X22.47016 Y-32.53084
G01 X22.32988 Y-32.46506
G01 X22.19721 Y-32.38545
G01 X22.07344 Y-32.29219
G01 X21.95952 Y-32.18700
G01 X21.85734 Y-32.07090
G01 X21.76752 Y-31.94446
G01 X21.69089 Y-31.80951
G01 X21.62912 Y-31.66765
G01 X21.58203 Y-31.52028
G01 X21.55028 Y-31.36849
G01 X21.53460 Y-31.21477
G01 X21.53460 Y-31.05940
G01 X21.55028 Y-30.90535
G01 X21.58213 Y-30.75343
G01 X21.59056 Y-30.72666
G01 X21.60039 Y-30.68101
G01 X21.60499 Y-30.64243
G01 X21.60600 Y-30.59359
G01 X21.59747 Y-30.54545
G01 X21.58680 Y-30.50735
G01 X21.56922 Y-30.46204
G01 X20.50750 Y-28.35991
G01 X20.48345 Y-28.32145
G01 X20.46110 Y-28.29202
G01 X20.42909 Y-28.25724
G01 X20.39112 Y-28.22910
G01 X20.35912 Y-28.20980
G01 X20.31987 Y-28.19059
G01 X20.27789 Y-28.17850
G01 X20.24131 Y-28.17137
G01 X20.19341 Y-28.16674
G01 X20.16765 Y-28.16674
G01 X20.10804 Y-28.16184
G01 X20.06587 Y-28.15046
G01 X20.02592 Y-28.13189
G01 X19.98972 Y-28.10642
G01 X19.95820 Y-28.07487
G01 X19.93265 Y-28.03860
G01 X19.91406 Y-27.99865
G01 X19.90270 Y-27.95651
G01 X19.89780 Y-27.89745
G01 X19.89780 Y-26.92644
G01 X19.90263 Y-26.91191
G01 X19.90263 Y-27.91190
G01 X19.90743 Y-27.96067
G01 X19.92165 Y-28.00759
G01 X19.94477 Y-28.05082
G01 X19.97586 Y-28.08869
G01 X20.01373 Y-28.11978
G01 X20.05696 Y-28.14289
G01 X20.10387 Y-28.15712
G01 X20.15264 Y-28.16192
G01 X20.41304 Y-28.16192
G01 X21.64083 Y-30.59260
G01 X21.57171 Y-30.82041
G01 X21.56216 Y-30.86846
G01 X21.53813 Y-31.11236
G01 X21.53813 Y-31.16133
G01 X21.56216 Y-31.40519
G01 X21.57171 Y-31.45327
G01 X21.64286 Y-31.68777
G01 X21.65111 Y-31.71086
G01 X21.66160 Y-31.73303
G01 X21.77712 Y-31.94913
G01 X21.80435 Y-31.98990
G01 X21.95980 Y-32.17931
G01 X21.97628 Y-32.19749
G01 X21.99445 Y-32.21398
G01 X22.18388 Y-32.36943
G01 X22.22462 Y-32.39666
G01 X22.44072 Y-32.51215
G01 X22.46290 Y-32.52264
G01 X22.48601 Y-32.53092
G01 X22.72050 Y-32.60204
G01 X22.76856 Y-32.61162
G01 X23.01243 Y-32.63562
G01 X23.03694 Y-32.63684
G01 X23.06145 Y-32.63562
G01 X23.30529 Y-32.61162
G01 X23.35337 Y-32.60204
G01 X23.58786 Y-32.53092
G01 X23.61095 Y-32.52264
G01 X23.63313 Y-32.51215
G01 X23.84925 Y-32.39666
G01 X23.89000 Y-32.36943
G01 X24.07940 Y-32.21398
G01 X24.09759 Y-32.19749
G01 X24.11408 Y-32.17931
G01 X24.26952 Y-31.98990
G01 X24.29675 Y-31.94913
G01 X24.41227 Y-31.73303
G01 X24.42276 Y-31.71086
G01 X24.43102 Y-31.68777
G01 X24.50216 Y-31.45327
G01 X24.50811 Y-31.42947
G01 X24.51171 Y-31.40519
G01 X24.53574 Y-31.16133
G01 X24.53574 Y-31.11236
G01 X24.51171 Y-30.86846
G01 X24.50811 Y-30.84421
G01 X24.50216 Y-30.82041
G01 X24.43102 Y-30.58594
G01 X24.41227 Y-30.54063
G01 X24.29675 Y-30.32452
G01 X24.26952 Y-30.28378
G01 X24.11408 Y-30.09435
G01 X24.09759 Y-30.07616
G01 X24.07940 Y-30.05970
G01 X23.89000 Y-29.90426
G01 X23.84925 Y-29.87703
G01 X23.63313 Y-29.76151
G01 X23.61095 Y-29.75102
G01 X23.58786 Y-29.74274
G01 X23.42767 Y-29.69415
G01 X22.40262 Y-27.66486
G01 X22.40262 Y-26.91191
G01 X22.39884 Y-26.86850
G01 X22.38756 Y-26.82641
G01 X22.36915 Y-26.78691
G01 X22.34415 Y-26.75123
G01 X22.31337 Y-26.72039
G01 X22.27763 Y-26.69540
G01 X22.23813 Y-26.67698
G01 X22.19604 Y-26.66570
G01 X22.15264 Y-26.66192
G01 X21.81576 Y-26.66192
G01 X21.80613 Y-26.65278
G01 X21.78677 Y-26.63771
G01 X21.66645 Y-26.55321
G01 X21.62376 Y-26.52913
G01 X21.48926 Y-26.46974
G01 X21.46638 Y-26.46093
G01 X21.44271 Y-26.45443
G01 X21.29922 Y-26.42242
G01 X21.25058 Y-26.41648
G01 X21.10359 Y-26.41308
G01 X21.07905 Y-26.41371
G01 X21.05472 Y-26.41676
G01 X20.90989 Y-26.44208
G01 X20.86267 Y-26.45524
G01 X20.72556 Y-26.50833
G01 X20.68182 Y-26.53042
G01 X20.55772 Y-26.60927
G01 X20.53768 Y-26.62341
G01 X20.51914 Y-26.63947
G01 X20.49562 Y-26.66192
G01 X20.15264 Y-26.66192
G01 X20.10385 Y-26.66672
G01 X20.05696 Y-26.68094
G01 X20.01373 Y-26.70403
G01 X19.97586 Y-26.73515
G01 X19.94477 Y-26.77302
G01 X19.92165 Y-26.81625
G01 X19.90743 Y-26.86314
G01 X19.90263 Y-26.91191
G04 P0 ( dwell for no time -- G64 should not smooth over this point )
G00 Z5.00000 ( retract )

G00 X19.89780 Y-22.92766 ( rapid move to begin. )
G01 F60.00000
( Mill infeed pass 1/1 )
G01 Z-0.15000
G04 P0 ( dwell for no time -- G64 should not smooth over this point )
G01 F120.00000
G01 X19.89780 Y-22.92766
G01 X19.90306 Y-22.86843
G01 X19.91467 Y-22.82505
G01 X19.93318 Y-22.78525
G01 X19.95871 Y-22.74900
G01 X19.98980 Y-22.71794
G01 X20.02653 Y-22.69231
G01 X20.06641 Y-22.67349
G01 X20.10857 Y-22.66241
G01 X20.16836 Y-22.65710
G01 X20.37169 Y-22.65710
G01 X20.41258 Y-22.65372
G01 X20.44614 Y-22.64816
G01 X20.49163 Y-22.63615
G01 X20.53407 Y-22.61580
G01 X20.68716 Y-22.52375
G01 X20.79783 Y-22.47369
G01 X20.91352 Y-22.43800
G01 X21.03323 Y-22.41593
G01 X21.16483 Y-22.40770
G01 X23.62246 Y-22.40770
G01 X23.68878 Y-22.40988
G01 X23.74918 Y-22.41514
G01 X23.80867 Y-22.42444
G01 X23.86874 Y-22.43721
G01 X23.92685 Y-22.45337
G01 X23.98431 Y-22.47328
G01 X24.04069 Y-22.49662
G01 X24.09469 Y-22.52281
G01 X24.14740 Y-22.55284
G01 X24.19919 Y-22.58639
G01 X24.24793 Y-22.62182
G01 X24.29408 Y-22.66071
G01 X24.34268 Y-22.70620
G01 X28.74422 Y-27.10784
G01 X28.78973 Y-27.15646
G01 X28.82842 Y-27.20241
G01 X28.86400 Y-27.25130
G01 X28.89753 Y-27.30312
G01 X28.92755 Y-27.35580
G01 X28.95366 Y-27.40962
G01 X28.97708 Y-27.46626
G01 X28.99695 Y-27.52346
G01 X29.01313 Y-27.58170
G01 X29.02588 Y-27.64165
G01 X29.03517 Y-27.70119
G01 X29.04046 Y-27.76174
G01 X29.04264 Y-27.82816
G01 X29.04264 Y-29.87268
G01 X29.04681 Y-29.91815
G01 X29.05394 Y-29.95676
G01 X29.06210 Y-29.98881
G01 X29.07442 Y-30.01955
G01 X29.09070 Y-30.04835
G01 X29.11201 Y-30.08086
G01 X29.12656 Y-30.10085
G01 X29.14300 Y-30.11927
G01 X29.16756 Y-30.14418
G01 X29.26347 Y-30.26527
G01 X29.34658 Y-30.39585
G01 X29.41577 Y-30.53415
G01 X29.47025 Y-30.67926
G01 X29.50982 Y-30.82897
G01 X29.53337 Y-30.98243
G01 X29.54165 Y-31.13707
G01 X29.53337 Y-31.29168
G01 X29.50985 Y-31.44461
G01 X29.47025 Y-31.59442
G01 X29.41577 Y-31.73956
G01 X29.34653 Y-31.87801
G01 X29.26342 Y-32.00898
G01 X29.16723 Y-32.12993
G01 X29.05892 Y-32.24131
G01 X28.94002 Y-32.34062
G01 X28.81168 Y-32.42721
G01 X28.67505 Y-32.49988
G01 X28.53136 Y-32.55823
G01 X28.38277 Y-32.60135
G01 X28.23037 Y-32.62924
G01 X28.07576 Y-32.64098
G01 X27.92062 Y-32.63707
G01 X27.76723 Y-32.61703
G01 X27.61648 Y-32.58175
G01 X27.47041 Y-32.53084
G01 X27.33007 Y-32.46506
G01 X27.19692 Y-32.38518
G01 X27.07297 Y-32.29254
G01 X26.95941 Y-32.18723
G01 X26.85700 Y-32.07088
G01 X26.76736 Y-31.94471
G01 X26.69121 Y-31.80981
G01 X26.62913 Y-31.66732
G01 X26.58174 Y-31.52036
G01 X26.55039 Y-31.36844
G01 X26.53426 Y-31.21446
G01 X26.53426 Y-31.05970
G01 X26.55042 Y-30.90527
G01 X26.58174 Y-30.75383
G01 X26.62918 Y-30.60626
G01 X26.69113 Y-30.46402
G01 X26.76726 Y-30.32965
G01 X26.85700 Y-30.20334
G01 X26.94498 Y-30.10329
G01 X26.97102 Y-30.06781
G01 X26.98979 Y-30.03684
G01 X27.01031 Y-29.99443
G01 X27.02250 Y-29.94891
G01 X27.02860 Y-29.91284
G01 X27.03210 Y-29.87116
G01 X27.03210 Y-28.38424
G01 X27.02738 Y-28.33588
G01 X27.01976 Y-28.29725
G01 X27.00574 Y-28.25066
G01 X26.98298 Y-28.20769
G01 X26.96114 Y-28.17467
G01 X26.94625 Y-28.15445
G01 X26.92941 Y-28.13583
G01 X23.31453 Y-24.52093
G01 X23.29594 Y-24.50411
G01 X23.27577 Y-24.48925
G01 X23.24278 Y-24.46741
G01 X23.19978 Y-24.44460
G01 X23.15317 Y-24.43058
G01 X23.11456 Y-24.42296
G01 X23.06615 Y-24.41824
G01 X21.16483 Y-24.41824
G01 X21.03321 Y-24.41001
G01 X20.91357 Y-24.38796
G01 X20.79775 Y-24.35217
G01 X20.68713 Y-24.30216
G01 X20.53153 Y-24.20861
G01 X20.48950 Y-24.18842
G01 X20.44444 Y-24.17638
G01 X20.41142 Y-24.17079
G01 X20.36968 Y-24.16728
G01 X20.16834 Y-24.16728
G01 X20.10928 Y-24.16205
G01 X20.06641 Y-24.15052
G01 X20.02595 Y-24.13170
G01 X19.99023 Y-24.10678
G01 X19.95899 Y-24.07531
G01 X19.93318 Y-24.03863
G01 X19.91459 Y-23.99870
G01 X19.90303 Y-23.95578
G01 X19.89780 Y-23.89672
G01 X19.89780 Y-22.92766
G01 X19.90301 Y-22.91207
G01 X19.90301 Y-23.91207
G01 X19.90781 Y-23.96083
G01 X19.92203 Y-24.00772
G01 X19.94512 Y-24.05095
G01 X19.97624 Y-24.08885
G01 X20.01411 Y-24.11994
G01 X20.05734 Y-24.14303
G01 X20.10423 Y-24.15725
G01 X20.15300 Y-24.16205
G01 X20.49618 Y-24.16205
G01 X20.57875 Y-24.22982
G01 X20.61949 Y-24.25705
G01 X20.74916 Y-24.32636
G01 X20.77133 Y-24.33685
G01 X20.79445 Y-24.34511
G01 X20.93514 Y-24.38778
G01 X20.98319 Y-24.39736
G01 X21.12952 Y-24.41176
G01 X21.15401 Y-24.41298
G01 X23.21380 Y-24.41298
G01 X27.03736 Y-28.23659
G01 X27.03736 Y-30.02468
G01 X26.99441 Y-30.05996
G01 X26.97622 Y-30.07642
G01 X26.95974 Y-30.09460
G01 X26.80429 Y-30.28401
G01 X26.77706 Y-30.32478
G01 X26.66157 Y-30.54088
G01 X26.65108 Y-30.56308
G01 X26.64280 Y-30.58617
G01 X26.57168 Y-30.82064
G01 X26.56210 Y-30.86872
G01 X26.53810 Y-31.11258
G01 X26.53810 Y-31.16158
G01 X26.56210 Y-31.40545
G01 X26.57168 Y-31.45353
G01 X26.64280 Y-31.68800
G01 X26.65108 Y-31.71111
G01 X26.66157 Y-31.73328
G01 X26.77706 Y-31.94939
G01 X26.78969 Y-31.97044
G01 X26.80429 Y-31.99015
G01 X26.95974 Y-32.17956
G01 X26.99441 Y-32.21421
G01 X27.18382 Y-32.36968
G01 X27.22458 Y-32.39691
G01 X27.44069 Y-32.51240
G01 X27.46286 Y-32.52289
G01 X27.48595 Y-32.53117
G01 X27.72044 Y-32.60229
G01 X27.76853 Y-32.61187
G01 X28.01239 Y-32.63587
G01 X28.03688 Y-32.63709
G01 X28.06139 Y-32.63587
G01 X28.30525 Y-32.61187
G01 X28.35331 Y-32.60229
G01 X28.58780 Y-32.53117
G01 X28.61092 Y-32.52289
G01 X28.63309 Y-32.51240
G01 X28.84919 Y-32.39691
G01 X28.88996 Y-32.36968
G01 X29.07937 Y-32.21421
G01 X29.09756 Y-32.19775
G01 X29.11401 Y-32.17956
G01 X29.26949 Y-31.99015
G01 X29.29672 Y-31.94939
G01 X29.41221 Y-31.73328
G01 X29.42270 Y-31.71111
G01 X29.43098 Y-31.68800
G01 X29.50210 Y-31.45353
G01 X29.50807 Y-31.42973
G01 X29.51168 Y-31.40545
G01 X29.53568 Y-31.16158
G01 X29.53568 Y-31.11258
G01 X29.51168 Y-30.86872
G01 X29.50807 Y-30.84444
G01 X29.50210 Y-30.82064
G01 X29.43098 Y-30.58617
G01 X29.41221 Y-30.54088
G01 X29.29672 Y-30.32478
G01 X29.26949 Y-30.28401
G01 X29.11401 Y-30.09460
G01 X29.09756 Y-30.07642
G01 X29.07937 Y-30.05996
G01 X29.03738 Y-30.02549
G01 X29.03738 Y-27.82240
G01 X29.03616 Y-27.79788
G01 X29.02176 Y-27.65155
G01 X29.01219 Y-27.60350
G01 X28.96951 Y-27.46281
G01 X28.95077 Y-27.41752
G01 X28.88145 Y-27.28785
G01 X28.85422 Y-27.24711
G01 X28.76095 Y-27.13345
G01 X28.74447 Y-27.11528
G01 X24.33511 Y-22.70587
G01 X24.32070 Y-22.69254
G01 X24.23122 Y-22.61611
G01 X24.19947 Y-22.59304
G01 X24.09911 Y-22.53155
G01 X24.06416 Y-22.51374
G01 X23.95545 Y-22.46871
G01 X23.91814 Y-22.45659
G01 X23.80369 Y-22.42911
G01 X23.76495 Y-22.42296
G01 X23.64763 Y-22.41374
G01 X23.62800 Y-22.41296
G01 X21.15401 Y-22.41296
G01 X21.12952 Y-22.41418
G01 X20.98319 Y-22.42858
G01 X20.93514 Y-22.43815
G01 X20.79445 Y-22.48083
G01 X20.77133 Y-22.48908
G01 X20.74916 Y-22.49957
G01 X20.61949 Y-22.56889
G01 X20.57875 Y-22.59612
G01 X20.49839 Y-22.66206
G01 X20.15300 Y-22.66206
G01 X20.10423 Y-22.66686
G01 X20.05734 Y-22.68111
G01 X20.01411 Y-22.70419
G01 X19.97624 Y-22.73528
G01 X19.94512 Y-22.77318
G01 X19.92203 Y-22.81639
G01 X19.90781 Y-22.86330
G01 X19.90301 Y-22.91207
G04 P0 ( dwell for no time -- G64 should not smooth over this point )
G00 Z5.00000 ( retract )

G00 X3.34615 Y-5.65340 ( rapid move to begin. )
G01 F60.00000
( Mill infeed pass 1/1 )
G01 Z-0.15000
G04 P0 ( dwell for no time -- G64 should not smooth over this point )
G01 F120.00000
G01 X3.34615 Y-5.65340
G01 X3.34615 Y-5.80044
G01 X3.37015 Y-6.04431
G01 X3.38094 Y-6.11710
G01 X3.39883 Y-6.18850
G01 X3.46997 Y-6.42300
G01 X3.52623 Y-6.55884
G01 X3.64175 Y-6.77494
G01 X3.67957 Y-6.83806
G01 X3.72344 Y-6.89719
G01 X3.80703 Y-6.99904
G01 X3.81955 Y-6.99493
G01 X3.80703 Y-6.99904
G01 X3.80703 Y-9.53704
G01 X3.81066 Y-9.61054
G01 X3.82506 Y-9.75685
G01 X3.85374 Y-9.90104
G01 X3.89641 Y-10.04176
G01 X3.95270 Y-10.17757
G01 X4.02199 Y-10.30724
G01 X4.10368 Y-10.42949
G01 X4.19694 Y-10.54316
G01 X4.24637 Y-10.59769
G01 X5.84627 Y-12.19759
G01 X5.90080 Y-12.24701
G01 X6.01447 Y-12.34028
G01 X6.07357 Y-12.38412
G01 X6.13672 Y-12.42197
G01 X6.26638 Y-12.49126
G01 X6.40220 Y-12.54755
G01 X6.54291 Y-12.59022
G01 X6.61429 Y-12.60810
G01 X6.68711 Y-12.61890
G01 X6.83341 Y-12.63330
G01 X6.90695 Y-12.63693
G01 X21.72162 Y-12.63693
G01 X21.72589 Y-12.62408
G01 X21.72162 Y-12.63693
G01 X21.86668 Y-12.75598
G01 X21.98893 Y-12.83764
G01 X22.20504 Y-12.95316
G01 X22.27156 Y-12.98463
G01 X22.34093 Y-13.00942
G01 X22.57537 Y-13.08057
G01 X22.64674 Y-13.09845
G01 X22.71956 Y-13.10924
G01 X22.96343 Y-13.13327
G01 X23.11044 Y-13.13327
G01 X23.35431 Y-13.10924
G01 X23.42711 Y-13.09845
G01 X23.49851 Y-13.08057
G01 X23.73300 Y-13.00942
G01 X23.80229 Y-12.98463
G01 X23.86884 Y-12.95316
G01 X24.08494 Y-12.83764
G01 X24.20719 Y-12.75598
G01 X24.39660 Y-12.60051
G01 X24.45116 Y-12.55108
G01 X24.50056 Y-12.49654
G01 X24.65603 Y-12.30714
G01 X24.73772 Y-12.18489
G01 X24.85322 Y-11.96878
