( pcb2gcode 2.5.0 )
( Software-independent Gcode )
( This file uses a mill head of 0.50000mm to drill the 2 hole sizes. )
( Hole sizes: [1mm] [1.2mm] )

G94       (Millimeters per minute feed rate.)
G21       (Units == Millimeters.)
G91.1     (Incremental arc distance mode.)
G90       (Absolute coordinates.)
S10000    (RPM spindle speed.)

G01 F120.00000 (Feedrate)
G00 Z10.00000 (Retract to tool change height)
T1
M5        (Spindle stop.)
G04 P1.00000
(MSG, Change tool bit to drill size 0.50000mm)
M6        (Tool change.)
M0        (Temporary machine stop.)
M3        (Spindle on clockwise.)
G04 P1.00000
G00 Z5.00000

G0 X5.59295 Y-5.72691
G1 Z0.25000 F60.00000
G1 F120.00000
G2 X5.59295 Y-5.72691 Z-0.00000 I-0.25000 J0.00000
G2 X5.59295 Y-5.72691 Z-0.25000 I-0.25000 J0.00000
G2 X5.59295 Y-5.72691 Z-0.50000 I-0.25000 J0.00000
G2 X5.59295 Y-5.72691 Z-0.75000 I-0.25000 J0.00000
G2 X5.59295 Y-5.72691 Z-1.00000 I-0.25000 J0.00000
G2 X5.59295 Y-5.72691 Z-1.25000 I-0.25000 J0.00000
G2 X5.59295 Y-5.72691 Z-1.50000 I-0.25000 J0.00000
G2 X5.59295 Y-5.72691 Z-1.75000 I-0.25000 J0.00000
G2 X5.59295 Y-5.72691 Z-2.00000 I-0.25000 J0.00000
G2 X5.59295 Y-5.72691 I-0.25000 J0.00000
G1 Z5.00000 F60.00000

G0 X10.60095 Y-5.72691
G1 Z0.25000 F60.00000
G1 F120.00000
G2 X10.60095 Y-5.72691 Z-0.00000 I-0.25000 J0.00000
G2 X10.60095 Y-5.72691 Z-0.25000 I-0.25000 J0.00000
G2 X10.60095 Y-5.72691 Z-0.50000 I-0.25000 J0.00000
G2 X10.60095 Y-5.72691 Z-0.75000 I-0.25000 J0.00000
G2 X10.60095 Y-5.72691 Z-1.00000 I-0.25000 J0.00000
G2 X10.60095 Y-5.72691 Z-1.25000 I-0.25000 J0.00000
G2 X10.60095 Y-5.72691 Z-1.50000 I-0.25000 J0.00000
G2 X10.60095 Y-5.72691 Z-1.75000 I-0.25000 J0.00000
G2 X10.60095 Y-5.72691 Z-2.00000 I-0.25000 J0.00000
G2 X10.60095 Y-5.72691 I-0.25000 J0.00000
G1 Z5.00000 F60.00000

G0 X23.28695 Y-11.13691
G1 Z0.25000 F60.00000
G1 F120.00000
G2 X23.28695 Y-11.13691 Z-0.00000 I-0.25000 J0.00000
G2 X23.28695 Y-11.13691 Z-0.25000 I-0.25000 J0.00000
G2 X23.28695 Y-11.13691 Z-0.50000 I-0.25000 J0.00000
G2 X23.28695 Y-11.13691 Z-0.75000 I-0.25000 J0.00000
G2 X23.28695 Y-11.13691 Z-1.00000 I-0.25000 J0.00000
G2 X23.28695 Y-11.13691 Z-1.25000 I-0.25000 J0.00000
G2 X23.28695 Y-11.13691 Z-1.50000 I-0.25000 J0.00000
G2 X23.28695 Y-11.13691 Z-1.75000 I-0.25000 J0.00000
G2 X23.28695 Y-11.13691 Z-2.00000 I-0.25000 J0.00000
G2 X23.28695 Y-11.13691 I-0.25000 J0.00000
G1 Z5.00000 F60.00000

G0 X23.28695 Y-31.13691
G1 Z0.25000 F60.00000
G1 F120.00000
G2 X23.28695 Y-31.13691 Z-0.00000 I-0.25000 J0.00000
G2 X23.28695 Y-31.13691 Z-0.25000 I-0.25000 J0.00000
G2 X23.28695 Y-31.13691 Z-0.50000 I-0.25000 J0.00000
G2 X23.28695 Y-31.13691 Z-0.75000 I-0.25000 J0.00000
G2 X23.28695 Y-31.13691 Z-1.00000 I-0.25000 J0.00000
G2 X23.28695 Y-31.13691 Z-1.25000 I-0.25000 J0.00000
G2 X23.28695 Y-31.13691 Z-1.50000 I-0.25000 J0.00000
G2 X23.28695 Y-31.13691 Z-1.75000 I-0.25000 J0.00000
G2 X23.28695 Y-31.13691 Z-2.00000 I-0.25000 J0.00000
G2 X23.28695 Y-31.13691 I-0.25000 J0.00000
G1 Z5.00000 F60.00000

G0 X28.28695 Y-31.13691
G1 Z0.25000 F60.00000
G1 F120.00000
G2 X28.28695 Y-31.13691 Z-0.00000 I-0.25000 J0.00000
G2 X28.28695 Y-31.13691 Z-0.25000 I-0.25000 J0.00000
G2 X28.28695 Y-31.13691 Z-0.50000 I-0.25000 J0.00000
G2 X28.28695 Y-31.13691 Z-0.75000 I-0.25000 J0.00000
G2 X28.28695 Y-31.13691 Z-1.00000 I-0.25000 J0.00000
G2 X28.28695 Y-31.13691 Z-1.25000 I-0.25000 J0.00000
G2 X28.28695 Y-31.13691 Z-1.50000 I-0.25000 J0.00000
G2 X28.28695 Y-31.13691 Z-1.75000 I-0.25000 J0.00000
G2 X28.28695 Y-31.13691 Z-2.00000 I-0.25000 J0.00000
G2 X28.28695 Y-31.13691 I-0.25000 J0.00000
G1 Z5.00000 F60.00000

G0 X28.41695 Y-37.47691
G1 Z0.25000 F60.00000
G1 F120.00000
G2 X28.41695 Y-37.47691 Z-0.00000 I-0.25000 J0.00000
G2 X28.41695 Y-37.47691 Z-0.25000 I-0.25000 J0.00000
G2 X28.41695 Y-37.47691 Z-0.50000 I-0.25000 J0.00000
G2 X28.41695 Y-37.47691 Z-0.75000 I-0.25000 J0.00000
G2 X28.41695 Y-37.47691 Z-1.00000 I-0.25000 J0.00000
G2 X28.41695 Y-37.47691 Z-1.25000 I-0.25000 J0.00000
G2 X28.41695 Y-37.47691 Z-1.50000 I-0.25000 J0.00000
G2 X28.41695 Y-37.47691 Z-1.75000 I-0.25000 J0.00000
G2 X28.41695 Y-37.47691 Z-2.00000 I-0.25000 J0.00000
G2 X28.41695 Y-37.47691 I-0.25000 J0.00000
G1 Z5.00000 F60.00000

G0 X28.41695 Y-40.01691
G1 Z0.25000 F60.00000
G1 F120.00000
G2 X28.41695 Y-40.01691 Z-0.00000 I-0.25000 J0.00000
G2 X28.41695 Y-40.01691 Z-0.25000 I-0.25000 J0.00000
G2 X28.41695 Y-40.01691 Z-0.50000 I-0.25000 J0.00000
G2 X28.41695 Y-40.01691 Z-0.75000 I-0.25000 J0.00000
G2 X28.41695 Y-40.01691 Z-1.00000 I-0.25000 J0.00000
G2 X28.41695 Y-40.01691 Z-1.25000 I-0.25000 J0.00000
G2 X28.41695 Y-40.01691 Z-1.50000 I-0.25000 J0.00000
G2 X28.41695 Y-40.01691 Z-1.75000 I-0.25000 J0.00000
G2 X28.41695 Y-40.01691 Z-2.00000 I-0.25000 J0.00000
G2 X28.41695 Y-40.01691 I-0.25000 J0.00000
G1 Z5.00000 F60.00000

G0 X25.87695 Y-37.47691
G1 Z0.25000 F60.00000
G1 F120.00000
G2 X25.87695 Y-37.47691 Z-0.00000 I-0.25000 J0.00000
G2 X25.87695 Y-37.47691 Z-0.25000 I-0.25000 J0.00000
G2 X25.87695 Y-37.47691 Z-0.50000 I-0.25000 J0.00000
G2 X25.87695 Y-37.47691 Z-0.75000 I-0.25000 J0.00000
G2 X25.87695 Y-37.47691 Z-1.00000 I-0.25000 J0.00000
G2 X25.87695 Y-37.47691 Z-1.25000 I-0.25000 J0.00000
G2 X25.87695 Y-37.47691 Z-1.50000 I-0.25000 J0.00000
G2 X25.87695 Y-37.47691 Z-1.75000 I-0.25000 J0.00000
G2 X25.87695 Y-37.47691 Z-2.00000 I-0.25000 J0.00000
G2 X25.87695 Y-37.47691 I-0.25000 J0.00000
G1 Z5.00000 F60.00000

G0 X25.87695 Y-40.01691
G1 Z0.25000 F60.00000
G1 F120.00000
G2 X25.87695 Y-40.01691 Z-0.00000 I-0.25000 J0.00000
G2 X25.87695 Y-40.01691 Z-0.25000 I-0.25000 J0.00000
G2 X25.87695 Y-40.01691 Z-0.50000 I-0.25000 J0.00000
G2 X25.87695 Y-40.01691 Z-0.75000 I-0.25000 J0.00000
G2 X25.87695 Y-40.01691 Z-1.00000 I-0.25000 J0.00000
G2 X25.87695 Y-40.01691 Z-1.25000 I-0.25000 J0.00000
G2 X25.87695 Y-40.01691 Z-1.50000 I-0.25000 J0.00000
G2 X25.87695 Y-40.01691 Z-1.75000 I-0.25000 J0.00000
G2 X25.87695 Y-40.01691 Z-2.00000 I-0.25000 J0.00000
G2 X25.87695 Y-40.01691 I-0.25000 J0.00000
G1 Z5.00000 F60.00000

G0 X23.33695 Y-37.47691
G1 Z0.25000 F60.00000
G1 F120.00000
G2 X23.33695 Y-37.47691 Z-0.00000 I-0.25000 J0.00000
G2 X23.33695 Y-37.47691 Z-0.25000 I-0.25000 J0.00000
G2 X23.33695 Y-37.47691 Z-0.50000 I-0.25000 J0.00000
G2 X23.33695 Y-37.47691 Z-0.75000 I-0.25000 J0.00000
G2 X23.33695 Y-37.47691 Z-1.00000 I-0.25000 J0.00000
G2 X23.33695 Y-37.47691 Z-1.25000 I-0.25000 J0.00000
G2 X23.33695 Y-37.47691 Z-1.50000 I-0.25000 J0.00000
G2 X23.33695 Y-37.47691 Z-1.75000 I-0.25000 J0.00000
G2 X23.33695 Y-37.47691 Z-2.00000 I-0.25000 J0.00000
G2 X23.33695 Y-37.47691 I-0.25000 J0.00000
G1 Z5.00000 F60.00000

G0 X23.33695 Y-40.01691
G1 Z0.25000 F60.00000
G1 F120.00000
G2 X23.33695 Y-40.01691 Z-0.00000 I-0.25000 J0.00000
G2 X23.33695 Y-40.01691 Z-0.25000 I-0.25000 J0.00000
G2 X23.33695 Y-40.01691 Z-0.50000 I-0.25000 J0.00000
G2 X23.33695 Y-40.01691 Z-0.75000 I-0.25000 J0.00000
G2 X23.33695 Y-40.01691 Z-1.00000 I-0.25000 J0.00000
G2 X23.33695 Y-40.01691 Z-1.25000 I-0.25000 J0.00000
G2 X23.33695 Y-40.01691 Z-1.50000 I-0.25000 J0.00000
G2 X23.33695 Y-40.01691 Z-1.75000 I-0.25000 J0.00000
G2 X23.33695 Y-40.01691 Z-2.00000 I-0.25000 J0.00000
G2 X23.33695 Y-40.01691 I-0.25000 J0.00000
G1 Z5.00000 F60.00000

G0 X20.79695 Y-37.47691
G1 Z0.25000 F60.00000
G1 F120.00000
G2 X20.79695 Y-37.47691 Z-0.00000 I-0.25000 J0.00000
G2 X20.79695 Y-37.47691 Z-0.25000 I-0.25000 J0.00000
G2 X20.79695 Y-37.47691 Z-0.50000 I-0.25000 J0.00000
G2 X20.79695 Y-37.47691 Z-0.75000 I-0.25000 J0.00000
G2 X20.79695 Y-37.47691 Z-1.00000 I-0.25000 J0.00000
G2 X20.79695 Y-37.47691 Z-1.25000 I-0.25000 J0.00000
G2 X20.79695 Y-37.47691 Z-1.50000 I-0.25000 J0.00000
G2 X20.79695 Y-37.47691 Z-1.75000 I-0.25000 J0.00000
G2 X20.79695 Y-37.47691 Z-2.00000 I-0.25000 J0.00000
G2 X20.79695 Y-37.47691 I-0.25000 J0.00000
G1 Z5.00000 F60.00000

G0 X20.79695 Y-40.01691
G1 Z0.25000 F60.00000
G1 F120.00000
G2 X20.79695 Y-40.01691 Z-0.00000 I-0.25000 J0.00000
G2 X20.79695 Y-40.01691 Z-0.25000 I-0.25000 J0.00000
G2 X20.79695 Y-40.01691 Z-0.50000 I-0.25000 J0.00000
G2 X20.79695 Y-40.01691 Z-0.75000 I-0.25000 J0.00000
G2 X20.79695 Y-40.01691 Z-1.00000 I-0.25000 J0.00000
G2 X20.79695 Y-40.01691 Z-1.25000 I-0.25000 J0.00000
G2 X20.79695 Y-40.01691 Z-1.50000 I-0.25000 J0.00000
G2 X20.79695 Y-40.01691 Z-1.75000 I-0.25000 J0.00000
G2 X20.79695 Y-40.01691 Z-2.00000 I-0.25000 J0.00000
G2 X20.79695 Y-40.01691 I-0.25000 J0.00000
G1 Z5.00000 F60.00000

G0 X18.25695 Y-37.47691
G1 Z0.25000 F60.00000
G1 F120.00000
G2 X18.25695 Y-37.47691 Z-0.00000 I-0.25000 J0.00000
G2 X18.25695 Y-37.47691 Z-0.25000 I-0.25000 J0.00000
G2 X18.25695 Y-37.47691 Z-0.50000 I-0.25000 J0.00000
G2 X18.25695 Y-37.47691 Z-0.75000 I-0.25000 J0.00000
G2 X18.25695 Y-37.47691 Z-1.00000 I-0.25000 J0.00000
G2 X18.25695 Y-37.47691 Z-1.25000 I-0.25000 J0.00000
G2 X18.25695 Y-37.47691 Z-1.50000 I-0.25000 J0.00000
G2 X18.25695 Y-37.47691 Z-1.75000 I-0.25000 J0.00000
G2 X18.25695 Y-37.47691 Z-2.00000 I-0.25000 J0.00000
G2 X18.25695 Y-37.47691 I-0.25000 J0.00000
G1 Z5.00000 F60.00000

G0 X18.25695 Y-40.01691
G1 Z0.25000 F60.00000
G1 F120.00000
G2 X18.25695 Y-40.01691 Z-0.00000 I-0.25000 J0.00000
G2 X18.25695 Y-40.01691 Z-0.25000 I-0.25000 J0.00000
G2 X18.25695 Y-40.01691 Z-0.50000 I-0.25000 J0.00000
G2 X18.25695 Y-40.01691 Z-0.75000 I-0.25000 J0.00000
G2 X18.25695 Y-40.01691 Z-1.00000 I-0.25000 J0.00000
G2 X18.25695 Y-40.01691 Z-1.25000 I-0.25000 J0.00000
G2 X18.25695 Y-40.01691 Z-1.50000 I-0.25000 J0.00000
G2 X18.25695 Y-40.01691 Z-1.75000 I-0.25000 J0.00000
G2 X18.25695 Y-40.01691 Z-2.00000 I-0.25000 J0.00000
G2 X18.25695 Y-40.01691 I-0.25000 J0.00000
G1 Z5.00000 F60.00000

G0 X15.71695 Y-37.47691
G1 Z0.25000 F60.00000
G1 F120.00000
G2 X15.71695 Y-37.47691 Z-0.00000 I-0.25000 J0.00000
G2 X15.71695 Y-37.47691 Z-0.25000 I-0.25000 J0.00000
G2 X15.71695 Y-37.47691 Z-0.50000 I-0.25000 J0.00000
G2 X15.71695 Y-37.47691 Z-0.75000 I-0.25000 J0.00000
G2 X15.71695 Y-37.47691 Z-1.00000 I-0.25000 J0.00000
G2 X15.71695 Y-37.47691 Z-1.25000 I-0.25000 J0.00000
G2 X15.71695 Y-37.47691 Z-1.50000 I-0.25000 J0.00000
G2 X15.71695 Y-37.47691 Z-1.75000 I-0.25000 J0.00000
G2 X15.71695 Y-37.47691 Z-2.00000 I-0.25000 J0.00000
G2 X15.71695 Y-37.47691 I-0.25000 J0.00000
G1 Z5.00000 F60.00000

G0 X15.71695 Y-40.01691
G1 Z0.25000 F60.00000
G1 F120.00000
G2 X15.71695 Y-40.01691 Z-0.00000 I-0.25000 J0.00000
G2 X15.71695 Y-40.01691 Z-0.25000 I-0.25000 J0.00000
G2 X15.71695 Y-40.01691 Z-0.50000 I-0.25000 J0.00000
G2 X15.71695 Y-40.01691 Z-0.75000 I-0.25000 J0.00000
G2 X15.71695 Y-40.01691 Z-1.00000 I-0.25000 J0.00000
G2 X15.71695 Y-40.01691 Z-1.25000 I-0.25000 J0.00000
G2 X15.71695 Y-40.01691 Z-1.50000 I-0.25000 J0.00000
G2 X15.71695 Y-40.01691 Z-1.75000 I-0.25000 J0.00000
G2 X15.71695 Y-40.01691 Z-2.00000 I-0.25000 J0.00000
G2 X15.71695 Y-40.01691 I-0.25000 J0.00000
G1 Z5.00000 F60.00000

G0 X13.17695 Y-37.47691
G1 Z0.25000 F60.00000
G1 F120.00000
G2 X13.17695 Y-37.47691 Z-0.00000 I-0.25000 J0.00000
G2 X13.17695 Y-37.47691 Z-0.25000 I-0.25000 J0.00000
G2 X13.17695 Y-37.47691 Z-0.50000 I-0.25000 J0.00000
G2 X13.17695 Y-37.47691 Z-0.75000 I-0.25000 J0.00000
G2 X13.17695 Y-37.47691 Z-1.00000 I-0.25000 J0.00000
G2 X13.17695 Y-37.47691 Z-1.25000 I-0.25000 J0.00000
G2 X13.17695 Y-37.47691 Z-1.50000 I-0.25000 J0.00000
G2 X13.17695 Y-37.47691 Z-1.75000 I-0.25000 J0.00000
G2 X13.17695 Y-37.47691 Z-2.00000 I-0.25000 J0.00000
G2 X13.17695 Y-37.47691 I-0.25000 J0.00000
G1 Z5.00000 F60.00000

G0 X13.17695 Y-40.01691
G1 Z0.25000 F60.00000
G1 F120.00000
G2 X13.17695 Y-40.01691 Z-0.00000 I-0.25000 J0.00000
G2 X13.17695 Y-40.01691 Z-0.25000 I-0.25000 J0.00000
G2 X13.17695 Y-40.01691 Z-0.50000 I-0.25000 J0.00000
G2 X13.17695 Y-40.01691 Z-0.75000 I-0.25000 J0.00000
G2 X13.17695 Y-40.01691 Z-1.00000 I-0.25000 J0.00000
G2 X13.17695 Y-40.01691 Z-1.25000 I-0.25000 J0.00000
G2 X13.17695 Y-40.01691 Z-1.50000 I-0.25000 J0.00000
G2 X13.17695 Y-40.01691 Z-1.75000 I-0.25000 J0.00000
G2 X13.17695 Y-40.01691 Z-2.00000 I-0.25000 J0.00000
G2 X13.17695 Y-40.01691 I-0.25000 J0.00000
G1 Z5.00000 F60.00000

G0 X10.63695 Y-37.47691
G1 Z0.25000 F60.00000
G1 F120.00000
G2 X10.63695 Y-37.47691 Z-0.00000 I-0.25000 J0.00000
G2 X10.63695 Y-37.47691 Z-0.25000 I-0.25000 J0.00000
G2 X10.63695 Y-37.47691 Z-0.50000 I-0.25000 J0.00000
G2 X10.63695 Y-37.47691 Z-0.75000 I-0.25000 J0.00000
G2 X10.63695 Y-37.47691 Z-1.00000 I-0.25000 J0.00000
G2 X10.63695 Y-37.47691 Z-1.25000 I-0.25000 J0.00000
G2 X10.63695 Y-37.47691 Z-1.50000 I-0.25000 J0.00000
G2 X10.63695 Y-37.47691 Z-1.75000 I-0.25000 J0.00000
G2 X10.63695 Y-37.47691 Z-2.00000 I-0.25000 J0.00000
G2 X10.63695 Y-37.47691 I-0.25000 J0.00000
G1 Z5.00000 F60.00000

G0 X10.63695 Y-40.01691
G1 Z0.25000 F60.00000
G1 F120.00000
G2 X10.63695 Y-40.01691 Z-0.00000 I-0.25000 J0.00000
G2 X10.63695 Y-40.01691 Z-0.25000 I-0.25000 J0.00000
G2 X10.63695 Y-40.01691 Z-0.50000 I-0.25000 J0.00000
G2 X10.63695 Y-40.01691 Z-0.75000 I-0.25000 J0.00000
G2 X10.63695 Y-40.01691 Z-1.00000 I-0.25000 J0.00000
G2 X10.63695 Y-40.01691 Z-1.25000 I-0.25000 J0.00000
G2 X10.63695 Y-40.01691 Z-1.50000 I-0.25000 J0.00000
G2 X10.63695 Y-40.01691 Z-1.75000 I-0.25000 J0.00000
G2 X10.63695 Y-40.01691 Z-2.00000 I-0.25000 J0.00000
G2 X10.63695 Y-40.01691 I-0.25000 J0.00000
G1 Z5.00000 F60.00000

G0 X28.41695 Y-57.79691
G1 Z0.25000 F60.00000
G1 F120.00000
G2 X28.41695 Y-57.79691 Z-0.00000 I-0.25000 J0.00000
G2 X28.41695 Y-57.79691 Z-0.25000 I-0.25000 J0.00000
G2 X28.41695 Y-57.79691 Z-0.50000 I-0.25000 J0.00000
G2 X28.41695 Y-57.79691 Z-0.75000 I-0.25000 J0.00000
G2 X28.41695 Y-57.79691 Z-1.00000 I-0.25000 J0.00000
G2 X28.41695 Y-57.79691 Z-1.25000 I-0.25000 J0.00000
G2 X28.41695 Y-57.79691 Z-1.50000 I-0.25000 J0.00000
G2 X28.41695 Y-57.79691 Z-1.75000 I-0.25000 J0.00000
G2 X28.41695 Y-57.79691 Z-2.00000 I-0.25000 J0.00000
G2 X28.41695 Y-57.79691 I-0.25000 J0.00000
G1 Z5.00000 F60.00000

G0 X25.87695 Y-57.79691
G1 Z0.25000 F60.00000
G1 F120.00000
G2 X25.87695 Y-57.79691 Z-0.00000 I-0.25000 J0.00000
G2 X25.87695 Y-57.79691 Z-0.25000 I-0.25000 J0.00000
G2 X25.87695 Y-57.79691 Z-0.50000 I-0.25000 J0.00000
G2 X25.87695 Y-57.79691 Z-0.75000 I-0.25000 J0.00000
G2 X25.87695 Y-57.79691 Z-1.00000 I-0.25000 J0.00000
G2 X25.87695 Y-57.79691 Z-1.25000 I-0.25000 J0.00000
G2 X25.87695 Y-57.79691 Z-1.50000 I-0.25000 J0.00000
G2 X25.87695 Y-57.79691 Z-1.75000 I-0.25000 J0.00000
G2 X25.87695 Y-57.79691 Z-2.00000 I-0.25000 J0.00000
G2 X25.87695 Y-57.79691 I-0.25000 J0.00000
G1 Z5.00000 F60.00000

G0 X28.41695 Y-60.33691
G1 Z0.25000 F60.00000
G1 F120.00000
G2 X28.41695 Y-60.33691 Z-0.00000 I-0.25000 J0.00000
G2 X28.41695 Y-60.33691 Z-0.25000 I-0.25000 J0.00000
G2 X28.41695 Y-60.33691 Z-0.50000 I-0.25000 J0.00000
G2 X28.41695 Y-60.33691 Z-0.75000 I-0.25000 J0.00000
G2 X28.41695 Y-60.33691 Z-1.00000 I-0.25000 J0.00000
G2 X28.41695 Y-60.33691 Z-1.25000 I-0.25000 J0.00000
G2 X28.41695 Y-60.33691 Z-1.50000 I-0.25000 J0.00000
G2 X28.41695 Y-60.33691 Z-1.75000 I-0.25000 J0.00000
G2 X28.41695 Y-60.33691 Z-2.00000 I-0.25000 J0.00000
G2 X28.41695 Y-60.33691 I-0.25000 J0.00000
G1 Z5.00000 F60.00000

G0 X25.87695 Y-60.33691
G1 Z0.25000 F60.00000
G1 F120.00000
G2 X25.87695 Y-60.33691 Z-0.00000 I-0.25000 J0.00000
G2 X25.87695 Y-60.33691 Z-0.25000 I-0.25000 J0.00000
G2 X25.87695 Y-60.33691 Z-0.50000 I-0.25000 J0.00000
G2 X25.87695 Y-60.33691 Z-0.75000 I-0.25000 J0.00000
G2 X25.87695 Y-60.33691 Z-1.00000 I-0.25000 J0.00000
G2 X25.87695 Y-60.33691 Z-1.25000 I-0.25000 J0.00000
G2 X25.87695 Y-60.33691 Z-1.50000 I-0.25000 J0.00000
G2 X25.87695 Y-60.33691 Z-1.75000 I-0.25000 J0.00000
G2 X25.87695 Y-60.33691 Z-2.00000 I-0.25000 J0.00000
G2 X25.87695 Y-60.33691 I-0.25000 J0.00000
G1 Z5.00000 F60.00000

G0 X23.33695 Y-57.79691
G1 Z0.25000 F60.00000
G1 F120.00000
G2 X23.33695 Y-57.79691 Z-0.00000 I-0.25000 J0.00000
G2 X23.33695 Y-57.79691 Z-0.25000 I-0.25000 J0.00000
G2 X23.33695 Y-57.79691 Z-0.50000 I-0.25000 J0.00000
G2 X23.33695 Y-57.79691 Z-0.75000 I-0.25000 J0.00000
G2 X23.33695 Y-57.79691 Z-1.00000 I-0.25000 J0.00000
G2 X23.33695 Y-57.79691 Z-1.25000 I-0.25000 J0.00000
G2 X23.33695 Y-57.79691 Z-1.50000 I-0.25000 J0.00000
G2 X23.33695 Y-57.79691 Z-1.75000 I-0.25000 J0.00000
G2 X23.33695 Y-57.79691 Z-2.00000 I-0.25000 J0.00000
G2 X23.33695 Y-57.79691 I-0.25000 J0.00000
G1 Z5.00000 F60.00000

G0 X20.79695 Y-57.79691
G1 Z0.25000 F60.00000
G1 F120.00000
G2 X20.79695 Y-57.79691 Z-0.00000 I-0.25000 J0.00000
G2 X20.79695 Y-57.79691 Z-0.25000 I-0.25000 J0.00000
G2 X20.79695 Y-57.79691 Z-0.50000 I-0.25000 J0.00000
G2 X20.79695 Y-57.79691 Z-0.75000 I-0.25000 J0.00000
G2 X20.79695 Y-57.79691 Z-1.00000 I-0.25000 J0.00000
G2 X20.79695 Y-57.79691 Z-1.25000 I-0.25000 J0.00000
G2 X20.79695 Y-57.79691 Z-1.50000 I-0.25000 J0.00000
G2 X20.79695 Y-57.79691 Z-1.75000 I-0.25000 J0.00000
G2 X20.79695 Y-57.79691 Z-2.00000 I-0.25000 J0.00000
G2 X20.79695 Y-57.79691 I-0.25000 J0.00000
G1 Z5.00000 F60.00000

G0 X18.25695 Y-57.79691
G1 Z0.25000 F60.00000
G1 F120.00000
G2 X18.25695 Y-57.79691 Z-0.00000 I-0.25000 J0.00000
G2 X18.25695 Y-57.79691 Z-0.25000 I-0.25000 J0.00000
G2 X18.25695 Y-57.79691 Z-0.50000 I-0.25000 J0.00000
G2 X18.25695 Y-57.79691 Z-0.75000 I-0.25000 J0.00000
G2 X18.25695 Y-57.79691 Z-1.00000 I-0.25000 J0.00000
G2 X18.25695 Y-57.79691 Z-1.25000 I-0.25000 J0.00000
G2 X18.25695 Y-57.79691 Z-1.50000 I-0.25000 J0.00000
G2 X18.25695 Y-57.79691 Z-1.75000 I-0.25000 J0.00000
G2 X18.25695 Y-57.79691 Z-2.00000 I-0.25000 J0.00000
G2 X18.25695 Y-57.79691 I-0.25000 J0.00000
G1 Z5.00000 F60.00000

G0 X15.71695 Y-57.79691
G1 Z0.25000 F60.00000
G1 F120.00000
G2 X15.71695 Y-57.79691 Z-0.00000 I-0.25000 J0.00000
G2 X15.71695 Y-57.79691 Z-0.25000 I-0.25000 J0.00000
G2 X15.71695 Y-57.79691 Z-0.50000 I-0.25000 J0.00000
G2 X15.71695 Y-57.79691 Z-0.75000 I-0.25000 J0.00000
G2 X15.71695 Y-57.79691 Z-1.00000 I-0.25000 J0.00000
G2 X15.71695 Y-57.79691 Z-1.25000 I-0.25000 J0.00000
G2 X15.71695 Y-57.79691 Z-1.50000 I-0.25000 J0.00000
G2 X15.71695 Y-57.79691 Z-1.75000 I-0.25000 J0.00000
G2 X15.71695 Y-57.79691 Z-2.00000 I-0.25000 J0.00000
G2 X15.71695 Y-57.79691 I-0.25000 J0.00000
G1 Z5.00000 F60.00000

G0 X13.17695 Y-57.79691
G1 Z0.25000 F60.00000
G1 F120.00000
G2 X13.17695 Y-57.79691 Z-0.00000 I-0.25000 J0.00000
G2 X13.17695 Y-57.79691 Z-0.25000 I-0.25000 J0.00000
G2 X13.17695 Y-57.79691 Z-0.50000 I-0.25000 J0.00000
G2 X13.17695 Y-57.79691 Z-0.75000 I-0.25000 J0.00000
G2 X13.17695 Y-57.79691 Z-1.00000 I-0.25000 J0.00000
G2 X13.17695 Y-57.79691 Z-1.25000 I-0.25000 J0.00000
G2 X13.17695 Y-57.79691 Z-1.50000 I-0.25000 J0.00000
G2 X13.17695 Y-57.79691 Z-1.75000 I-0.25000 J0.00000
G2 X13.17695 Y-57.79691 Z-2.00000 I-0.25000 J0.00000
G2 X13.17695 Y-57.79691 I-0.25000 J0.00000
G1 Z5.00000 F60.00000

G0 X10.63695 Y-60.33691
G1 Z0.25000 F60.00000
G1 F120.00000
G2 X10.63695 Y-60.33691 Z-0.00000 I-0.25000 J0.00000
G2 X10.63695 Y-60.33691 Z-0.25000 I-0.25000 J0.00000
G2 X10.63695 Y-60.33691 Z-0.50000 I-0.25000 J0.00000
G2 X10.63695 Y-60.33691 Z-0.75000 I-0.25000 J0.00000
G2 X10.63695 Y-60.33691 Z-1.00000 I-0.25000 J0.00000
G2 X10.63695 Y-60.33691 Z-1.25000 I-0.25000 J0.00000
G2 X10.63695 Y-60.33691 Z-1.50000 I-0.25000 J0.00000
G2 X10.63695 Y-60.33691 Z-1.75000 I-0.25000 J0.00000
G2 X10.63695 Y-60.33691 Z-2.00000 I-0.25000 J0.00000
G2 X10.63695 Y-60.33691 I-0.25000 J0.00000
G1 Z5.00000 F60.00000

G0 X10.63695 Y-57.79691
G1 Z0.25000 F60.00000
G1 F120.00000
G2 X10.63695 Y-57.79691 Z-0.00000 I-0.25000 J0.00000
G2 X10.63695 Y-57.79691 Z-0.25000 I-0.25000 J0.00000
G2 X10.63695 Y-57.79691 Z-0.50000 I-0.25000 J0.00000
G2 X10.63695 Y-57.79691 Z-0.75000 I-0.25000 J0.00000
G2 X10.63695 Y-57.79691 Z-1.00000 I-0.25000 J0.00000
G2 X10.63695 Y-57.79691 Z-1.25000 I-0.25000 J0.00000
G2 X10.63695 Y-57.79691 Z-1.50000 I-0.25000 J0.00000
G2 X10.63695 Y-57.79691 Z-1.75000 I-0.25000 J0.00000
G2 X10.63695 Y-57.79691 Z-2.00000 I-0.25000 J0.00000
G2 X10.63695 Y-57.79691 I-0.25000 J0.00000
G1 Z5.00000 F60.00000

G0 X13.17695 Y-60.33691
G1 Z0.25000 F60.00000
G1 F120.00000
G2 X13.17695 Y-60.33691 Z-0.00000 I-0.25000 J0.00000
G2 X13.17695 Y-60.33691 Z-0.25000 I-0.25000 J0.00000
G2 X13.17695 Y-60.33691 Z-0.50000 I-0.25000 J0.00000
G2 X13.17695 Y-60.33691 Z-0.75000 I-0.25000 J0.00000
G2 X13.17695 Y-60.33691 Z-1.00000 I-0.25000 J0.00000
G2 X13.17695 Y-60.33691 Z-1.25000 I-0.25000 J0.00000
G2 X13.17695 Y-60.33691 Z-1.50000 I-0.25000 J0.00000
G2 X13.17695 Y-60.33691 Z-1.75000 I-0.25000 J0.00000
G2 X13.17695 Y-60.33691 Z-2.00000 I-0.25000 J0.00000
G2 X13.17695 Y-60.33691 I-0.25000 J0.00000
G1 Z5.00000 F60.00000

G0 X15.71695 Y-60.33691
G1 Z0.25000 F60.00000
G1 F120.00000
G2 X15.71695 Y-60.33691 Z-0.00000 I-0.25000 J0.00000
G2 X15.71695 Y-60.33691 Z-0.25000 I-0.25000 J0.00000
G2 X15.71695 Y-60.33691 Z-0.50000 I-0.25000 J0.00000
G2 X15.71695 Y-60.33691 Z-0.75000 I-0.25000 J0.00000
G2 X15.71695 Y-60.33691 Z-1.00000 I-0.25000 J0.00000
G2 X15.71695 Y-60.33691 Z-1.25000 I-0.25000 J0.00000
G2 X15.71695 Y-60.33691 Z-1.50000 I-0.25000 J0.00000
G2 X15.71695 Y-60.33691 Z-1.75000 I-0.25000 J0.00000
G2 X15.71695 Y-60.33691 Z-2.00000 I-0.25000 J0.00000
G2 X15.71695 Y-60.33691 I-0.25000 J0.00000
G1 Z5.00000 F60.00000

G0 X18.25695 Y-60.33691
G1 Z0.25000 F60.00000
G1 F120.00000
G2 X18.25695 Y-60.33691 Z-0.00000 I-0.25000 J0.00000
G2 X18.25695 Y-60.33691 Z-0.25000 I-0.25000 J0.00000
G2 X18.25695 Y-60.33691 Z-0.50000 I-0.25000 J0.00000
G2 X18.25695 Y-60.33691 Z-0.75000 I-0.25000 J0.00000
G2 X18.25695 Y-60.33691 Z-1.00000 I-0.25000 J0.00000
G2 X18.25695 Y-60.33691 Z-1.25000 I-0.25000 J0.00000
G2 X18.25695 Y-60.33691 Z-1.50000 I-0.25000 J0.00000
G2 X18.25695 Y-60.33691 Z-1.75000 I-0.25000 J0.00000
G2 X18.25695 Y-60.33691 Z-2.00000 I-0.25000 J0.00000
G2 X18.25695 Y-60.33691 I-0.25000 J0.00000
G1 Z5.00000 F60.00000

G0 X18.25695 Y-65.41691
G1 Z0.25000 F60.00000
G1 F120.00000
G2 X18.25695 Y-65.41691 Z-0.00000 I-0.25000 J0.00000
G2 X18.25695 Y-65.41691 Z-0.25000 I-0.25000 J0.00000
G2 X18.25695 Y-65.41691 Z-0.50000 I-0.25000 J0.00000
G2 X18.25695 Y-65.41691 Z-0.75000 I-0.25000 J0.00000
G2 X18.25695 Y-65.41691 Z-1.00000 I-0.25000 J0.00000
G2 X18.25695 Y-65.41691 Z-1.25000 I-0.25000 J0.00000
G2 X18.25695 Y-65.41691 Z-1.50000 I-0.25000 J0.00000
G2 X18.25695 Y-65.41691 Z-1.75000 I-0.25000 J0.00000
G2 X18.25695 Y-65.41691 Z-2.00000 I-0.25000 J0.00000
G2 X18.25695 Y-65.41691 I-0.25000 J0.00000
G1 Z5.00000 F60.00000

G0 X20.79695 Y-65.41691
G1 Z0.25000 F60.00000
G1 F120.00000
G2 X20.79695 Y-65.41691 Z-0.00000 I-0.25000 J0.00000
G2 X20.79695 Y-65.41691 Z-0.25000 I-0.25000 J0.00000
G2 X20.79695 Y-65.41691 Z-0.50000 I-0.25000 J0.00000
G2 X20.79695 Y-65.41691 Z-0.75000 I-0.25000 J0.00000
G2 X20.79695 Y-65.41691 Z-1.00000 I-0.25000 J0.00000
G2 X20.79695 Y-65.41691 Z-1.25000 I-0.25000 J0.00000
G2 X20.79695 Y-65.41691 Z-1.50000 I-0.25000 J0.00000
G2 X20.79695 Y-65.41691 Z-1.75000 I-0.25000 J0.00000
G2 X20.79695 Y-65.41691 Z-2.00000 I-0.25000 J0.00000
G2 X20.79695 Y-65.41691 I-0.25000 J0.00000
G1 Z5.00000 F60.00000

G0 X20.79695 Y-60.33691
G1 Z0.25000 F60.00000
G1 F120.00000
G2 X20.79695 Y-60.33691 Z-0.00000 I-0.25000 J0.00000
G2 X20.79695 Y-60.33691 Z-0.25000 I-0.25000 J0.00000
G2 X20.79695 Y-60.33691 Z-0.50000 I-0.25000 J0.00000
G2 X20.79695 Y-60.33691 Z-0.75000 I-0.25000 J0.00000
G2 X20.79695 Y-60.33691 Z-1.00000 I-0.25000 J0.00000
G2 X20.79695 Y-60.33691 Z-1.25000 I-0.25000 J0.00000
G2 X20.79695 Y-60.33691 Z-1.50000 I-0.25000 J0.00000
G2 X20.79695 Y-60.33691 Z-1.75000 I-0.25000 J0.00000
G2 X20.79695 Y-60.33691 Z-2.00000 I-0.25000 J0.00000
G2 X20.79695 Y-60.33691 I-0.25000 J0.00000
G1 Z5.00000 F60.00000

G0 X23.33695 Y-60.33691
G1 Z0.25000 F60.00000
G1 F120.00000
G2 X23.33695 Y-60.33691 Z-0.00000 I-0.25000 J0.00000
G2 X23.33695 Y-60.33691 Z-0.25000 I-0.25000 J0.00000
G2 X23.33695 Y-60.33691 Z-0.50000 I-0.25000 J0.00000
G2 X23.33695 Y-60.33691 Z-0.75000 I-0.25000 J0.00000
G2 X23.33695 Y-60.33691 Z-1.00000 I-0.25000 J0.00000
G2 X23.33695 Y-60.33691 Z-1.25000 I-0.25000 J0.00000
G2 X23.33695 Y-60.33691 Z-1.50000 I-0.25000 J0.00000
G2 X23.33695 Y-60.33691 Z-1.75000 I-0.25000 J0.00000
G2 X23.33695 Y-60.33691 Z-2.00000 I-0.25000 J0.00000
G2 X23.33695 Y-60.33691 I-0.25000 J0.00000
G1 Z5.00000 F60.00000

G0 X23.33695 Y-65.41691
G1 Z0.25000 F60.00000
G1 F120.00000
G2 X23.33695 Y-65.41691 Z-0.00000 I-0.25000 J0.00000
G2 X23.33695 Y-65.41691 Z-0.25000 I-0.25000 J0.00000
G2 X23.33695 Y-65.41691 Z-0.50000 I-0.25000 J0.00000
G2 X23.33695 Y-65.41691 Z-0.75000 I-0.25000 J0.00000
G2 X23.33695 Y-65.41691 Z-1.00000 I-0.25000 J0.00000
G2 X23.33695 Y-65.41691 Z-1.25000 I-0.25000 J0.00000
G2 X23.33695 Y-65.41691 Z-1.50000 I-0.25000 J0.00000
G2 X23.33695 Y-65.41691 Z-1.75000 I-0.25000 J0.00000
G2 X23.33695 Y-65.41691 Z-2.00000 I-0.25000 J0.00000
G2 X23.33695 Y-65.41691 I-0.25000 J0.00000
G1 Z5.00000 F60.00000

G0 X25.87695 Y-65.41691
G1 Z0.25000 F60.00000
G1 F120.00000
G2 X25.87695 Y-65.41691 Z-0.00000 I-0.25000 J0.00000
G2 X25.87695 Y-65.41691 Z-0.25000 I-0.25000 J0.00000
G2 X25.87695 Y-65.41691 Z-0.50000 I-0.25000 J0.00000
G2 X25.87695 Y-65.41691 Z-0.75000 I-0.25000 J0.00000
G2 X25.87695 Y-65.41691 Z-1.00000 I-0.25000 J0.00000
G2 X25.87695 Y-65.41691 Z-1.25000 I-0.25000 J0.00000
G2 X25.87695 Y-65.41691 Z-1.50000 I-0.25000 J0.00000
G2 X25.87695 Y-65.41691 Z-1.75000 I-0.25000 J0.00000
G2 X25.87695 Y-65.41691 Z-2.00000 I-0.25000 J0.00000
G2 X25.87695 Y-65.41691 I-0.25000 J0.00000
G1 Z5.00000 F60.00000

G0 X34.13195 Y-74.30691
G1 Z0.25000 F60.00000
G1 F120.00000
G2 X34.13195 Y-74.30691 Z-0.00000 I-0.25000 J0.00000
G2 X34.13195 Y-74.30691 Z-0.25000 I-0.25000 J0.00000
G2 X34.13195 Y-74.30691 Z-0.50000 I-0.25000 J0.00000
G2 X34.13195 Y-74.30691 Z-0.75000 I-0.25000 J0.00000
G2 X34.13195 Y-74.30691 Z-1.00000 I-0.25000 J0.00000
G2 X34.13195 Y-74.30691 Z-1.25000 I-0.25000 J0.00000
G2 X34.13195 Y-74.30691 Z-1.50000 I-0.25000 J0.00000
G2 X34.13195 Y-74.30691 Z-1.75000 I-0.25000 J0.00000
G2 X34.13195 Y-74.30691 Z-2.00000 I-0.25000 J0.00000
G2 X34.13195 Y-74.30691 I-0.25000 J0.00000
G1 Z5.00000 F60.00000

G0 X34.13195 Y-76.84691
G1 Z0.25000 F60.00000
G1 F120.00000
G2 X34.13195 Y-76.84691 Z-0.00000 I-0.25000 J0.00000
G2 X34.13195 Y-76.84691 Z-0.25000 I-0.25000 J0.00000
G2 X34.13195 Y-76.84691 Z-0.50000 I-0.25000 J0.00000
G2 X34.13195 Y-76.84691 Z-0.75000 I-0.25000 J0.00000
G2 X34.13195 Y-76.84691 Z-1.00000 I-0.25000 J0.00000
G2 X34.13195 Y-76.84691 Z-1.25000 I-0.25000 J0.00000
G2 X34.13195 Y-76.84691 Z-1.50000 I-0.25000 J0.00000
G2 X34.13195 Y-76.84691 Z-1.75000 I-0.25000 J0.00000
G2 X34.13195 Y-76.84691 Z-2.00000 I-0.25000 J0.00000
G2 X34.13195 Y-76.84691 I-0.25000 J0.00000
G1 Z5.00000 F60.00000

G0 X34.13195 Y-79.38691
G1 Z0.25000 F60.00000
G1 F120.00000
G2 X34.13195 Y-79.38691 Z-0.00000 I-0.25000 J0.00000
G2 X34.13195 Y-79.38691 Z-0.25000 I-0.25000 J0.00000
G2 X34.13195 Y-79.38691 Z-0.50000 I-0.25000 J0.00000
G2 X34.13195 Y-79.38691 Z-0.75000 I-0.25000 J0.00000
G2 X34.13195 Y-79.38691 Z-1.00000 I-0.25000 J0.00000
G2 X34.13195 Y-79.38691 Z-1.25000 I-0.25000 J0.00000
G2 X34.13195 Y-79.38691 Z-1.50000 I-0.25000 J0.00000
G2 X34.13195 Y-79.38691 Z-1.75000 I-0.25000 J0.00000
G2 X34.13195 Y-79.38691 Z-2.00000 I-0.25000 J0.00000
G2 X34.13195 Y-79.38691 I-0.25000 J0.00000
G1 Z5.00000 F60.00000

G0 X30.03195 Y-83.83191
G1 Z0.25000 F60.00000
G1 F120.00000
G2 X30.03195 Y-83.83191 Z-0.00000 I-0.25000 J0.00000
G2 X30.03195 Y-83.83191 Z-0.25000 I-0.25000 J0.00000
G2 X30.03195 Y-83.83191 Z-0.50000 I-0.25000 J0.00000
G2 X30.03195 Y-83.83191 Z-0.75000 I-0.25000 J0.00000
G2 X30.03195 Y-83.83191 Z-1.00000 I-0.25000 J0.00000
G2 X30.03195 Y-83.83191 Z-1.25000 I-0.25000 J0.00000
G2 X30.03195 Y-83.83191 Z-1.50000 I-0.25000 J0.00000
G2 X30.03195 Y-83.83191 Z-1.75000 I-0.25000 J0.00000
G2 X30.03195 Y-83.83191 Z-2.00000 I-0.25000 J0.00000
G2 X30.03195 Y-83.83191 I-0.25000 J0.00000
G1 Z5.00000 F60.00000

G0 X38.23195 Y-83.83191
G1 Z0.25000 F60.00000
G1 F120.00000
G2 X38.23195 Y-83.83191 Z-0.00000 I-0.25000 J0.00000
G2 X38.23195 Y-83.83191 Z-0.25000 I-0.25000 J0.00000
G2 X38.23195 Y-83.83191 Z-0.50000 I-0.25000 J0.00000
G2 X38.23195 Y-83.83191 Z-0.75000 I-0.25000 J0.00000
G2 X38.23195 Y-83.83191 Z-1.00000 I-0.25000 J0.00000
G2 X38.23195 Y-83.83191 Z-1.25000 I-0.25000 J0.00000
G2 X38.23195 Y-83.83191 Z-1.50000 I-0.25000 J0.00000
G2 X38.23195 Y-83.83191 Z-1.75000 I-0.25000 J0.00000
G2 X38.23195 Y-83.83191 Z-2.00000 I-0.25000 J0.00000
G2 X38.23195 Y-83.83191 I-0.25000 J0.00000
G1 Z5.00000 F60.00000

G0 X44.92695 Y-84.12191
G1 Z0.25000 F60.00000
G1 F120.00000
G2 X44.92695 Y-84.12191 Z-0.00000 I-0.25000 J0.00000
G2 X44.92695 Y-84.12191 Z-0.25000 I-0.25000 J0.00000
G2 X44.92695 Y-84.12191 Z-0.50000 I-0.25000 J0.00000
G2 X44.92695 Y-84.12191 Z-0.75000 I-0.25000 J0.00000
G2 X44.92695 Y-84.12191 Z-1.00000 I-0.25000 J0.00000
G2 X44.92695 Y-84.12191 Z-1.25000 I-0.25000 J0.00000
G2 X44.92695 Y-84.12191 Z-1.50000 I-0.25000 J0.00000
G2 X44.92695 Y-84.12191 Z-1.75000 I-0.25000 J0.00000
G2 X44.92695 Y-84.12191 Z-2.00000 I-0.25000 J0.00000
G2 X44.92695 Y-84.12191 I-0.25000 J0.00000
G1 Z5.00000 F60.00000

G0 X48.10195 Y-80.65691
G1 Z0.25000 F60.00000
G1 F120.00000
G2 X48.10195 Y-80.65691 Z-0.00000 I-0.25000 J0.00000
G2 X48.10195 Y-80.65691 Z-0.25000 I-0.25000 J0.00000
G2 X48.10195 Y-80.65691 Z-0.50000 I-0.25000 J0.00000
G2 X48.10195 Y-80.65691 Z-0.75000 I-0.25000 J0.00000
G2 X48.10195 Y-80.65691 Z-1.00000 I-0.25000 J0.00000
G2 X48.10195 Y-80.65691 Z-1.25000 I-0.25000 J0.00000
G2 X48.10195 Y-80.65691 Z-1.50000 I-0.25000 J0.00000
G2 X48.10195 Y-80.65691 Z-1.75000 I-0.25000 J0.00000
G2 X48.10195 Y-80.65691 Z-2.00000 I-0.25000 J0.00000
G2 X48.10195 Y-80.65691 I-0.25000 J0.00000
G1 Z5.00000 F60.00000

G0 X44.92695 Y-75.92191
G1 Z0.25000 F60.00000
G1 F120.00000
G2 X44.92695 Y-75.92191 Z-0.00000 I-0.25000 J0.00000
G2 X44.92695 Y-75.92191 Z-0.25000 I-0.25000 J0.00000
G2 X44.92695 Y-75.92191 Z-0.50000 I-0.25000 J0.00000
G2 X44.92695 Y-75.92191 Z-0.75000 I-0.25000 J0.00000
G2 X44.92695 Y-75.92191 Z-1.00000 I-0.25000 J0.00000
G2 X44.92695 Y-75.92191 Z-1.25000 I-0.25000 J0.00000
G2 X44.92695 Y-75.92191 Z-1.50000 I-0.25000 J0.00000
G2 X44.92695 Y-75.92191 Z-1.75000 I-0.25000 J0.00000
G2 X44.92695 Y-75.92191 Z-2.00000 I-0.25000 J0.00000
G2 X44.92695 Y-75.92191 I-0.25000 J0.00000
G1 Z5.00000 F60.00000

G0 X41.75195 Y-79.38691
G1 Z0.25000 F60.00000
G1 F120.00000
G2 X41.75195 Y-79.38691 Z-0.00000 I-0.25000 J0.00000
G2 X41.75195 Y-79.38691 Z-0.25000 I-0.25000 J0.00000
G2 X41.75195 Y-79.38691 Z-0.50000 I-0.25000 J0.00000
G2 X41.75195 Y-79.38691 Z-0.75000 I-0.25000 J0.00000
G2 X41.75195 Y-79.38691 Z-1.00000 I-0.25000 J0.00000
G2 X41.75195 Y-79.38691 Z-1.25000 I-0.25000 J0.00000
G2 X41.75195 Y-79.38691 Z-1.50000 I-0.25000 J0.00000
G2 X41.75195 Y-79.38691 Z-1.75000 I-0.25000 J0.00000
G2 X41.75195 Y-79.38691 Z-2.00000 I-0.25000 J0.00000
G2 X41.75195 Y-79.38691 I-0.25000 J0.00000
G1 Z5.00000 F60.00000

G0 X41.75195 Y-76.84691
G1 Z0.25000 F60.00000
G1 F120.00000
G2 X41.75195 Y-76.84691 Z-0.00000 I-0.25000 J0.00000
G2 X41.75195 Y-76.84691 Z-0.25000 I-0.25000 J0.00000
G2 X41.75195 Y-76.84691 Z-0.50000 I-0.25000 J0.00000
G2 X41.75195 Y-76.84691 Z-0.75000 I-0.25000 J0.00000
G2 X41.75195 Y-76.84691 Z-1.00000 I-0.25000 J0.00000
G2 X41.75195 Y-76.84691 Z-1.25000 I-0.25000 J0.00000
G2 X41.75195 Y-76.84691 Z-1.50000 I-0.25000 J0.00000
G2 X41.75195 Y-76.84691 Z-1.75000 I-0.25000 J0.00000
G2 X41.75195 Y-76.84691 Z-2.00000 I-0.25000 J0.00000
G2 X41.75195 Y-76.84691 I-0.25000 J0.00000
G1 Z5.00000 F60.00000

G0 X41.75195 Y-74.30691
G1 Z0.25000 F60.00000
G1 F120.00000
G2 X41.75195 Y-74.30691 Z-0.00000 I-0.25000 J0.00000
G2 X41.75195 Y-74.30691 Z-0.25000 I-0.25000 J0.00000
G2 X41.75195 Y-74.30691 Z-0.50000 I-0.25000 J0.00000
G2 X41.75195 Y-74.30691 Z-0.75000 I-0.25000 J0.00000
G2 X41.75195 Y-74.30691 Z-1.00000 I-0.25000 J0.00000
G2 X41.75195 Y-74.30691 Z-1.25000 I-0.25000 J0.00000
G2 X41.75195 Y-74.30691 Z-1.50000 I-0.25000 J0.00000
G2 X41.75195 Y-74.30691 Z-1.75000 I-0.25000 J0.00000
G2 X41.75195 Y-74.30691 Z-2.00000 I-0.25000 J0.00000
G2 X41.75195 Y-74.30691 I-0.25000 J0.00000
G1 Z5.00000 F60.00000

G0 X41.75195 Y-71.76691
G1 Z0.25000 F60.00000
G1 F120.00000
G2 X41.75195 Y-71.76691 Z-0.00000 I-0.25000 J0.00000
G2 X41.75195 Y-71.76691 Z-0.25000 I-0.25000 J0.00000
G2 X41.75195 Y-71.76691 Z-0.50000 I-0.25000 J0.00000
G2 X41.75195 Y-71.76691 Z-0.75000 I-0.25000 J0.00000
G2 X41.75195 Y-71.76691 Z-1.00000 I-0.25000 J0.00000
G2 X41.75195 Y-71.76691 Z-1.25000 I-0.25000 J0.00000
G2 X41.75195 Y-71.76691 Z-1.50000 I-0.25000 J0.00000
G2 X41.75195 Y-71.76691 Z-1.75000 I-0.25000 J0.00000
G2 X41.75195 Y-71.76691 Z-2.00000 I-0.25000 J0.00000
G2 X41.75195 Y-71.76691 I-0.25000 J0.00000
G1 Z5.00000 F60.00000

G0 X41.75195 Y-69.22691
G1 Z0.25000 F60.00000
G1 F120.00000
G2 X41.75195 Y-69.22691 Z-0.00000 I-0.25000 J0.00000
G2 X41.75195 Y-69.22691 Z-0.25000 I-0.25000 J0.00000
G2 X41.75195 Y-69.22691 Z-0.50000 I-0.25000 J0.00000
G2 X41.75195 Y-69.22691 Z-0.75000 I-0.25000 J0.00000
G2 X41.75195 Y-69.22691 Z-1.00000 I-0.25000 J0.00000
G2 X41.75195 Y-69.22691 Z-1.25000 I-0.25000 J0.00000
G2 X41.75195 Y-69.22691 Z-1.50000 I-0.25000 J0.00000
G2 X41.75195 Y-69.22691 Z-1.75000 I-0.25000 J0.00000
G2 X41.75195 Y-69.22691 Z-2.00000 I-0.25000 J0.00000
G2 X41.75195 Y-69.22691 I-0.25000 J0.00000
G1 Z5.00000 F60.00000

G0 X41.75195 Y-66.68691
G1 Z0.25000 F60.00000
G1 F120.00000
G2 X41.75195 Y-66.68691 Z-0.00000 I-0.25000 J0.00000
G2 X41.75195 Y-66.68691 Z-0.25000 I-0.25000 J0.00000
G2 X41.75195 Y-66.68691 Z-0.50000 I-0.25000 J0.00000
G2 X41.75195 Y-66.68691 Z-0.75000 I-0.25000 J0.00000
G2 X41.75195 Y-66.68691 Z-1.00000 I-0.25000 J0.00000
G2 X41.75195 Y-66.68691 Z-1.25000 I-0.25000 J0.00000
G2 X41.75195 Y-66.68691 Z-1.50000 I-0.25000 J0.00000
G2 X41.75195 Y-66.68691 Z-1.75000 I-0.25000 J0.00000
G2 X41.75195 Y-66.68691 Z-2.00000 I-0.25000 J0.00000
G2 X41.75195 Y-66.68691 I-0.25000 J0.00000
G1 Z5.00000 F60.00000

G0 X41.75195 Y-64.14691
G1 Z0.25000 F60.00000
G1 F120.00000
G2 X41.75195 Y-64.14691 Z-0.00000 I-0.25000 J0.00000
G2 X41.75195 Y-64.14691 Z-0.25000 I-0.25000 J0.00000
G2 X41.75195 Y-64.14691 Z-0.50000 I-0.25000 J0.00000
G2 X41.75195 Y-64.14691 Z-0.75000 I-0.25000 J0.00000
G2 X41.75195 Y-64.14691 Z-1.00000 I-0.25000 J0.00000
G2 X41.75195 Y-64.14691 Z-1.25000 I-0.25000 J0.00000
G2 X41.75195 Y-64.14691 Z-1.50000 I-0.25000 J0.00000
G2 X41.75195 Y-64.14691 Z-1.75000 I-0.25000 J0.00000
G2 X41.75195 Y-64.14691 Z-2.00000 I-0.25000 J0.00000
G2 X41.75195 Y-64.14691 I-0.25000 J0.00000
G1 Z5.00000 F60.00000

G0 X34.13195 Y-71.76691
G1 Z0.25000 F60.00000
G1 F120.00000
G2 X34.13195 Y-71.76691 Z-0.00000 I-0.25000 J0.00000
G2 X34.13195 Y-71.76691 Z-0.25000 I-0.25000 J0.00000
G2 X34.13195 Y-71.76691 Z-0.50000 I-0.25000 J0.00000
G2 X34.13195 Y-71.76691 Z-0.75000 I-0.25000 J0.00000
G2 X34.13195 Y-71.76691 Z-1.00000 I-0.25000 J0.00000
G2 X34.13195 Y-71.76691 Z-1.25000 I-0.25000 J0.00000
G2 X34.13195 Y-71.76691 Z-1.50000 I-0.25000 J0.00000
G2 X34.13195 Y-71.76691 Z-1.75000 I-0.25000 J0.00000
G2 X34.13195 Y-71.76691 Z-2.00000 I-0.25000 J0.00000
G2 X34.13195 Y-71.76691 I-0.25000 J0.00000
G1 Z5.00000 F60.00000

G0 X34.13195 Y-69.22691
G1 Z0.25000 F60.00000
G1 F120.00000
G2 X34.13195 Y-69.22691 Z-0.00000 I-0.25000 J0.00000
G2 X34.13195 Y-69.22691 Z-0.25000 I-0.25000 J0.00000
G2 X34.13195 Y-69.22691 Z-0.50000 I-0.25000 J0.00000
G2 X34.13195 Y-69.22691 Z-0.75000 I-0.25000 J0.00000
G2 X34.13195 Y-69.22691 Z-1.00000 I-0.25000 J0.00000
G2 X34.13195 Y-69.22691 Z-1.25000 I-0.25000 J0.00000
G2 X34.13195 Y-69.22691 Z-1.50000 I-0.25000 J0.00000
G2 X34.13195 Y-69.22691 Z-1.75000 I-0.25000 J0.00000
G2 X34.13195 Y-69.22691 Z-2.00000 I-0.25000 J0.00000
G2 X34.13195 Y-69.22691 I-0.25000 J0.00000
G1 Z5.00000 F60.00000

G0 X34.13195 Y-66.68691
G1 Z0.25000 F60.00000
G1 F120.00000
G2 X34.13195 Y-66.68691 Z-0.00000 I-0.25000 J0.00000
G2 X34.13195 Y-66.68691 Z-0.25000 I-0.25000 J0.00000
G2 X34.13195 Y-66.68691 Z-0.50000 I-0.25000 J0.00000
G2 X34.13195 Y-66.68691 Z-0.75000 I-0.25000 J0.00000
G2 X34.13195 Y-66.68691 Z-1.00000 I-0.25000 J0.00000
G2 X34.13195 Y-66.68691 Z-1.25000 I-0.25000 J0.00000
G2 X34.13195 Y-66.68691 Z-1.50000 I-0.25000 J0.00000
G2 X34.13195 Y-66.68691 Z-1.75000 I-0.25000 J0.00000
G2 X34.13195 Y-66.68691 Z-2.00000 I-0.25000 J0.00000
G2 X34.13195 Y-66.68691 I-0.25000 J0.00000
G1 Z5.00000 F60.00000

G0 X34.13195 Y-64.14691
G1 Z0.25000 F60.00000
G1 F120.00000
G2 X34.13195 Y-64.14691 Z-0.00000 I-0.25000 J0.00000
G2 X34.13195 Y-64.14691 Z-0.25000 I-0.25000 J0.00000
G2 X34.13195 Y-64.14691 Z-0.50000 I-0.25000 J0.00000
G2 X34.13195 Y-64.14691 Z-0.75000 I-0.25000 J0.00000
G2 X34.13195 Y-64.14691 Z-1.00000 I-0.25000 J0.00000
G2 X34.13195 Y-64.14691 Z-1.25000 I-0.25000 J0.00000
G2 X34.13195 Y-64.14691 Z-1.50000 I-0.25000 J0.00000
G2 X34.13195 Y-64.14691 Z-1.75000 I-0.25000 J0.00000
G2 X34.13195 Y-64.14691 Z-2.00000 I-0.25000 J0.00000
G2 X34.13195 Y-64.14691 I-0.25000 J0.00000
G1 Z5.00000 F60.00000

G0 X39.84695 Y-57.79691
G1 Z0.25000 F60.00000
G1 F120.00000
G2 X39.84695 Y-57.79691 Z-0.00000 I-0.25000 J0.00000
G2 X39.84695 Y-57.79691 Z-0.25000 I-0.25000 J0.00000
G2 X39.84695 Y-57.79691 Z-0.50000 I-0.25000 J0.00000
G2 X39.84695 Y-57.79691 Z-0.75000 I-0.25000 J0.00000
G2 X39.84695 Y-57.79691 Z-1.00000 I-0.25000 J0.00000
G2 X39.84695 Y-57.79691 Z-1.25000 I-0.25000 J0.00000
G2 X39.84695 Y-57.79691 Z-1.50000 I-0.25000 J0.00000
G2 X39.84695 Y-57.79691 Z-1.75000 I-0.25000 J0.00000
G2 X39.84695 Y-57.79691 Z-2.00000 I-0.25000 J0.00000
G2 X39.84695 Y-57.79691 I-0.25000 J0.00000
G1 Z5.00000 F60.00000

G0 X39.84695 Y-55.25691
G1 Z0.25000 F60.00000
G1 F120.00000
G2 X39.84695 Y-55.25691 Z-0.00000 I-0.25000 J0.00000
G2 X39.84695 Y-55.25691 Z-0.25000 I-0.25000 J0.00000
G2 X39.84695 Y-55.25691 Z-0.50000 I-0.25000 J0.00000
G2 X39.84695 Y-55.25691 Z-0.75000 I-0.25000 J0.00000
G2 X39.84695 Y-55.25691 Z-1.00000 I-0.25000 J0.00000
G2 X39.84695 Y-55.25691 Z-1.25000 I-0.25000 J0.00000
G2 X39.84695 Y-55.25691 Z-1.50000 I-0.25000 J0.00000
G2 X39.84695 Y-55.25691 Z-1.75000 I-0.25000 J0.00000
G2 X39.84695 Y-55.25691 Z-2.00000 I-0.25000 J0.00000
G2 X39.84695 Y-55.25691 I-0.25000 J0.00000
G1 Z5.00000 F60.00000

G0 X39.84695 Y-52.71691
G1 Z0.25000 F60.00000
G1 F120.00000
G2 X39.84695 Y-52.71691 Z-0.00000 I-0.25000 J0.00000
G2 X39.84695 Y-52.71691 Z-0.25000 I-0.25000 J0.00000
G2 X39.84695 Y-52.71691 Z-0.50000 I-0.25000 J0.00000
G2 X39.84695 Y-52.71691 Z-0.75000 I-0.25000 J0.00000
G2 X39.84695 Y-52.71691 Z-1.00000 I-0.25000 J0.00000
G2 X39.84695 Y-52.71691 Z-1.25000 I-0.25000 J0.00000
G2 X39.84695 Y-52.71691 Z-1.50000 I-0.25000 J0.00000
G2 X39.84695 Y-52.71691 Z-1.75000 I-0.25000 J0.00000
G2 X39.84695 Y-52.71691 Z-2.00000 I-0.25000 J0.00000
G2 X39.84695 Y-52.71691 I-0.25000 J0.00000
G1 Z5.00000 F60.00000

G0 X39.84695 Y-50.17691
G1 Z0.25000 F60.00000
G1 F120.00000
G2 X39.84695 Y-50.17691 Z-0.00000 I-0.25000 J0.00000
G2 X39.84695 Y-50.17691 Z-0.25000 I-0.25000 J0.00000
G2 X39.84695 Y-50.17691 Z-0.50000 I-0.25000 J0.00000
G2 X39.84695 Y-50.17691 Z-0.75000 I-0.25000 J0.00000
G2 X39.84695 Y-50.17691 Z-1.00000 I-0.25000 J0.00000
G2 X39.84695 Y-50.17691 Z-1.25000 I-0.25000 J0.00000
G2 X39.84695 Y-50.17691 Z-1.50000 I-0.25000 J0.00000
G2 X39.84695 Y-50.17691 Z-1.75000 I-0.25000 J0.00000
G2 X39.84695 Y-50.17691 Z-2.00000 I-0.25000 J0.00000
G2 X39.84695 Y-50.17691 I-0.25000 J0.00000
G1 Z5.00000 F60.00000

G0 X43.28695 Y-31.13691
G1 Z0.25000 F60.00000
G1 F120.00000
G2 X43.28695 Y-31.13691 Z-0.00000 I-0.25000 J0.00000
G2 X43.28695 Y-31.13691 Z-0.25000 I-0.25000 J0.00000
G2 X43.28695 Y-31.13691 Z-0.50000 I-0.25000 J0.00000
G2 X43.28695 Y-31.13691 Z-0.75000 I-0.25000 J0.00000
G2 X43.28695 Y-31.13691 Z-1.00000 I-0.25000 J0.00000
G2 X43.28695 Y-31.13691 Z-1.25000 I-0.25000 J0.00000
G2 X43.28695 Y-31.13691 Z-1.50000 I-0.25000 J0.00000
G2 X43.28695 Y-31.13691 Z-1.75000 I-0.25000 J0.00000
G2 X43.28695 Y-31.13691 Z-2.00000 I-0.25000 J0.00000
G2 X43.28695 Y-31.13691 I-0.25000 J0.00000
G1 Z5.00000 F60.00000

G0 X38.28695 Y-31.13691
G1 Z0.25000 F60.00000
G1 F120.00000
G2 X38.28695 Y-31.13691 Z-0.00000 I-0.25000 J0.00000
G2 X38.28695 Y-31.13691 Z-0.25000 I-0.25000 J0.00000
G2 X38.28695 Y-31.13691 Z-0.50000 I-0.25000 J0.00000
G2 X38.28695 Y-31.13691 Z-0.75000 I-0.25000 J0.00000
G2 X38.28695 Y-31.13691 Z-1.00000 I-0.25000 J0.00000
G2 X38.28695 Y-31.13691 Z-1.25000 I-0.25000 J0.00000
G2 X38.28695 Y-31.13691 Z-1.50000 I-0.25000 J0.00000
G2 X38.28695 Y-31.13691 Z-1.75000 I-0.25000 J0.00000
G2 X38.28695 Y-31.13691 Z-2.00000 I-0.25000 J0.00000
G2 X38.28695 Y-31.13691 I-0.25000 J0.00000
G1 Z5.00000 F60.00000

G0 X43.28695 Y-11.13691
G1 Z0.25000 F60.00000
G1 F120.00000
G2 X43.28695 Y-11.13691 Z-0.00000 I-0.25000 J0.00000
G2 X43.28695 Y-11.13691 Z-0.25000 I-0.25000 J0.00000
G2 X43.28695 Y-11.13691 Z-0.50000 I-0.25000 J0.00000
G2 X43.28695 Y-11.13691 Z-0.75000 I-0.25000 J0.00000
G2 X43.28695 Y-11.13691 Z-1.00000 I-0.25000 J0.00000
G2 X43.28695 Y-11.13691 Z-1.25000 I-0.25000 J0.00000
G2 X43.28695 Y-11.13691 Z-1.50000 I-0.25000 J0.00000
G2 X43.28695 Y-11.13691 Z-1.75000 I-0.25000 J0.00000
G2 X43.28695 Y-11.13691 Z-2.00000 I-0.25000 J0.00000
G2 X43.28695 Y-11.13691 I-0.25000 J0.00000
G1 Z5.00000 F60.00000

G0 X10.09695 Y-23.50691
G1 Z0.25000 F60.00000
G1 F120.00000
G2 X10.09695 Y-23.50691 Z-0.00000 I-0.35000 J0.00000
G2 X10.09695 Y-23.50691 Z-0.25000 I-0.35000 J0.00000
G2 X10.09695 Y-23.50691 Z-0.50000 I-0.35000 J0.00000
G2 X10.09695 Y-23.50691 Z-0.75000 I-0.35000 J0.00000
G2 X10.09695 Y-23.50691 Z-1.00000 I-0.35000 J0.00000
G2 X10.09695 Y-23.50691 Z-1.25000 I-0.35000 J0.00000
G2 X10.09695 Y-23.50691 Z-1.50000 I-0.35000 J0.00000
G2 X10.09695 Y-23.50691 Z-1.75000 I-0.35000 J0.00000
G2 X10.09695 Y-23.50691 Z-2.00000 I-0.35000 J0.00000
G2 X10.09695 Y-23.50691 I-0.35000 J0.00000
G1 Z5.00000 F60.00000

G0 X10.09695 Y-26.04691
G1 Z0.25000 F60.00000
G1 F120.00000
G2 X10.09695 Y-26.04691 Z-0.00000 I-0.35000 J0.00000
G2 X10.09695 Y-26.04691 Z-0.25000 I-0.35000 J0.00000
G2 X10.09695 Y-26.04691 Z-0.50000 I-0.35000 J0.00000
G2 X10.09695 Y-26.04691 Z-0.75000 I-0.35000 J0.00000
G2 X10.09695 Y-26.04691 Z-1.00000 I-0.35000 J0.00000
G2 X10.09695 Y-26.04691 Z-1.25000 I-0.35000 J0.00000
G2 X10.09695 Y-26.04691 Z-1.50000 I-0.35000 J0.00000
G2 X10.09695 Y-26.04691 Z-1.75000 I-0.35000 J0.00000
G2 X10.09695 Y-26.04691 Z-2.00000 I-0.35000 J0.00000
G2 X10.09695 Y-26.04691 I-0.35000 J0.00000
G1 Z5.00000 F60.00000

G0 X10.10695 Y-28.58691
G1 Z0.25000 F60.00000
G1 F120.00000
G2 X10.10695 Y-28.58691 Z-0.00000 I-0.35000 J0.00000
G2 X10.10695 Y-28.58691 Z-0.25000 I-0.35000 J0.00000
G2 X10.10695 Y-28.58691 Z-0.50000 I-0.35000 J0.00000
G2 X10.10695 Y-28.58691 Z-0.75000 I-0.35000 J0.00000
G2 X10.10695 Y-28.58691 Z-1.00000 I-0.35000 J0.00000
G2 X10.10695 Y-28.58691 Z-1.25000 I-0.35000 J0.00000
G2 X10.10695 Y-28.58691 Z-1.50000 I-0.35000 J0.00000
G2 X10.10695 Y-28.58691 Z-1.75000 I-0.35000 J0.00000
G2 X10.10695 Y-28.58691 Z-2.00000 I-0.35000 J0.00000
G2 X10.10695 Y-28.58691 I-0.35000 J0.00000
G1 Z5.00000 F60.00000

G00 Z10.000000 ( All done -- retract )

M5      (Spindle off.)
G04 P1.000000
M9      (Coolant off.)
M2      (Program end.)

