( pcb2gcode 2.5.0 )
( Software-independent Gcode )

G94 ( Millimeters per minute feed rate. )
G21 ( Units == Millimeters. )

G90 ( Absolute coordinates. )
G00 S10000 ( RPM spindle speed. )
G64 P0.01000 ( set maximum deviation from commanded toolpath )
G01 F120.00000 ( Feedrate. )


G00 Z10.00000 (Retract to tool change height)
T1
M5      (Spindle stop.)
G04 P1.00000 (Wait for spindle to stop)
(MSG, Change tool bit to cutter diameter 0.50000mm)
M6      (Tool change.)
M0      (Temporary machine stop.)
M3 ( Spindle on clockwise. )
G04 P1.00000 (Wait for spindle to get up to speed)
G04 P0 ( dwell for no time -- G64 should not smooth over this point )
G00 Z5.00000 ( retract )

G00 X0.37701 Y-0.62702 ( rapid move to begin. )
G01 Z-0.25000 F60.00000 ( plunge. )
G04 P0 ( dwell for no time -- G64 should not smooth over this point )
G01 F120.00000
G01 X0.37701 Y-87.02680
G01 X0.38181 Y-87.07557
G01 X0.39604 Y-87.12245
G01 X0.41915 Y-87.16569
G01 X0.45024 Y-87.20356
G01 X0.48811 Y-87.23465
G01 X0.53134 Y-87.25776
G01 X0.57823 Y-87.27198
G01 X0.62700 Y-87.27678
G01 X25.12695 Y-87.27678
G01 X26.12695 Y-87.27678
G01 X50.62690 Y-87.27678
G01 X50.67567 Y-87.27198
G01 X50.72256 Y-87.25776
G01 X50.76579 Y-87.23465
G01 X50.80366 Y-87.20356
G01 X50.83475 Y-87.16569
G01 X50.85786 Y-87.12245
G01 X50.87209 Y-87.07557
G01 X50.87689 Y-87.02680
G01 X50.87689 Y-0.62702
G01 X50.87209 Y-0.57825
G01 X50.85786 Y-0.53137
G01 X50.83475 Y-0.48813
G01 X50.80366 Y-0.45026
G01 X50.76579 Y-0.41917
G01 X50.72256 Y-0.39606
G01 X50.67567 Y-0.38184
G01 X50.62690 Y-0.37703
G01 X26.12695 Y-0.37703
G01 X25.12695 Y-0.37703
G01 X0.62700 Y-0.37703
G01 X0.57823 Y-0.38184
G01 X0.53134 Y-0.39606
G01 X0.48811 Y-0.41917
G01 X0.45024 Y-0.45026
G01 X0.41915 Y-0.48813
G01 X0.39604 Y-0.53137
G01 X0.38181 Y-0.57825
G01 X0.37701 Y-0.62702
G01 Z-0.50000 F60.00000 ( plunge. )
G04 P0 ( dwell for no time -- G64 should not smooth over this point )
G01 F120.00000
G01 X0.37701 Y-87.02680
G01 X0.38181 Y-87.07557
G01 X0.39604 Y-87.12245
G01 X0.41915 Y-87.16569
G01 X0.45024 Y-87.20356
G01 X0.48811 Y-87.23465
G01 X0.53134 Y-87.25776
G01 X0.57823 Y-87.27198
G01 X0.62700 Y-87.27678
G01 X25.12695 Y-87.27678
G01 X26.12695 Y-87.27678
G01 X50.62690 Y-87.27678
G01 X50.67567 Y-87.27198
G01 X50.72256 Y-87.25776
G01 X50.76579 Y-87.23465
G01 X50.80366 Y-87.20356
G01 X50.83475 Y-87.16569
G01 X50.85786 Y-87.12245
G01 X50.87209 Y-87.07557
G01 X50.87689 Y-87.02680
G01 X50.87689 Y-0.62702
G01 X50.87209 Y-0.57825
G01 X50.85786 Y-0.53137
G01 X50.83475 Y-0.48813
G01 X50.80366 Y-0.45026
G01 X50.76579 Y-0.41917
G01 X50.72256 Y-0.39606
G01 X50.67567 Y-0.38184
G01 X50.62690 Y-0.37703
G01 X26.12695 Y-0.37703
G01 X25.12695 Y-0.37703
G01 X0.62700 Y-0.37703
G01 X0.57823 Y-0.38184
G01 X0.53134 Y-0.39606
G01 X0.48811 Y-0.41917
G01 X0.45024 Y-0.45026
G01 X0.41915 Y-0.48813
G01 X0.39604 Y-0.53137
G01 X0.38181 Y-0.57825
G01 X0.37701 Y-0.62702
G01 Z-0.75000 F60.00000 ( plunge. )
G04 P0 ( dwell for no time -- G64 should not smooth over this point )
G01 F120.00000
G01 X0.37701 Y-87.02680
G01 X0.38181 Y-87.07557
G01 X0.39604 Y-87.12245
G01 X0.41915 Y-87.16569
G01 X0.45024 Y-87.20356
G01 X0.48811 Y-87.23465
G01 X0.53134 Y-87.25776
G01 X0.57823 Y-87.27198
G01 X0.62700 Y-87.27678
G01 X25.12695 Y-87.27678
G00 Z-0.60000
G01 X26.12695 Y-87.27678
G01 Z-0.75000 F60.00000
G01 F120.00000
G01 X50.62690 Y-87.27678
G01 X50.67567 Y-87.27198
G01 X50.72256 Y-87.25776
G01 X50.76579 Y-87.23465
G01 X50.80366 Y-87.20356
G01 X50.83475 Y-87.16569
G01 X50.85786 Y-87.12245
G01 X50.87209 Y-87.07557
G01 X50.87689 Y-87.02680
G01 X50.87689 Y-0.62702
G01 X50.87209 Y-0.57825
G01 X50.85786 Y-0.53137
G01 X50.83475 Y-0.48813
G01 X50.80366 Y-0.45026
G01 X50.76579 Y-0.41917
G01 X50.72256 Y-0.39606
G01 X50.67567 Y-0.38184
G01 X50.62690 Y-0.37703
G01 X26.12695 Y-0.37703
G00 Z-0.60000
G01 X25.12695 Y-0.37703
G01 Z-0.75000 F60.00000
G01 F120.00000
G01 X0.62700 Y-0.37703
G01 X0.57823 Y-0.38184
G01 X0.53134 Y-0.39606
G01 X0.48811 Y-0.41917
G01 X0.45024 Y-0.45026
G01 X0.41915 Y-0.48813
G01 X0.39604 Y-0.53137
G01 X0.38181 Y-0.57825
G01 X0.37701 Y-0.62702
G01 Z-1.00000 F60.00000 ( plunge. )
G04 P0 ( dwell for no time -- G64 should not smooth over this point )
G01 F120.00000
G01 X0.37701 Y-87.02680
G01 X0.38181 Y-87.07557
G01 X0.39604 Y-87.12245
G01 X0.41915 Y-87.16569
G01 X0.45024 Y-87.20356
G01 X0.48811 Y-87.23465
G01 X0.53134 Y-87.25776
G01 X0.57823 Y-87.27198
G01 X0.62700 Y-87.27678
G01 X25.12695 Y-87.27678
G00 Z-0.60000
G01 X26.12695 Y-87.27678
G01 Z-1.00000 F60.00000
G01 F120.00000
G01 X50.62690 Y-87.27678
G01 X50.67567 Y-87.27198
G01 X50.72256 Y-87.25776
G01 X50.76579 Y-87.23465
G01 X50.80366 Y-87.20356
G01 X50.83475 Y-87.16569
G01 X50.85786 Y-87.12245
G01 X50.87209 Y-87.07557
G01 X50.87689 Y-87.02680
G01 X50.87689 Y-0.62702
G01 X50.87209 Y-0.57825
G01 X50.85786 Y-0.53137
G01 X50.83475 Y-0.48813
G01 X50.80366 Y-0.45026
G01 X50.76579 Y-0.41917
G01 X50.72256 Y-0.39606
G01 X50.67567 Y-0.38184
G01 X50.62690 Y-0.37703
G01 X26.12695 Y-0.37703
G00 Z-0.60000
G01 X25.12695 Y-0.37703
G01 Z-1.00000 F60.00000
G01 F120.00000
G01 X0.62700 Y-0.37703
G01 X0.57823 Y-0.38184
G01 X0.53134 Y-0.39606
G01 X0.48811 Y-0.41917
G01 X0.45024 Y-0.45026
G01 X0.41915 Y-0.48813
G01 X0.39604 Y-0.53137
G01 X0.38181 Y-0.57825
G01 X0.37701 Y-0.62702
G01 Z-1.25000 F60.00000 ( plunge. )
G04 P0 ( dwell for no time -- G64 should not smooth over this point )
G01 F120.00000
G01 X0.37701 Y-87.02680
G01 X0.38181 Y-87.07557
G01 X0.39604 Y-87.12245
G01 X0.41915 Y-87.16569
G01 X0.45024 Y-87.20356
G01 X0.48811 Y-87.23465
G01 X0.53134 Y-87.25776
G01 X0.57823 Y-87.27198
G01 X0.62700 Y-87.27678
G01 X25.12695 Y-87.27678
G00 Z-0.60000
G01 X26.12695 Y-87.27678
G01 Z-1.25000 F60.00000
G01 F120.00000
G01 X50.62690 Y-87.27678
G01 X50.67567 Y-87.27198
G01 X50.72256 Y-87.25776
G01 X50.76579 Y-87.23465
G01 X50.80366 Y-87.20356
G01 X50.83475 Y-87.16569
G01 X50.85786 Y-87.12245
G01 X50.87209 Y-87.07557
G01 X50.87689 Y-87.02680
G01 X50.87689 Y-0.62702
G01 X50.87209 Y-0.57825
G01 X50.85786 Y-0.53137
G01 X50.83475 Y-0.48813
G01 X50.80366 Y-0.45026
G01 X50.76579 Y-0.41917
G01 X50.72256 Y-0.39606
G01 X50.67567 Y-0.38184
G01 X50.62690 Y-0.37703
G01 X26.12695 Y-0.37703
G00 Z-0.60000
G01 X25.12695 Y-0.37703
G01 Z-1.25000 F60.00000
G01 F120.00000
G01 X0.62700 Y-0.37703
G01 X0.57823 Y-0.38184
G01 X0.53134 Y-0.39606
G01 X0.48811 Y-0.41917
G01 X0.45024 Y-0.45026
G01 X0.41915 Y-0.48813
G01 X0.39604 Y-0.53137
G01 X0.38181 Y-0.57825
G01 X0.37701 Y-0.62702
G01 Z-1.50000 F60.00000 ( plunge. )
G04 P0 ( dwell for no time -- G64 should not smooth over this point )
G01 F120.00000
G01 X0.37701 Y-87.02680
G01 X0.38181 Y-87.07557
G01 X0.39604 Y-87.12245
G01 X0.41915 Y-87.16569
G01 X0.45024 Y-87.20356
G01 X0.48811 Y-87.23465
G01 X0.53134 Y-87.25776
G01 X0.57823 Y-87.27198
G01 X0.62700 Y-87.27678
G01 X25.12695 Y-87.27678
G00 Z-0.60000
G01 X26.12695 Y-87.27678
G01 Z-1.50000 F60.00000
G01 F120.00000
G01 X50.62690 Y-87.27678
G01 X50.67567 Y-87.27198
G01 X50.72256 Y-87.25776
G01 X50.76579 Y-87.23465
G01 X50.80366 Y-87.20356
G01 X50.83475 Y-87.16569
G01 X50.85786 Y-87.12245
G01 X50.87209 Y-87.07557
G01 X50.87689 Y-87.02680
G01 X50.87689 Y-0.62702
G01 X50.87209 Y-0.57825
G01 X50.85786 Y-0.53137
G01 X50.83475 Y-0.48813
G01 X50.80366 Y-0.45026
G01 X50.76579 Y-0.41917
G01 X50.72256 Y-0.39606
G01 X50.67567 Y-0.38184
G01 X50.62690 Y-0.37703
G01 X26.12695 Y-0.37703
G00 Z-0.60000
G01 X25.12695 Y-0.37703
G01 Z-1.50000 F60.00000
G01 F120.00000
G01 X0.62700 Y-0.37703
G01 X0.57823 Y-0.38184
G01 X0.53134 Y-0.39606
G01 X0.48811 Y-0.41917
G01 X0.45024 Y-0.45026
G01 X0.41915 Y-0.48813
G01 X0.39604 Y-0.53137
G01 X0.38181 Y-0.57825
G01 X0.37701 Y-0.62702
G01 Z-1.75000 F60.00000 ( plunge. )
G04 P0 ( dwell for no time -- G64 should not smooth over this point )
G01 F120.00000
G01 X0.37701 Y-87.02680
G01 X0.38181 Y-87.07557
G01 X0.39604 Y-87.12245
G01 X0.41915 Y-87.16569
G01 X0.45024 Y-87.20356
G01 X0.48811 Y-87.23465
G01 X0.53134 Y-87.25776
G01 X0.57823 Y-87.27198
G01 X0.62700 Y-87.27678
G01 X25.12695 Y-87.27678
G00 Z-0.60000
G01 X26.12695 Y-87.27678
G01 Z-1.75000 F60.00000
G01 F120.00000
G01 X50.62690 Y-87.27678
G01 X50.67567 Y-87.27198
G01 X50.72256 Y-87.25776
G01 X50.76579 Y-87.23465
G01 X50.80366 Y-87.20356
G01 X50.83475 Y-87.16569
G01 X50.85786 Y-87.12245
G01 X50.87209 Y-87.07557
G01 X50.87689 Y-87.02680
G01 X50.87689 Y-0.62702
G01 X50.87209 Y-0.57825
G01 X50.85786 Y-0.53137
G01 X50.83475 Y-0.48813
G01 X50.80366 Y-0.45026
G01 X50.76579 Y-0.41917
G01 X50.72256 Y-0.39606
G01 X50.67567 Y-0.38184
G01 X50.62690 Y-0.37703
G01 X26.12695 Y-0.37703
G00 Z-0.60000
G01 X25.12695 Y-0.37703
G01 Z-1.75000 F60.00000
G01 F120.00000
G01 X0.62700 Y-0.37703
G01 X0.57823 Y-0.38184
G01 X0.53134 Y-0.39606
G01 X0.48811 Y-0.41917
G01 X0.45024 Y-0.45026
G01 X0.41915 Y-0.48813
G01 X0.39604 Y-0.53137
G01 X0.38181 Y-0.57825
G01 X0.37701 Y-0.62702
G01 Z-2.00000 F60.00000 ( plunge. )
G04 P0 ( dwell for no time -- G64 should not smooth over this point )
G01 F120.00000
G01 X0.37701 Y-87.02680
G01 X0.38181 Y-87.07557
G01 X0.39604 Y-87.12245
G01 X0.41915 Y-87.16569
G01 X0.45024 Y-87.20356
G01 X0.48811 Y-87.23465
G01 X0.53134 Y-87.25776
G01 X0.57823 Y-87.27198
G01 X0.62700 Y-87.27678
G01 X25.12695 Y-87.27678
G00 Z-0.60000
G01 X26.12695 Y-87.27678
G01 Z-2.00000 F60.00000
G01 F120.00000
G01 X50.62690 Y-87.27678
G01 X50.67567 Y-87.27198
G01 X50.72256 Y-87.25776
G01 X50.76579 Y-87.23465
G01 X50.80366 Y-87.20356
G01 X50.83475 Y-87.16569
G01 X50.85786 Y-87.12245
G01 X50.87209 Y-87.07557
G01 X50.87689 Y-87.02680
G01 X50.87689 Y-0.62702
G01 X50.87209 Y-0.57825
G01 X50.85786 Y-0.53137
G01 X50.83475 Y-0.48813
G01 X50.80366 Y-0.45026
G01 X50.76579 Y-0.41917
G01 X50.72256 Y-0.39606
G01 X50.67567 Y-0.38184
G01 X50.62690 Y-0.37703
G01 X26.12695 Y-0.37703
G00 Z-0.60000
G01 X25.12695 Y-0.37703
G01 Z-2.00000 F60.00000
G01 F120.00000
G01 X0.62700 Y-0.37703
G01 X0.57823 Y-0.38184
G01 X0.53134 Y-0.39606
G01 X0.48811 Y-0.41917
G01 X0.45024 Y-0.45026
G01 X0.41915 Y-0.48813
G01 X0.39604 Y-0.53137
G01 X0.38181 Y-0.57825
G01 X0.37701 Y-0.62702

G04 P0 ( dwell for no time -- G64 should not smooth over this point )
G00 Z10.000000 ( retract )

M5 ( Spindle off. )
G04 P1.000000
M9 ( Coolant off. )
M2 ( Program end. )

